;FLAVOR:Marlin
;TIME:805
;Filament used: 0.441979m
;Layer height: 0.2
;MINX:95.5
;MINY:77
;MINZ:0.2
;MAXX:139.5
;MAXY:158
;MAXZ:4
;POSTPROCESSED
;Generated with Cura_SteamEngine 5.4.0
;
;

;
;



; Pre-Processed for Cancel-Object support by preprocess_cancellation v(0, 3, 'a1')
; 1 known objects
EXCLUDE_OBJECT_DEFINE NAME=BasePlate_rev4_stl CENTER=117.500,117.500 POLYGON=[[106.83,77.8],[106.223,77.813],[105.084,77.909],[104.196,78.075],[103.327,78.318],[102.482,78.638],[101.669,79.031],[100.894,79.494],[100.162,80.024],[99.481,80.617],[98.855,81.267],[98.288,81.971],[97.786,82.722],[97.353,83.514],[96.991,84.341],[96.704,85.198],[96.494,86.076],[96.362,86.969],[96.301,88.536],[96.3,146.658],[96.313,147.267],[96.41,148.422],[96.576,149.31],[96.82,150.18],[97.14,151.024],[97.534,151.837],[97.998,152.612],[98.528,153.343],[99.121,154.024],[99.772,154.65],[100.476,155.216],[101.227,155.717],[102.02,156.15],[102.847,156.511],[103.704,156.798],[104.582,157.007],[105.476,157.139],[107.075,157.199],[128.17,157.2],[128.777,157.187],[129.928,157.089],[130.815,156.923],[131.685,156.678],[132.529,156.358],[133.342,155.964],[134.116,155.5],[134.847,154.969],[135.528,154.375],[136.153,153.724],[136.719,153.02],[137.22,152.268],[137.652,151.476],[138.013,150.648],[138.299,149.791],[138.508,148.913],[138.639,148.019],[138.699,146.39],[138.7,88.33],[138.687,87.723],[138.592,86.593],[138.427,85.705],[138.184,84.835],[137.866,83.99],[137.473,83.177],[137.011,82.401],[136.481,81.67],[135.889,80.988],[135.239,80.361],[134.536,79.794],[133.785,79.292],[132.993,78.857],[132.166,78.495],[131.31,78.207],[130.432,77.996],[129.539,77.864],[127.793,77.8],[106.83,77.8]]
M140 S50
M105
M190 S50
M104 S200
M105
M109 S200
M82 ;absolute extrusion mode
; Ender 3 Custom Start G-code
G92 E0 ; Reset Extruder
G28 ; Home all axes
G1 Z2.0 F3000 ; Move Z Axis up little to prevent scratching of Heat Bed
G1 X0.1 Y20 Z0.3 F5000.0 ; Move to start position
G1 X0.1 Y200.0 Z0.3 F1500.0 E15 ; Draw the first line
G1 X0.4 Y200.0 Z0.3 F5000.0 ; Move to side a little
G1 X0.4 Y20 Z0.3 F1500.0 E30 ; Draw the second line
G92 E0 ; Reset Extruder
G1 Z2.0 F3000 ; Move Z Axis up little to prevent scratching of Heat Bed
G1 X5 Y20 Z0.3 F5000.0 ; Move over to prevent blob squish
G92 E0
G92 E0
G1 F2700 E-0.75
;LAYER_COUNT:20
SET_PRINT_STATS_INFO TOTAL_LAYER=20
TIMELAPSE_TAKE_FRAME
;LAYER:0
SET_PRINT_STATS_INFO CURRENT_LAYER=1
M107
G0 F6000 X98.231 Y80.765 Z0.2
;TYPE:SKIRT
G1 F2700 E0
G1 F1200 X98.956 Y80.013 E0.03474
G1 X99.692 Y79.376 E0.06712
G1 X100.424 Y78.846 E0.09718
G1 X101.321 Y78.311 E0.13191
G1 X102.199 Y77.89 E0.1643
G1 X103.112 Y77.548 E0.19673
G1 X104.049 Y77.289 E0.22906
G1 X105.016 Y77.111 E0.26176
G1 X106.155 Y77.015 E0.29978
G1 X106.812 Y77 E0.32164
G1 X127.804 Y77 E1.01983
G1 X128.684 Y77.013 E1.04911
G1 X129.656 Y77.072 E1.0815
G1 X130.619 Y77.218 E1.11389
G1 X131.566 Y77.449 E1.14631
G1 X132.454 Y77.749 E1.17749
G1 X133.346 Y78.139 E1.20987
G1 X134.229 Y78.626 E1.24341
G1 X134.98 Y79.128 E1.27345
G1 X135.795 Y79.786 E1.30829
G1 X136.493 Y80.464 E1.34065
G1 X137.129 Y81.201 E1.37303
G1 X137.699 Y81.991 E1.40543
G1 X138.161 Y82.767 E1.43547
G1 X138.615 Y83.709 E1.47025
G1 X138.944 Y84.587 E1.50144
G1 X139.213 Y85.559 E1.53498
G1 X139.39 Y86.525 E1.56764
G1 X139.485 Y87.655 E1.60536
G1 X139.5 Y88.33 E1.62782
G1 X139.499 Y146.4 E3.55923
G1 X139.488 Y147.163 E3.58461
G1 X139.431 Y148.136 E3.61703
G1 X139.286 Y149.099 E3.64942
G1 X139.057 Y150.045 E3.68179
G1 X138.746 Y150.969 E3.71422
G1 X138.354 Y151.86 E3.7466
G1 X137.886 Y152.712 E3.77893
G1 X137.364 Y153.493 E3.81017
G1 X136.731 Y154.278 E3.84371
G1 X136.106 Y154.929 E3.87373
G1 X135.317 Y155.617 E3.90855
G1 X134.557 Y156.167 E3.93975
G1 X133.69 Y156.684 E3.97332
G1 X132.812 Y157.106 E4.00572
G1 X131.901 Y157.448 E4.03809
G1 X130.962 Y157.709 E4.0705
G1 X129.996 Y157.887 E4.10317
G1 X128.845 Y157.985 E4.14159
G1 X128.17 Y158 E4.16405
G1 X107.064 Y157.999 E4.86604
G1 X106.331 Y157.988 E4.89042
G1 X105.359 Y157.931 E4.92281
G1 X104.396 Y157.785 E4.9552
G1 X103.45 Y157.556 E4.98757
G1 X102.526 Y157.244 E5.02001
G1 X101.636 Y156.852 E5.05236
G1 X100.813 Y156.401 E5.08357
G1 X99.974 Y155.84 E5.11714
G1 X99.27 Y155.274 E5.14718
G1 X98.517 Y154.549 E5.18195
G1 X97.88 Y153.813 E5.21432
G1 X97.35 Y153.082 E5.24436
G1 X96.814 Y152.185 E5.27911
G1 X96.392 Y151.307 E5.31151
G1 X96.05 Y150.395 E5.34391
G1 X95.79 Y149.457 E5.37628
G1 X95.612 Y148.488 E5.40905
G1 X95.514 Y147.309 E5.4484
G1 X95.5 Y146.658 E5.47006
G1 X95.501 Y88.525 E7.40357
G1 X95.512 Y87.825 E7.42685
G1 X95.57 Y86.852 E7.45927
G1 X95.716 Y85.889 E7.49167
G1 X95.946 Y84.943 E7.52405
G1 X96.259 Y84.02 E7.55646
G1 X96.651 Y83.13 E7.58881
G1 X97.121 Y82.277 E7.6212
G1 X97.664 Y81.469 E7.65358
G1 X98.231 Y80.765 E7.68365
G0 F6000 X98.543 Y81.016
G1 F1200 X99.218 Y80.315 E7.71601
G1 X99.927 Y79.7 E7.74723
G1 X100.659 Y79.17 E7.77729
G1 X101.495 Y78.671 E7.80967
G1 X102.34 Y78.264 E7.84087
G1 X103.219 Y77.933 E7.87211
G1 X104.122 Y77.682 E7.90328
G1 X105.05 Y77.51 E7.93467
G1 X106.189 Y77.414 E7.97269
G1 X106.821 Y77.4 E7.99371
G1 X127.798 Y77.4 E8.69141
G1 X128.66 Y77.412 E8.72008
G1 X129.597 Y77.468 E8.7513
G1 X130.525 Y77.607 E8.78251
G1 X131.438 Y77.828 E8.81376
G1 X132.294 Y78.116 E8.8438
G1 X133.186 Y78.506 E8.87618
G1 X134.007 Y78.959 E8.90736
G1 X134.758 Y79.461 E8.93741
G1 X135.517 Y80.073 E8.96984
G1 X136.191 Y80.726 E9.00105
G1 X136.805 Y81.435 E9.03224
G1 X137.355 Y82.196 E9.06347
G1 X137.817 Y82.972 E9.09351
G1 X138.24 Y83.849 E9.1259
G1 X138.569 Y84.727 E9.15708
G1 X138.82 Y85.632 E9.18832
G1 X138.991 Y86.559 E9.21967
G1 X139.086 Y87.689 E9.25739
G1 X139.1 Y88.33 E9.27871
G1 X139.099 Y146.395 E11.20996
G1 X139.089 Y147.14 E11.23474
G1 X139.035 Y148.077 E11.26596
G1 X138.897 Y149.006 E11.2972
G1 X138.678 Y149.918 E11.32839
G1 X138.38 Y150.808 E11.35961
G1 X138.003 Y151.668 E11.39084
G1 X137.553 Y152.49 E11.42201
G1 X137.031 Y153.271 E11.45325
G1 X136.442 Y154.001 E11.48445
G1 X135.817 Y154.652 E11.51447
G1 X135.082 Y155.293 E11.5469
G1 X134.322 Y155.843 E11.57811
G1 X133.516 Y156.324 E11.60932
G1 X132.671 Y156.732 E11.64053
G1 X131.793 Y157.063 E11.67174
G1 X130.889 Y157.316 E11.70297
G1 X129.962 Y157.488 E11.73432
G1 X128.811 Y157.586 E11.77274
G1 X128.17 Y157.6 E11.79407
G1 X107.07 Y157.599 E12.49586
G1 X106.354 Y157.589 E12.51967
G1 X105.418 Y157.535 E12.55086
G1 X104.489 Y157.396 E12.5821
G1 X103.577 Y157.177 E12.6133
G1 X102.687 Y156.878 E12.64452
G1 X101.828 Y156.501 E12.67572
G1 X101.005 Y156.05 E12.70694
G1 X100.225 Y155.528 E12.73815
G1 X99.521 Y154.962 E12.7682
G1 X98.819 Y154.287 E12.80059
G1 X98.204 Y153.578 E12.83181
G1 X97.674 Y152.847 E12.86184
G1 X97.174 Y152.011 E12.89424
G1 X96.766 Y151.166 E12.92545
G1 X96.435 Y150.288 E12.95666
G1 X96.183 Y149.384 E12.98787
G1 X96.011 Y148.455 E13.01929
G1 X95.913 Y147.276 E13.05864
G1 X95.9 Y146.658 E13.0792
G1 X95.901 Y88.531 E15.01251
G1 X95.911 Y87.848 E15.03523
G1 X95.966 Y86.911 E15.06645
G1 X96.105 Y85.983 E15.09766
G1 X96.325 Y85.071 E15.12886
G1 X96.625 Y84.181 E15.1601
G1 X97.002 Y83.322 E15.1913
G1 X97.453 Y82.5 E15.22249
G1 X97.976 Y81.72 E15.25372
G1 X98.543 Y81.016 E15.28379
G0 F6000 X98.855 Y81.267
G1 F1200 X99.481 Y80.617 E15.3138
G1 X100.162 Y80.024 E15.34384
G1 X100.894 Y79.494 E15.37389
G1 X101.669 Y79.031 E15.40392
G1 X102.482 Y78.638 E15.43395
G1 X103.327 Y78.318 E15.46401
G1 X104.196 Y78.075 E15.49402
G1 X105.084 Y77.909 E15.52407
G1 X106.223 Y77.813 E15.56208
G1 X106.83 Y77.8 E15.58228
G1 X127.793 Y77.8 E16.27951
G1 X128.637 Y77.811 E16.30758
G1 X129.539 Y77.864 E16.33763
G1 X130.432 Y77.996 E16.36766
G1 X131.31 Y78.207 E16.39769
G1 X132.166 Y78.495 E16.42773
G1 X132.993 Y78.857 E16.45776
G1 X133.785 Y79.292 E16.48781
G1 X134.536 Y79.794 E16.51786
G1 X135.239 Y80.361 E16.5479
G1 X135.889 Y80.988 E16.57793
G1 X136.481 Y81.67 E16.60797
G1 X137.011 Y82.401 E16.638
G1 X137.473 Y83.177 E16.66804
G1 X137.866 Y83.99 E16.69807
G1 X138.184 Y84.835 E16.7281
G1 X138.427 Y85.705 E16.75815
G1 X138.592 Y86.593 E16.78819
G1 X138.687 Y87.723 E16.8259
G1 X138.7 Y88.33 E16.8461
G1 X138.699 Y146.39 E18.77718
G1 X138.69 Y147.117 E18.80136
G1 X138.639 Y148.019 E18.83141
G1 X138.508 Y148.913 E18.86146
G1 X138.299 Y149.791 E18.89148
G1 X138.013 Y150.648 E18.92153
G1 X137.652 Y151.476 E18.95157
G1 X137.22 Y152.268 E18.98158
G1 X136.719 Y153.02 E19.01163
G1 X136.153 Y153.724 E19.04168
G1 X135.528 Y154.375 E19.07169
G1 X134.847 Y154.969 E19.10175
G1 X134.116 Y155.5 E19.1318
G1 X133.342 Y155.964 E19.16182
G1 X132.529 Y156.358 E19.19186
G1 X131.685 Y156.678 E19.22189
G1 X130.815 Y156.923 E19.25195
G1 X129.928 Y157.089 E19.28196
G1 X128.777 Y157.187 E19.32038
G1 X128.17 Y157.2 E19.34058
G1 X107.075 Y157.199 E20.0422
G1 X106.377 Y157.19 E20.06542
G1 X105.476 Y157.139 E20.09543
G1 X104.582 Y157.007 E20.12549
G1 X103.704 Y156.798 E20.15551
G1 X102.847 Y156.511 E20.18557
G1 X102.02 Y156.15 E20.21558
G1 X101.227 Y155.717 E20.24563
G1 X100.476 Y155.216 E20.27566
G1 X99.772 Y154.65 E20.3057
G1 X99.121 Y154.024 E20.33574
G1 X98.528 Y153.343 E20.36577
G1 X97.998 Y152.612 E20.3958
G1 X97.534 Y151.837 E20.42585
G1 X97.14 Y151.024 E20.4559
G1 X96.82 Y150.18 E20.48592
G1 X96.576 Y149.31 E20.51597
G1 X96.41 Y148.422 E20.54602
G1 X96.313 Y147.267 E20.58457
G1 X96.3 Y146.658 E20.60483
G1 X96.301 Y88.536 E22.53797
G1 X96.31 Y87.871 E22.56009
G1 X96.362 Y86.969 E22.59014
G1 X96.494 Y86.076 E22.62017
G1 X96.704 Y85.198 E22.65019
G1 X96.991 Y84.341 E22.68025
G1 X97.353 Y83.514 E22.71028
G1 X97.786 Y82.722 E22.7403
G1 X98.288 Y81.971 E22.77035
G1 X98.855 Y81.267 E22.80041
G1 F2700 E22.05041
;MESH:BasePlate_rev4.stl
EXCLUDE_OBJECT_START NAME=BasePlate_rev4_stl
G0 F6000 X105.835 Y88.42
G0 X109.95 Y146.4
;TYPE:WALL-INNER
G1 F2700 E22.80041
G1 F1200 X109.55 Y146 E22.81923
G1 X109.55 Y120.95 E23.65239
G1 X109.613 Y120.681 E23.66158
G1 X109.768 Y120.486 E23.66987
G1 X109.951 Y120.383 E23.67685
G1 X110.116 Y120.35 E23.68245
G1 X124.884 Y120.35 E24.17363
G1 X125.049 Y120.383 E24.17923
G1 X125.232 Y120.486 E24.18621
G1 X125.387 Y120.681 E24.1945
G1 X125.45 Y120.95 E24.20369
G1 X125.45 Y146 E25.03685
G1 X125.114 Y146.4 E25.05423
G1 X127.9 Y146.4 E25.14689
G1 X127.9 Y88.6 E27.06933
G1 X125.05 Y88.6 E27.16412
G1 X125.45 Y89 E27.18293
G1 X125.451 Y114.13 E28.01876
G1 X125.389 Y114.319 E28.02538
G1 X125.233 Y114.514 E28.03368
G1 X125.05 Y114.617 E28.04067
G1 X124.885 Y114.65 E28.04626
G1 X110.116 Y114.65 E28.53748
G1 X109.951 Y114.617 E28.54308
G1 X109.768 Y114.514 E28.55006
G1 X109.613 Y114.319 E28.55835
G1 X109.55 Y114.13 E28.56498
G1 X109.55 Y89 E29.4008
G1 X109.886 Y88.6 E29.41818
G1 X107.1 Y88.6 E29.51084
G1 X107.1 Y146.4 E31.43328
G1 X109.95 Y146.4 E31.52807
G1 F2700 E30.77807
G0 F6000 X109.95 Y146.5
G0 X124.894 Y146.5
G0 X124.894 Y146.249
;TYPE:WALL-OUTER
G1 F2700 E31.52807
G1 F956.2 X110.15 Y146.25 E32.1435
G1 F1066.7 X109.95 Y146 E32.15548
G1 F1200 X109.95 Y120.95 E32.98865
G1 X110.022 Y120.795 E32.99433
G1 X110.138 Y120.75 E32.99847
G1 X124.862 Y120.75 E33.48819
G1 X124.978 Y120.795 E33.49233
G1 X125.05 Y120.95 E33.49802
G1 X125.05 Y146 E34.33118
G1 F1061.9 X124.894 Y146.249 E34.34223
G1 F2700 E33.59223
G0 F6000 X124.894 Y146.5
G0 X128.03 Y146.53
G0 X128.3 Y146.8
G1 F2700 E34.34223
G1 F1200 X128.3 Y88.2 E36.29127
G1 X125.85 Y88.2 E36.37276
G1 F1066.7 X124.85 Y88.25 E36.41022
G1 F956.2 X110.063 Y88.252 E37.02745
G1 F1061.9 X109.15 Y88.2 E37.06182
G1 F1200 X106.7 Y88.2 E37.14331
G1 X106.7 Y146.8 E39.09235
G1 X109.15 Y146.8 E39.17384
G1 F1066.7 X110.15 Y146.75 E39.21131
G1 F956.2 X124.937 Y146.748 E39.82854
G1 F1061.9 X125.85 Y146.8 E39.86291
G1 F1200 X128.3 Y146.8 E39.94439
G1 F2700 E39.19439
G0 F6000 X128.03 Y146.53
G0 X125.446 Y146.216
G0 X125.278 Y120.522
G0 X109.666 Y120.361
G0 X109.587 Y146.215
G0 X107.272 Y146.228
G0 X107.272 Y88.772
G0 X109.554 Y88.784
G0 X109.666 Y114.639
G0 X110.022 Y114.55
G0 X110.022 Y114.205
G1 F2700 E39.94439
G1 F1200 X109.952 Y114.085 E39.94902
G1 X109.95 Y89 E40.78335
G1 F1061.9 X110.106 Y88.751 E40.79439
G1 F956.2 X124.85 Y88.75 E41.40983
G1 F1066.7 X125.05 Y89 E41.4218
G1 F1200 X125.049 Y114.085 E42.25614
G1 X124.979 Y114.205 E42.26076
G1 X124.863 Y114.25 E42.26489
G1 X110.138 Y114.25 E42.75465
G1 X110.022 Y114.205 E42.75879
G1 F2700 E42.00879
G0 F6000 X110.022 Y114.55
G0 X109.469 Y114.389
G0 X109.554 Y88.784
G0 X107.272 Y88.772
G0 X107.272 Y146.228
G0 X109.587 Y146.215
G0 X109.666 Y120.361
G0 X125.278 Y120.522
G0 X125.446 Y146.216
G0 X125.81 Y146.3
G0 X125.81 Y146.04
;TYPE:SKIN
G1 F2700 E42.75879
G1 F1200 X125.81 Y120.954 E43.59315
G1 X125.714 Y120.519 E43.60797
G1 X125.466 Y120.208 E43.6212
G1 X125.199 Y120.057 E43.6314
G1 X124.903 Y119.991 E43.64149
G1 X110.07 Y119.994 E44.13483
G1 X109.801 Y120.057 E44.14402
G1 X109.534 Y120.208 E44.15423
G1 X109.286 Y120.517 E44.1674
G1 X109.195 Y120.908 E44.18076
G1 X109.19 Y146.039 E45.01662
G1 X107.46 Y146.04 E45.07416
G1 X107.46 Y88.96 E46.97265
G1 X109.19 Y88.96 E47.03019
G1 X109.192 Y114.184 E47.86914
G1 X109.291 Y114.486 E47.87971
G1 X109.535 Y114.792 E47.89273
G1 X109.801 Y114.943 E47.9029
G1 X110.07 Y115.006 E47.91209
G1 X124.905 Y115.009 E48.4055
G1 X125.171 Y114.959 E48.41451
G1 X125.467 Y114.792 E48.42581
G1 X125.711 Y114.486 E48.43883
G1 X125.809 Y114.188 E48.44926
G1 X125.81 Y88.96 E49.28835
G1 X127.54 Y88.96 E49.34589
G1 X127.54 Y146.04 E51.24438
G1 X125.81 Y146.04 E51.30192
G0 F6000 X125.81 Y146.3
G0 X125.278 Y146.428
G0 X109.722 Y146.428
G0 X107.938 Y146.3
G0 X107.938 Y145.839
G1 F1200 X107.659 Y145.56 E51.31504
G0 F6000 X107.659 Y144.994
G1 F1200 X108.504 Y145.839 E51.35478
G0 F6000 X108.99 Y145.76
G1 F1200 X107.659 Y144.428 E51.41741
G0 F6000 X107.659 Y143.862
G1 F1200 X108.99 Y145.194 E51.48004
G0 F6000 X108.99 Y144.628
G1 F1200 X107.659 Y143.297 E51.54265
G0 F6000 X107.659 Y142.731
G1 F1200 X108.99 Y144.063 E51.60528
G0 F6000 X108.99 Y143.497
G1 F1200 X107.659 Y142.165 E51.66791
G0 F6000 X107.659 Y141.6
G1 F1200 X108.99 Y142.931 E51.73052
G0 F6000 X108.99 Y142.366
G1 F1200 X107.659 Y141.034 E51.79315
G0 F6000 X107.659 Y140.468
G1 F1200 X108.99 Y141.8 E51.85578
G0 F6000 X108.99 Y141.234
G1 F1200 X107.659 Y139.903 E51.91838
G0 F6000 X107.659 Y139.337
G1 F1200 X108.99 Y140.668 E51.98099
G0 F6000 X108.99 Y140.103
G1 F1200 X107.659 Y138.771 E52.04362
G0 F6000 X107.659 Y138.206
G1 F1200 X108.99 Y139.537 E52.10622
G0 F6000 X108.99 Y138.971
G1 F1200 X107.659 Y137.64 E52.16883
G0 F6000 X107.659 Y137.074
G1 F1200 X108.99 Y138.406 E52.23146
G0 F6000 X108.99 Y137.84
G1 F1200 X107.659 Y136.509 E52.29407
G0 F6000 X107.659 Y135.943
G1 F1200 X108.99 Y137.274 E52.35667
G0 F6000 X108.99 Y136.709
G1 F1200 X107.659 Y135.377 E52.4193
G0 F6000 X107.659 Y134.812
G1 F1200 X108.99 Y136.143 E52.48191
G0 F6000 X108.99 Y135.577
G1 F1200 X107.659 Y134.246 E52.54451
G0 F6000 X107.659 Y133.68
G1 F1200 X108.99 Y135.012 E52.60714
G0 F6000 X108.99 Y134.446
G1 F1200 X107.659 Y133.114 E52.66977
G0 F6000 X107.659 Y132.549
G1 F1200 X108.99 Y133.88 E52.73238
G0 F6000 X108.99 Y133.315
G1 F1200 X107.659 Y131.983 E52.79501
G0 F6000 X107.659 Y131.417
G1 F1200 X108.99 Y132.749 E52.85764
G0 F6000 X108.99 Y132.183
G1 F1200 X107.659 Y130.852 E52.92024
G0 F6000 X107.659 Y130.286
G1 F1200 X108.99 Y131.618 E52.98287
G0 F6000 X108.99 Y131.052
G1 F1200 X107.659 Y129.72 E53.0455
G0 F6000 X107.659 Y129.155
G1 F1200 X108.99 Y130.486 E53.10811
G0 F6000 X108.99 Y129.92
G1 F1200 X107.659 Y128.589 E53.17072
G0 F6000 X107.659 Y128.023
G1 F1200 X108.99 Y129.355 E53.23335
G0 F6000 X108.99 Y128.789
G1 F1200 X107.659 Y127.458 E53.29595
G0 F6000 X107.659 Y126.892
G1 F1200 X108.99 Y128.223 E53.35856
G0 F6000 X108.99 Y127.658
G1 F1200 X107.659 Y126.326 E53.42119
G0 F6000 X107.659 Y125.761
G1 F1200 X108.99 Y127.092 E53.48379
G0 F6000 X108.99 Y126.526
G1 F1200 X107.659 Y125.195 E53.5464
G0 F6000 X107.659 Y124.629
G1 F1200 X108.99 Y125.961 E53.60903
G0 F6000 X108.99 Y125.395
G1 F1200 X107.659 Y124.064 E53.67164
G0 F6000 X107.659 Y123.498
G1 F1200 X108.99 Y124.829 E53.73424
G0 F6000 X108.99 Y124.264
G1 F1200 X107.659 Y122.932 E53.79687
G0 F6000 X107.659 Y122.366
