;FLAVOR:Marlin
;TIME:620
;Filament used: 0.363806m
;Layer height: 0.2
;MINX:91.5
;MINY:95.5
;MINZ:0.2
;MAXX:171.5
;MAXY:139.5
;MAXZ:3
;POSTPROCESSED
;Generated with Cura_SteamEngine 5.4.0
;
;

;
;



; Pre-Processed for Cancel-Object support by preprocess_cancellation v(0, 3, 'a1')
; 1 known objects
EXCLUDE_OBJECT_DEFINE NAME=BasePlate_rev2_stl CENTER=131.500,117.500 POLYGON=[[102.83,96.3],[102.223,96.313],[101.084,96.409],[100.196,96.575],[99.327,96.818],[98.482,97.138],[97.669,97.531],[96.894,97.994],[96.162,98.524],[95.481,99.117],[94.855,99.767],[94.288,100.471],[93.786,101.222],[93.353,102.014],[92.991,102.841],[92.704,103.698],[92.494,104.576],[92.362,105.469],[92.301,107.036],[92.3,128.158],[92.313,128.767],[92.41,129.922],[92.576,130.81],[92.82,131.68],[93.14,132.524],[93.534,133.337],[93.998,134.112],[94.528,134.843],[95.121,135.524],[95.772,136.15],[96.476,136.716],[97.227,137.217],[98.02,137.65],[98.847,138.011],[99.704,138.298],[100.582,138.507],[101.476,138.639],[102.377,138.69],[160.777,138.687],[161.928,138.589],[162.815,138.423],[163.685,138.178],[164.529,137.858],[165.342,137.464],[166.116,137.0],[166.847,136.469],[167.528,135.875],[168.153,135.224],[168.719,134.52],[169.22,133.768],[169.652,132.976],[170.013,132.148],[170.299,131.291],[170.508,130.413],[170.639,129.519],[170.69,128.617],[170.7,106.83],[170.687,106.223],[170.592,105.093],[170.427,104.205],[170.184,103.335],[169.866,102.49],[169.473,101.677],[169.011,100.901],[168.481,100.17],[167.889,99.488],[167.239,98.861],[166.536,98.294],[165.785,97.792],[164.993,97.357],[164.166,96.995],[163.31,96.707],[162.432,96.496],[161.539,96.364],[160.637,96.311],[102.83,96.3]]
M140 S50
M105
M190 S50
M104 S200
M105
M109 S200
M82 ;absolute extrusion mode
; Ender 3 Custom Start G-code
G92 E0 ; Reset Extruder
G28 ; Home all axes
G1 Z2.0 F3000 ; Move Z Axis up little to prevent scratching of Heat Bed
G1 X0.1 Y20 Z0.3 F5000.0 ; Move to start position
G1 X0.1 Y200.0 Z0.3 F1500.0 E15 ; Draw the first line
G1 X0.4 Y200.0 Z0.3 F5000.0 ; Move to side a little
G1 X0.4 Y20 Z0.3 F1500.0 E30 ; Draw the second line
G92 E0 ; Reset Extruder
G1 Z2.0 F3000 ; Move Z Axis up little to prevent scratching of Heat Bed
G1 X5 Y20 Z0.3 F5000.0 ; Move over to prevent blob squish
G92 E0
G92 E0
G1 F2700 E-0.75
;LAYER_COUNT:15
SET_PRINT_STATS_INFO TOTAL_LAYER=15
TIMELAPSE_TAKE_FRAME
;LAYER:0
SET_PRINT_STATS_INFO CURRENT_LAYER=1
M107
G0 F6000 X94.956 Y98.513 Z0.2
;TYPE:SKIRT
G1 F2700 E0
G1 F1200 X95.692 Y97.876 E0.03237
G1 X96.424 Y97.346 E0.06243
G1 X97.321 Y96.811 E0.09717
G1 X98.199 Y96.39 E0.12956
G1 X99.112 Y96.048 E0.16198
G1 X100.049 Y95.789 E0.19432
G1 X101.016 Y95.611 E0.22702
G1 X102.155 Y95.515 E0.26504
G1 X102.812 Y95.5 E0.2869
G1 X159.804 Y95.5 E2.18246
G1 X160.684 Y95.513 E2.21173
G1 X161.656 Y95.572 E2.24412
G1 X162.619 Y95.718 E2.27651
G1 X163.566 Y95.949 E2.30893
G1 X164.454 Y96.249 E2.34011
G1 X165.346 Y96.639 E2.37249
G1 X166.229 Y97.126 E2.40603
G1 X166.98 Y97.628 E2.43607
G1 X167.795 Y98.286 E2.47091
G1 X168.493 Y98.964 E2.50328
G1 X169.129 Y99.701 E2.53565
G1 X169.699 Y100.491 E2.56806
G1 X170.161 Y101.267 E2.59809
G1 X170.615 Y102.209 E2.63287
G1 X170.944 Y103.087 E2.66406
G1 X171.213 Y104.059 E2.6976
G1 X171.39 Y105.025 E2.73027
G1 X171.485 Y106.155 E2.76798
G1 X171.5 Y106.83 E2.79044
G1 X171.499 Y127.9 E3.49123
G1 X171.488 Y128.663 E3.51661
G1 X171.431 Y129.636 E3.54903
G1 X171.286 Y130.599 E3.58142
G1 X171.057 Y131.545 E3.61379
G1 X170.746 Y132.469 E3.64622
G1 X170.354 Y133.36 E3.67859
G1 X169.886 Y134.212 E3.71093
G1 X169.364 Y134.993 E3.74217
G1 X168.731 Y135.778 E3.77571
G1 X168.106 Y136.429 E3.80573
G1 X167.317 Y137.117 E3.84054
G1 X166.557 Y137.667 E3.87175
G1 X165.69 Y138.184 E3.90532
G1 X164.812 Y138.606 E3.93772
G1 X163.901 Y138.948 E3.97009
G1 X162.962 Y139.209 E4.0025
G1 X161.996 Y139.387 E4.03517
G1 X160.845 Y139.485 E4.07359
G1 X160.17 Y139.5 E4.09605
G1 X103.064 Y139.499 E5.9954
G1 X102.331 Y139.488 E6.01978
G1 X101.359 Y139.431 E6.05217
G1 X100.396 Y139.285 E6.08456
G1 X99.45 Y139.056 E6.11694
G1 X98.526 Y138.744 E6.14937
G1 X97.636 Y138.352 E6.18172
G1 X96.813 Y137.901 E6.21293
G1 X95.974 Y137.34 E6.2465
G1 X95.27 Y136.774 E6.27655
G1 X94.517 Y136.049 E6.31131
G1 X93.88 Y135.313 E6.34369
G1 X93.35 Y134.582 E6.37372
G1 X92.814 Y133.685 E6.40847
G1 X92.392 Y132.807 E6.44087
G1 X92.05 Y131.895 E6.47327
G1 X91.79 Y130.957 E6.50564
G1 X91.612 Y129.988 E6.53841
G1 X91.514 Y128.809 E6.57776
G1 X91.5 Y128.158 E6.59942
G1 X91.501 Y107.025 E7.3023
G1 X91.512 Y106.325 E7.32559
G1 X91.57 Y105.352 E7.35801
G1 X91.716 Y104.389 E7.3904
G1 X91.946 Y103.443 E7.42279
G1 X92.259 Y102.52 E7.4552
G1 X92.651 Y101.63 E7.48755
G1 X93.121 Y100.777 E7.51994
G1 X93.664 Y99.969 E7.55232
G1 X94.231 Y99.265 E7.58238
G1 X94.956 Y98.513 E7.61713
G0 F6000 X95.218 Y98.815
G1 F1200 X95.927 Y98.2 E7.64834
G1 X96.659 Y97.67 E7.6784
G1 X97.495 Y97.171 E7.71078
G1 X98.34 Y96.764 E7.74198
G1 X99.219 Y96.433 E7.77322
G1 X100.122 Y96.182 E7.80439
G1 X101.05 Y96.01 E7.83578
G1 X102.189 Y95.914 E7.8738
G1 X102.821 Y95.9 E7.89482
G1 X159.798 Y95.9 E9.78989
G1 X160.66 Y95.912 E9.81856
G1 X161.597 Y95.968 E9.84978
G1 X162.525 Y96.107 E9.88099
G1 X163.438 Y96.328 E9.91223
G1 X164.294 Y96.616 E9.94227
G1 X165.186 Y97.006 E9.97465
G1 X166.007 Y97.459 E10.00584
G1 X166.758 Y97.961 E10.03589
G1 X167.517 Y98.573 E10.06831
G1 X168.191 Y99.226 E10.09953
G1 X168.805 Y99.935 E10.13072
G1 X169.355 Y100.696 E10.16195
G1 X169.817 Y101.472 E10.19199
G1 X170.24 Y102.349 E10.22437
G1 X170.569 Y103.227 E10.25556
G1 X170.82 Y104.132 E10.2868
G1 X170.991 Y105.059 E10.31815
G1 X171.086 Y106.189 E10.35586
G1 X171.1 Y106.83 E10.37719
G1 X171.099 Y127.895 E11.07781
G1 X171.089 Y128.64 E11.1026
G1 X171.035 Y129.577 E11.13381
G1 X170.897 Y130.506 E11.16505
G1 X170.678 Y131.418 E11.19625
G1 X170.38 Y132.308 E11.22746
G1 X170.003 Y133.168 E11.25869
G1 X169.553 Y133.99 E11.28986
G1 X169.031 Y134.771 E11.32111
G1 X168.442 Y135.501 E11.3523
G1 X167.817 Y136.152 E11.38232
G1 X167.082 Y136.793 E11.41476
G1 X166.322 Y137.343 E11.44596
G1 X165.516 Y137.824 E11.47718
G1 X164.671 Y138.232 E11.50839
G1 X163.793 Y138.563 E11.5396
G1 X162.889 Y138.816 E11.57082
G1 X161.962 Y138.988 E11.60218
G1 X160.811 Y139.086 E11.6406
G1 X160.17 Y139.1 E11.66192
G1 X103.07 Y139.099 E13.56108
G1 X102.354 Y139.089 E13.58489
G1 X101.418 Y139.035 E13.61608
G1 X100.489 Y138.896 E13.64732
G1 X99.577 Y138.677 E13.67851
G1 X98.687 Y138.378 E13.70974
G1 X97.828 Y138.001 E13.74094
G1 X97.005 Y137.55 E13.77216
G1 X96.225 Y137.028 E13.80337
G1 X95.521 Y136.462 E13.83342
G1 X94.819 Y135.787 E13.86581
G1 X94.204 Y135.078 E13.89702
G1 X93.674 Y134.347 E13.92706
G1 X93.174 Y133.511 E13.95945
G1 X92.766 Y132.666 E13.99066
G1 X92.435 Y131.788 E14.02187
G1 X92.183 Y130.884 E14.05309
G1 X92.011 Y129.955 E14.08451
G1 X91.913 Y128.776 E14.12386
G1 X91.9 Y128.158 E14.14442
G1 X91.901 Y107.031 E14.84711
G1 X91.911 Y106.348 E14.86982
G1 X91.966 Y105.411 E14.90104
G1 X92.105 Y104.483 E14.93225
G1 X92.325 Y103.571 E14.96346
G1 X92.625 Y102.681 E14.99469
G1 X93.002 Y101.822 E15.02589
G1 X93.453 Y101 E15.05708
G1 X93.976 Y100.22 E15.08831
G1 X94.543 Y99.516 E15.11838
G1 X95.218 Y98.815 E15.15075
G0 F6000 X95.481 Y99.117
G1 F1200 X96.162 Y98.524 E15.18078
G1 X96.894 Y97.994 E15.21084
G1 X97.669 Y97.531 E15.24086
G1 X98.482 Y97.138 E15.2709
G1 X99.327 Y96.818 E15.30095
G1 X100.196 Y96.575 E15.33096
G1 X101.084 Y96.409 E15.36101
G1 X102.223 Y96.313 E15.39903
G1 X102.83 Y96.3 E15.41922
G1 X159.793 Y96.3 E17.31382
G1 X160.637 Y96.311 E17.34189
G1 X161.539 Y96.364 E17.37194
G1 X162.432 Y96.496 E17.40197
G1 X163.31 Y96.707 E17.432
G1 X164.166 Y96.995 E17.46204
G1 X164.993 Y97.357 E17.49207
G1 X165.785 Y97.792 E17.52212
G1 X166.536 Y98.294 E17.55217
G1 X167.239 Y98.861 E17.5822
G1 X167.889 Y99.488 E17.61224
G1 X168.481 Y100.17 E17.64228
G1 X169.011 Y100.901 E17.67231
G1 X169.473 Y101.677 E17.70235
G1 X169.866 Y102.49 E17.73238
G1 X170.184 Y103.335 E17.76241
G1 X170.427 Y104.205 E17.79246
G1 X170.592 Y105.093 E17.8225
G1 X170.687 Y106.223 E17.86021
G1 X170.7 Y106.83 E17.88041
G1 X170.699 Y127.89 E18.58087
G1 X170.69 Y128.617 E18.60505
G1 X170.639 Y129.519 E18.6351
G1 X170.508 Y130.413 E18.66515
G1 X170.299 Y131.291 E18.69517
G1 X170.013 Y132.148 E18.72522
G1 X169.652 Y132.976 E18.75526
G1 X169.22 Y133.768 E18.78526
G1 X168.719 Y134.52 E18.81532
G1 X168.153 Y135.224 E18.84536
G1 X167.528 Y135.875 E18.87538
G1 X166.847 Y136.469 E18.90543
G1 X166.116 Y137 E18.93548
G1 X165.342 Y137.464 E18.9655
G1 X164.529 Y137.858 E18.99555
G1 X163.685 Y138.178 E19.02557
G1 X162.815 Y138.423 E19.05563
G1 X161.928 Y138.589 E19.08565
G1 X160.777 Y138.687 E19.12407
G1 X160.17 Y138.7 E19.14426
G1 X103.075 Y138.699 E21.04325
G1 X102.377 Y138.69 E21.06646
G1 X101.476 Y138.639 E21.09648
G1 X100.582 Y138.507 E21.12654
G1 X99.704 Y138.298 E21.15656
G1 X98.847 Y138.011 E21.18662
G1 X98.02 Y137.65 E21.21663
G1 X97.227 Y137.217 E21.24668
G1 X96.476 Y136.716 E21.27671
G1 X95.772 Y136.15 E21.30675
G1 X95.121 Y135.524 E21.33679
G1 X94.528 Y134.843 E21.36682
G1 X93.998 Y134.112 E21.39685
G1 X93.534 Y133.337 E21.4269
G1 X93.14 Y132.524 E21.45695
G1 X92.82 Y131.68 E21.48697
G1 X92.576 Y130.81 E21.51702
G1 X92.41 Y129.922 E21.54707
G1 X92.313 Y128.767 E21.58562
G1 X92.3 Y128.158 E21.60588
G1 X92.301 Y107.036 E22.3084
G1 X92.31 Y106.371 E22.33052
G1 X92.362 Y105.469 E22.36057
G1 X92.494 Y104.576 E22.39059
G1 X92.704 Y103.698 E22.42062
G1 X92.991 Y102.841 E22.45068
G1 X93.353 Y102.014 E22.4807
G1 X93.786 Y101.222 E22.51073
G1 X94.288 Y100.471 E22.54077
G1 X94.855 Y99.767 E22.57084
G1 X95.481 Y99.117 E22.60085
G1 F2700 E21.85085
;MESH:BasePlate_rev2.stl
EXCLUDE_OBJECT_START NAME=BasePlate_rev2_stl
G0 F6000 X102.914 Y105.835
G0 X103.1 Y127.9
;TYPE:WALL-INNER
G1 F2700 E22.60085
G1 F1200 X159.9 Y127.9 E24.49003
G1 X159.9 Y125.116 E24.58262
G1 X159.5 Y125.45 E24.59995
G1 X134.5 Y125.45 E25.43146
G1 X134.263 Y125.402 E25.4395
G1 X134.078 Y125.277 E25.44693
G1 X133.963 Y125.12 E25.4534
G1 X133.902 Y124.903 E25.4609
G1 X133.902 Y110.091 E25.95355
G1 X133.963 Y109.88 E25.96085
G1 X134.078 Y109.723 E25.96732
G1 X134.263 Y109.598 E25.97475
G1 X134.423 Y109.55 E25.98031
G1 X159.5 Y109.55 E26.81437
G1 X159.9 Y109.95 E26.83319
G1 X159.9 Y107.1 E26.92798
G1 X103.1 Y107.1 E28.81715
G1 X103.1 Y109.95 E28.91194
G1 X103.5 Y109.55 E28.93076
G1 X128.5 Y109.55 E29.76226
G1 X128.737 Y109.598 E29.7703
G1 X128.922 Y109.723 E29.77773
G1 X129.037 Y109.88 E29.7842
G1 X129.098 Y110.091 E29.79151
G1 X129.098 Y124.909 E30.28436
G1 X129.037 Y125.12 E30.29166
G1 X128.922 Y125.277 E30.29814
G1 X128.737 Y125.402 E30.30556
G1 X128.577 Y125.45 E30.31112
G1 X103.5 Y125.45 E31.14518
G1 X103.1 Y125.114 E31.16256
G1 X103.1 Y127.9 E31.25522
G0 F6000 X102.7 Y128.3
;TYPE:WALL-OUTER
G1 F1200 X160.3 Y128.3 E33.171
G1 X160.3 Y125.85 E33.25249
G1 F1064.3 X160.249 Y124.937 E33.28678
G1 F958.1 X160.25 Y110.15 E33.90278
G1 F1066.7 X160.3 Y109.15 E33.94025
G1 F1200 X160.3 Y106.7 E34.02174
G1 X102.7 Y106.7 E35.93752
G1 X102.7 Y109.15 E36.01901
G1 F1066.7 X102.75 Y110.15 E36.05647
G1 F956.2 X102.752 Y124.937 E36.6737
G1 F1061.9 X102.7 Y125.85 E36.70807
G1 F1200 X102.7 Y128.3 E36.78956
G1 F2700 E36.03956
G0 F6000 X102.97 Y128.03
G0 X103 Y124.894
G0 X103.251 Y124.894
G1 F2700 E36.78956
G1 F956.2 X103.25 Y110.15 E37.405
G1 F1066.7 X103.5 Y109.95 E37.41697
G1 F1200 X128.5 Y109.95 E38.24848
G1 X128.641 Y110.007 E38.25354
G1 X128.7 Y110.13 E38.25807
G1 X128.697 Y124.889 E38.74896
G1 X128.641 Y124.993 E38.75289
G1 X128.535 Y125.048 E38.75686
G1 X103.5 Y125.05 E39.58953
G1 F1061.9 X103.251 Y124.894 E39.60057
G1 F2700 E38.85057
G0 F6000 X103 Y124.894
G0 X103.272 Y127.728
G0 X159.728 Y127.728
G0 X159.716 Y125.447
G0 X134.359 Y125.35
G0 X134.359 Y124.993
G1 F2700 E39.60057
G1 F1200 X134.303 Y124.889 E39.6045
G1 X134.3 Y110.13 E40.09539
G1 X134.359 Y110.007 E40.09992
G1 X134.465 Y109.952 E40.1039
G1 X159.5 Y109.95 E40.93656
G1 F1066.7 X159.75 Y110.15 E40.94854
G1 F958.1 X159.749 Y124.894 E41.56275
G1 F1064.3 X159.5 Y125.05 E41.57377
G1 F1200 X134.5 Y125.05 E42.40528
G1 X134.359 Y124.993 E42.41033
G1 F2700 E41.66033
G0 F6000 X134.359 Y125.35
G0 X159.716 Y125.447
G0 X159.728 Y127.728
G0 X103.272 Y127.728
G0 X103.46 Y127.54
;TYPE:SKIN
G1 F2700 E42.41033
G1 F1200 X103.46 Y125.81 E42.46787
G1 X128.633 Y125.808 E43.30513
G1 X128.913 Y125.716 E43.31493
G1 X129.177 Y125.534 E43.3256
G1 X129.369 Y125.259 E43.33675
G1 X129.456 Y124.988 E43.34622
G1 X129.456 Y110.051 E43.84303
G1 X129.37 Y109.751 E43.85341
G1 X129.178 Y109.463 E43.86492
G1 X128.879 Y109.263 E43.87688
G1 X128.54 Y109.194 E43.88839
G1 X103.461 Y109.19 E44.72252
G1 X103.46 Y107.46 E44.78006
G1 X159.54 Y107.46 E46.64529
G1 X159.54 Y109.19 E46.70283
G1 X134.367 Y109.192 E47.54009
G1 X134.087 Y109.284 E47.54989
G1 X133.823 Y109.466 E47.56055
G1 X133.631 Y109.741 E47.57171
G1 X133.544 Y110.012 E47.58118
G1 X133.542 Y124.936 E48.07755
G1 X133.637 Y125.281 E48.08945
G1 X133.855 Y125.559 E48.1012
G1 X134.121 Y125.737 E48.11185
G1 X134.46 Y125.806 E48.12335
G1 X159.54 Y125.81 E48.95752
G1 X159.54 Y127.54 E49.01506
G1 X103.46 Y127.54 E50.88029
G0 F6000 X104.146 Y127.339
G1 F1200 X103.659 Y126.852 E50.90319
G0 F6000 X103.659 Y126.287
G1 F1200 X104.711 Y127.339 E50.95268
G0 F6000 X105.277 Y127.339
G1 F1200 X103.947 Y126.009 E51.01524
G0 F6000 X104.513 Y126.009
G1 F1200 X105.843 Y127.339 E51.0778
G0 F6000 X106.408 Y127.339
G1 F1200 X105.078 Y126.009 E51.14035
G0 F6000 X105.644 Y126.009
G1 F1200 X106.974 Y127.339 E51.20291
G0 F6000 X107.54 Y127.339
G1 F1200 X106.21 Y126.009 E51.26547
G0 F6000 X106.775 Y126.009
G1 F1200 X108.106 Y127.339 E51.32806
G0 F6000 X108.671 Y127.339
G1 F1200 X107.341 Y126.009 E51.39061
G0 F6000 X107.906 Y126.008
G1 F1200 X109.237 Y127.339 E51.45322
G0 F6000 X109.803 Y127.339
G1 F1200 X108.472 Y126.008 E51.51583
G0 F6000 X109.037 Y126.008
G1 F1200 X110.368 Y127.339 E51.57843
G0 F6000 X110.934 Y127.339
G1 F1200 X109.603 Y126.008 E51.64104
G0 F6000 X110.169 Y126.008
G1 F1200 X111.5 Y127.339 E51.70365
G0 F6000 X112.065 Y127.339
G1 F1200 X110.735 Y126.008 E51.76623
G0 F6000 X111.3 Y126.008
G1 F1200 X112.631 Y127.339 E51.82883
G0 F6000 X113.197 Y127.339
G1 F1200 X111.866 Y126.008 E51.89144
G0 F6000 X112.431 Y126.007
G1 F1200 X113.762 Y127.339 E51.95407
G0 F6000 X114.328 Y127.339
G1 F1200 X112.997 Y126.007 E52.0167
G0 F6000 X113.562 Y126.007
G1 F1200 X114.894 Y127.339 E52.07935
G0 F6000 X115.459 Y127.339
G1 F1200 X114.128 Y126.007 E52.14198
G0 F6000 X114.694 Y126.007
G1 F1200 X116.025 Y127.339 E52.20461
G0 F6000 X116.591 Y127.339
G1 F1200 X115.259 Y126.007 E52.26727
G0 F6000 X115.825 Y126.007
G1 F1200 X117.156 Y127.339 E52.3299
G0 F6000 X117.722 Y127.339
G1 F1200 X116.39 Y126.007 E52.39255
G0 F6000 X116.956 Y126.007
G1 F1200 X118.288 Y127.339 E52.4552
G0 F6000 X118.854 Y127.339
G1 F1200 X117.521 Y126.007 E52.51788
G0 F6000 X118.087 Y126.007
G1 F1200 X119.419 Y127.339 E52.58053
G0 F6000 X119.985 Y127.339
G1 F1200 X118.653 Y126.007 E52.64318
G0 F6000 X119.218 Y126.007
G1 F1200 X120.551 Y127.339 E52.70586
G0 F6000 X121.116 Y127.339
G1 F1200 X119.784 Y126.007 E52.76851
G0 F6000 X120.349 Y126.006
G1 F1200 X121.682 Y127.339 E52.83121
G0 F6000 X122.248 Y127.339
G1 F1200 X120.915 Y126.006 E52.89392
G0 F6000 X121.48 Y126.006
G1 F1200 X122.813 Y127.339 E52.95662
G0 F6000 X123.379 Y127.339
G1 F1200 X122.046 Y126.006 E53.01932
G0 F6000 X122.612 Y126.006
G1 F1200 X123.945 Y127.339 E53.08202
G0 F6000 X124.51 Y127.339
G1 F1200 X123.178 Y126.006 E53.14469
G0 F6000 X123.743 Y126.006
G1 F1200 X125.076 Y127.339 E53.20739
G0 F6000 X125.642 Y127.339
G1 F1200 X124.309 Y126.006 E53.27009
G0 F6000 X124.874 Y126.005
G1 F1200 X126.207 Y127.339 E53.33282
G0 F6000 X126.773 Y127.339
G1 F1200 X125.44 Y126.005 E53.39554
G0 F6000 X126.005 Y126.005
G1 F1200 X127.339 Y127.339 E53.45829
G0 F6000 X127.905 Y127.339
G1 F1200 X126.571 Y126.005 E53.52103
G0 F6000 X127.137 Y126.005
G1 F1200 X128.47 Y127.339 E53.58376
G0 F6000 X129.036 Y127.339
G1 F1200 X127.702 Y126.005 E53.64651
G0 F6000 X128.268 Y126.005
G1 F1200 X129.602 Y127.339 E53.70925
