;FLAVOR:Marlin
;TIME:967
;Filament used: 0.683836m
;Layer height: 0.2
;MINX:95.5
;MINY:77.5
;MINZ:0.2
;MAXX:139.5
;MAXY:157.5
;MAXZ:3
;POSTPROCESSED
;Generated with Cura_SteamEngine 5.4.0
;
;

;
;



; Pre-Processed for Cancel-Object support by preprocess_cancellation v(0, 3, 'a1')
; 1 known objects
EXCLUDE_OBJECT_DEFINE NAME=BasePlate_rev1_stl CENTER=117.500,117.500 POLYGON=[[106.83,78.3],[106.223,78.313],[105.084,78.409],[104.196,78.575],[103.327,78.818],[102.482,79.138],[101.669,79.531],[100.894,79.994],[100.162,80.524],[99.481,81.117],[98.855,81.767],[98.288,82.471],[97.786,83.222],[97.353,84.014],[96.991,84.841],[96.704,85.698],[96.494,86.576],[96.362,87.469],[96.301,89.036],[96.3,146.158],[96.313,146.767],[96.41,147.922],[96.576,148.81],[96.82,149.68],[97.14,150.524],[97.534,151.337],[97.998,152.112],[98.528,152.843],[99.121,153.524],[99.772,154.15],[100.476,154.716],[101.227,155.217],[102.02,155.65],[102.847,156.011],[103.704,156.298],[104.582,156.507],[105.476,156.639],[107.075,156.699],[128.17,156.7],[128.777,156.687],[129.928,156.589],[130.815,156.423],[131.685,156.178],[132.529,155.858],[133.342,155.464],[134.116,155.0],[134.847,154.469],[135.528,153.875],[136.153,153.224],[136.719,152.52],[137.22,151.768],[137.652,150.976],[138.013,150.148],[138.299,149.291],[138.508,148.413],[138.639,147.519],[138.699,145.89],[138.7,88.83],[138.687,88.223],[138.592,87.093],[138.427,86.205],[138.184,85.335],[137.866,84.49],[137.473,83.677],[137.011,82.901],[136.481,82.17],[135.889,81.488],[135.239,80.861],[134.536,80.294],[133.785,79.792],[132.993,79.357],[132.166,78.995],[131.31,78.707],[130.432,78.496],[129.539,78.364],[127.793,78.3],[106.83,78.3]]
M140 S50
M105
M190 S50
M104 S200
M105
M109 S200
M82 ;absolute extrusion mode
; Ender 3 Custom Start G-code
G92 E0 ; Reset Extruder
G28 ; Home all axes
G1 Z2.0 F3000 ; Move Z Axis up little to prevent scratching of Heat Bed
G1 X0.1 Y20 Z0.3 F5000.0 ; Move to start position
G1 X0.1 Y200.0 Z0.3 F1500.0 E15 ; Draw the first line
G1 X0.4 Y200.0 Z0.3 F5000.0 ; Move to side a little
G1 X0.4 Y20 Z0.3 F1500.0 E30 ; Draw the second line
G92 E0 ; Reset Extruder
G1 Z2.0 F3000 ; Move Z Axis up little to prevent scratching of Heat Bed
G1 X5 Y20 Z0.3 F5000.0 ; Move over to prevent blob squish
G92 E0
G92 E0
G1 F2700 E-0.75
;LAYER_COUNT:15
SET_PRINT_STATS_INFO TOTAL_LAYER=15
TIMELAPSE_TAKE_FRAME
;LAYER:0
SET_PRINT_STATS_INFO CURRENT_LAYER=1
M107
G0 F6000 X98.231 Y81.265 Z0.2
;TYPE:SKIRT
G1 F2700 E0
G1 F1200 X98.956 Y80.513 E0.03474
G1 X99.692 Y79.876 E0.06712
G1 X100.424 Y79.346 E0.09718
G1 X101.321 Y78.811 E0.13191
G1 X102.199 Y78.39 E0.1643
G1 X103.112 Y78.048 E0.19673
G1 X104.049 Y77.789 E0.22906
G1 X105.016 Y77.611 E0.26176
G1 X106.155 Y77.515 E0.29978
G1 X106.812 Y77.5 E0.32164
G1 X127.804 Y77.5 E1.01983
G1 X128.684 Y77.513 E1.04911
G1 X129.656 Y77.572 E1.0815
G1 X130.619 Y77.718 E1.11389
G1 X131.566 Y77.949 E1.14631
G1 X132.454 Y78.249 E1.17749
G1 X133.346 Y78.639 E1.20987
G1 X134.229 Y79.126 E1.24341
G1 X134.98 Y79.628 E1.27345
G1 X135.795 Y80.286 E1.30829
G1 X136.493 Y80.964 E1.34065
G1 X137.129 Y81.701 E1.37303
G1 X137.699 Y82.491 E1.40543
G1 X138.161 Y83.267 E1.43547
G1 X138.615 Y84.209 E1.47025
G1 X138.944 Y85.087 E1.50144
G1 X139.213 Y86.059 E1.53498
G1 X139.39 Y87.025 E1.56764
G1 X139.485 Y88.155 E1.60536
G1 X139.5 Y88.83 E1.62782
G1 X139.499 Y145.9 E3.52597
G1 X139.488 Y146.663 E3.55135
G1 X139.431 Y147.636 E3.58377
G1 X139.286 Y148.599 E3.61616
G1 X139.057 Y149.545 E3.64853
G1 X138.746 Y150.469 E3.68096
G1 X138.354 Y151.36 E3.71334
G1 X137.886 Y152.212 E3.74567
G1 X137.364 Y152.993 E3.77691
G1 X136.731 Y153.778 E3.81045
G1 X136.106 Y154.429 E3.84047
G1 X135.317 Y155.117 E3.87529
G1 X134.557 Y155.667 E3.90649
G1 X133.69 Y156.184 E3.94006
G1 X132.812 Y156.606 E3.97246
G1 X131.901 Y156.948 E4.00483
G1 X130.962 Y157.209 E4.03724
G1 X129.996 Y157.387 E4.06991
G1 X128.845 Y157.485 E4.10833
G1 X128.17 Y157.5 E4.13079
G1 X107.064 Y157.499 E4.83278
G1 X106.331 Y157.488 E4.85716
G1 X105.359 Y157.431 E4.88955
G1 X104.396 Y157.285 E4.92194
G1 X103.45 Y157.056 E4.95431
G1 X102.526 Y156.744 E4.98675
G1 X101.636 Y156.352 E5.0191
G1 X100.813 Y155.901 E5.05031
G1 X99.974 Y155.34 E5.08388
G1 X99.27 Y154.774 E5.11392
G1 X98.517 Y154.049 E5.14869
G1 X97.88 Y153.313 E5.18106
G1 X97.35 Y152.582 E5.2111
G1 X96.814 Y151.685 E5.24585
G1 X96.392 Y150.807 E5.27825
G1 X96.05 Y149.895 E5.31065
G1 X95.79 Y148.957 E5.34302
G1 X95.612 Y147.988 E5.37579
G1 X95.514 Y146.809 E5.41514
G1 X95.5 Y146.158 E5.4368
G1 X95.501 Y89.025 E7.33705
G1 X95.512 Y88.325 E7.36033
G1 X95.57 Y87.352 E7.39275
G1 X95.716 Y86.389 E7.42515
G1 X95.946 Y85.443 E7.45753
G1 X96.259 Y84.52 E7.48994
G1 X96.651 Y83.63 E7.52229
G1 X97.121 Y82.777 E7.55468
G1 X97.664 Y81.969 E7.58706
G1 X98.231 Y81.265 E7.61713
G0 F6000 X98.543 Y81.516
G1 F1200 X99.218 Y80.815 E7.64949
G1 X99.927 Y80.2 E7.68071
G1 X100.659 Y79.67 E7.71077
G1 X101.495 Y79.171 E7.74315
G1 X102.34 Y78.764 E7.77435
G1 X103.219 Y78.433 E7.80559
G1 X104.122 Y78.182 E7.83676
G1 X105.05 Y78.01 E7.86815
G1 X106.189 Y77.914 E7.90617
G1 X106.821 Y77.9 E7.92719
G1 X127.798 Y77.9 E8.62489
G1 X128.66 Y77.912 E8.65356
G1 X129.597 Y77.968 E8.68478
G1 X130.525 Y78.107 E8.71599
G1 X131.438 Y78.328 E8.74724
G1 X132.294 Y78.616 E8.77728
G1 X133.186 Y79.006 E8.80966
G1 X134.007 Y79.459 E8.84084
G1 X134.758 Y79.961 E8.87089
G1 X135.517 Y80.573 E8.90332
G1 X136.191 Y81.226 E8.93453
G1 X136.805 Y81.935 E8.96572
G1 X137.355 Y82.696 E8.99695
G1 X137.817 Y83.472 E9.02699
G1 X138.24 Y84.349 E9.05938
G1 X138.569 Y85.227 E9.09056
G1 X138.82 Y86.132 E9.1218
G1 X138.991 Y87.059 E9.15315
G1 X139.086 Y88.189 E9.19087
G1 X139.1 Y88.83 E9.21219
G1 X139.099 Y145.895 E11.11018
G1 X139.089 Y146.64 E11.13496
G1 X139.035 Y147.577 E11.16618
G1 X138.897 Y148.506 E11.19742
G1 X138.678 Y149.418 E11.22861
G1 X138.38 Y150.308 E11.25983
G1 X138.003 Y151.168 E11.29106
G1 X137.553 Y151.99 E11.32223
G1 X137.031 Y152.771 E11.35347
G1 X136.442 Y153.501 E11.38467
G1 X135.817 Y154.152 E11.41469
G1 X135.082 Y154.793 E11.44712
G1 X134.322 Y155.343 E11.47833
G1 X133.516 Y155.824 E11.50954
G1 X132.671 Y156.232 E11.54075
G1 X131.793 Y156.563 E11.57196
G1 X130.889 Y156.816 E11.60318
G1 X129.962 Y156.988 E11.63454
G1 X128.811 Y157.086 E11.67296
G1 X128.17 Y157.1 E11.69429
G1 X107.07 Y157.099 E12.39608
G1 X106.354 Y157.089 E12.41989
G1 X105.418 Y157.035 E12.45108
G1 X104.489 Y156.896 E12.48232
G1 X103.577 Y156.677 E12.51352
G1 X102.687 Y156.378 E12.54474
G1 X101.828 Y156.001 E12.57594
G1 X101.005 Y155.55 E12.60716
G1 X100.225 Y155.028 E12.63837
G1 X99.521 Y154.462 E12.66842
G1 X98.819 Y153.787 E12.70081
G1 X98.204 Y153.078 E12.73203
G1 X97.674 Y152.347 E12.76206
G1 X97.174 Y151.511 E12.79446
G1 X96.766 Y150.666 E12.82567
G1 X96.435 Y149.788 E12.85688
G1 X96.183 Y148.884 E12.88809
G1 X96.011 Y147.955 E12.91951
G1 X95.913 Y146.776 E12.95886
G1 X95.9 Y146.158 E12.97942
G1 X95.901 Y89.031 E14.87947
G1 X95.911 Y88.348 E14.90219
G1 X95.966 Y87.411 E14.93341
G1 X96.105 Y86.483 E14.96462
G1 X96.325 Y85.571 E14.99582
G1 X96.625 Y84.681 E15.02706
G1 X97.002 Y83.822 E15.05826
G1 X97.453 Y83 E15.08945
G1 X97.976 Y82.22 E15.12068
G1 X98.543 Y81.516 E15.15075
G0 F6000 X98.855 Y81.767
G1 F1200 X99.481 Y81.117 E15.18076
G1 X100.162 Y80.524 E15.2108
G1 X100.894 Y79.994 E15.24085
G1 X101.669 Y79.531 E15.27088
G1 X102.482 Y79.138 E15.30091
G1 X103.327 Y78.818 E15.33097
G1 X104.196 Y78.575 E15.36098
G1 X105.084 Y78.409 E15.39102
G1 X106.223 Y78.313 E15.42904
G1 X106.83 Y78.3 E15.44924
G1 X127.793 Y78.3 E16.14647
G1 X128.637 Y78.311 E16.17454
G1 X129.539 Y78.364 E16.20459
G1 X130.432 Y78.496 E16.23462
G1 X131.31 Y78.707 E16.26465
G1 X132.166 Y78.995 E16.29469
G1 X132.993 Y79.357 E16.32472
G1 X133.785 Y79.792 E16.35477
G1 X134.536 Y80.294 E16.38482
G1 X135.239 Y80.861 E16.41485
G1 X135.889 Y81.488 E16.44489
G1 X136.481 Y82.17 E16.47493
G1 X137.011 Y82.901 E16.50496
G1 X137.473 Y83.677 E16.535
G1 X137.866 Y84.49 E16.56503
G1 X138.184 Y85.335 E16.59506
G1 X138.427 Y86.205 E16.62511
G1 X138.592 Y87.093 E16.65515
G1 X138.687 Y88.223 E16.69286
G1 X138.7 Y88.83 E16.71306
G1 X138.699 Y145.89 E18.61088
G1 X138.69 Y146.617 E18.63506
G1 X138.639 Y147.519 E18.66511
G1 X138.508 Y148.413 E18.69516
G1 X138.299 Y149.291 E18.72518
G1 X138.013 Y150.148 E18.75523
G1 X137.652 Y150.976 E18.78527
G1 X137.22 Y151.768 E18.81528
G1 X136.719 Y152.52 E18.84533
G1 X136.153 Y153.224 E18.87538
G1 X135.528 Y153.875 E18.90539
G1 X134.847 Y154.469 E18.93545
G1 X134.116 Y155 E18.9655
G1 X133.342 Y155.464 E18.99551
G1 X132.529 Y155.858 E19.02556
G1 X131.685 Y156.178 E19.05558
G1 X130.815 Y156.423 E19.08565
G1 X129.928 Y156.589 E19.11566
G1 X128.777 Y156.687 E19.15408
G1 X128.17 Y156.7 E19.17427
G1 X107.075 Y156.699 E19.8759
G1 X106.377 Y156.69 E19.89911
G1 X105.476 Y156.639 E19.92913
G1 X104.582 Y156.507 E19.95919
G1 X103.704 Y156.298 E19.98921
G1 X102.847 Y156.011 E20.01927
G1 X102.02 Y155.65 E20.04928
G1 X101.227 Y155.217 E20.07933
G1 X100.476 Y154.716 E20.10936
G1 X99.772 Y154.15 E20.1394
G1 X99.121 Y153.524 E20.16944
G1 X98.528 Y152.843 E20.19947
G1 X97.998 Y152.112 E20.2295
G1 X97.534 Y151.337 E20.25955
G1 X97.14 Y150.524 E20.2896
G1 X96.82 Y149.68 E20.31962
G1 X96.576 Y148.81 E20.34967
G1 X96.41 Y147.922 E20.37972
G1 X96.313 Y146.767 E20.41827
G1 X96.3 Y146.158 E20.43853
G1 X96.301 Y89.036 E22.33841
G1 X96.31 Y88.371 E22.36053
G1 X96.362 Y87.469 E22.39058
G1 X96.494 Y86.576 E22.42061
G1 X96.704 Y85.698 E22.45063
G1 X96.991 Y84.841 E22.48069
G1 X97.353 Y84.014 E22.51072
G1 X97.786 Y83.222 E22.54074
G1 X98.288 Y82.471 E22.57079
G1 X98.855 Y81.767 E22.60085
G1 F2700 E21.85085
;MESH:BasePlate_rev1.stl
EXCLUDE_OBJECT_START NAME=BasePlate_rev1_stl
G0 F6000 X105.835 Y88.92
G0 X127.9 Y145.9
;TYPE:WALL-INNER
G1 F2700 E22.60085
G1 F1200 X127.9 Y89.1 E24.49003
G1 X107.1 Y89.1 E25.18184
G1 X107.1 Y145.9 E27.07101
G1 X127.9 Y145.9 E27.76282
G0 F6000 X128.3 Y146.3
;TYPE:WALL-OUTER
G1 F1200 X128.3 Y88.7 E29.67861
G1 X106.7 Y88.7 E30.39703
G1 X106.7 Y146.3 E32.31281
G1 X128.3 Y146.3 E33.03123
G0 F6000 X128.03 Y146.03
G0 X127.8 Y145.54
G0 X127.54 Y145.54
;TYPE:SKIN
G1 F1200 X107.46 Y145.54 E33.69909
G1 X107.46 Y89.46 E35.56432
G1 X127.54 Y89.46 E36.23218
G1 X127.54 Y145.54 E38.09741
G0 F6000 X127.8 Y145.54
G0 X108.003 Y145.8
G0 X108.003 Y145.338
G1 F1200 X107.659 Y144.995 E38.11357
G0 F6000 X107.659 Y144.429
G1 F1200 X108.569 Y145.338 E38.15635
G0 F6000 X109.134 Y145.338
G1 F1200 X107.659 Y143.863 E38.22573
G0 F6000 X107.659 Y143.298
G1 F1200 X109.7 Y145.338 E38.32171
G0 F6000 X110.266 Y145.338
G1 F1200 X107.659 Y142.732 E38.44431
G0 F6000 X107.659 Y142.166
G1 F1200 X110.831 Y145.338 E38.59351
G0 F6000 X111.397 Y145.338
G1 F1200 X107.659 Y141.6 E38.76934
G0 F6000 X107.659 Y141.035
G1 F1200 X111.963 Y145.338 E38.97176
G0 F6000 X112.528 Y145.338
G1 F1200 X107.659 Y140.469 E39.20078
G0 F6000 X107.659 Y139.903
G1 F1200 X113.094 Y145.338 E39.45643
G0 F6000 X113.66 Y145.338
G1 F1200 X107.659 Y139.338 E39.73867
G0 F6000 X107.659 Y138.772
G1 F1200 X114.226 Y145.338 E40.04754
G0 F6000 X114.791 Y145.338
G1 F1200 X107.659 Y138.206 E40.38301
G0 F6000 X107.659 Y137.641
G1 F1200 X115.357 Y145.338 E40.74507
G0 F6000 X115.923 Y145.338
G1 F1200 X107.659 Y137.075 E41.13376
G0 F6000 X107.659 Y136.509
G1 F1200 X116.488 Y145.338 E41.54905
G0 F6000 X117.054 Y145.338
G1 F1200 X107.659 Y135.944 E41.99094
G0 F6000 X107.659 Y135.378
G1 F1200 X117.62 Y145.338 E42.45945
G0 F6000 X118.185 Y145.338
G1 F1200 X107.659 Y134.812 E42.95456
G0 F6000 X107.659 Y134.247
G1 F1200 X118.751 Y145.338 E43.47627
G0 F6000 X119.317 Y145.338
G1 F1200 X107.659 Y133.681 E44.02461
G0 F6000 X107.659 Y133.115
G1 F1200 X119.882 Y145.338 E44.59954
G0 F6000 X120.448 Y145.338
G1 F1200 X107.659 Y132.549 E45.2011
G0 F6000 X107.659 Y131.984
G1 F1200 X121.014 Y145.338 E45.82925
G0 F6000 X121.579 Y145.338
G1 F1200 X107.659 Y131.418 E46.484
G0 F6000 X107.659 Y130.852
G1 F1200 X122.145 Y145.338 E47.16538
G0 F6000 X122.711 Y145.338
G1 F1200 X107.659 Y130.287 E47.87336
G0 F6000 X107.659 Y129.721
G1 F1200 X123.276 Y145.338 E48.60793
G0 F6000 X123.842 Y145.338
G1 F1200 X107.659 Y129.155 E49.36913
G0 F6000 X107.659 Y128.59
G1 F1200 X124.408 Y145.338 E50.15693
G0 F6000 X124.974 Y145.338
G1 F1200 X107.659 Y128.024 E50.97135
G0 F6000 X107.659 Y127.458
G1 F1200 X125.539 Y145.338 E51.81237
G0 F6000 X126.105 Y145.338
G1 F1200 X107.659 Y126.893 E52.67999
G0 F6000 X107.659 Y126.327
G1 F1200 X126.671 Y145.338 E53.57423
G0 F6000 X127.236 Y145.338
G1 F1200 X107.659 Y125.761 E54.49508
G0 F6000 X107.659 Y125.196
G1 F1200 X127.34 Y144.876 E55.42079
G0 F6000 X127.34 Y144.31
G1 F1200 X107.659 Y124.63 E56.3465
G0 F6000 X107.659 Y124.064
G1 F1200 X127.34 Y143.744 E57.27221
G0 F6000 X127.34 Y143.179
G1 F1200 X107.659 Y123.499 E58.19792
G0 F6000 X107.659 Y122.933
G1 F1200 X127.34 Y142.613 E59.12363
G0 F6000 X127.34 Y142.047
G1 F1200 X107.659 Y122.367 E60.04934
G0 F6000 X107.659 Y121.801
G1 F1200 X127.34 Y141.482 E60.97507
G0 F6000 X127.34 Y140.916
G1 F1200 X107.659 Y121.236 E61.90078
G0 F6000 X107.659 Y120.67
G1 F1200 X127.34 Y140.35 E62.82649
G0 F6000 X127.34 Y139.785
G1 F1200 X107.659 Y120.104 E63.75223
G0 F6000 X107.659 Y119.539
G1 F1200 X127.34 Y139.219 E64.67794
G0 F6000 X127.34 Y138.653
G1 F1200 X107.659 Y118.973 E65.60365
G0 F6000 X107.659 Y118.407
G1 F1200 X127.34 Y138.088 E66.52938
G0 F6000 X127.34 Y137.522
G1 F1200 X107.659 Y117.842 E67.45509
G0 F6000 X107.659 Y117.275
G1 F1200 X127.34 Y136.956 E68.38083
G0 F6000 X127.34 Y136.39
G1 F1200 X107.659 Y116.71 E69.30654
G0 F6000 X107.659 Y116.144
G1 F1200 X127.34 Y135.825 E70.23227
G0 F6000 X127.34 Y135.259
G1 F1200 X107.659 Y115.578 E71.158
G0 F6000 X107.659 Y115.013
G1 F1200 X127.34 Y134.693 E72.08371
G0 F6000 X127.34 Y134.128
G1 F1200 X107.659 Y114.447 E73.00945
G0 F6000 X107.659 Y113.881
G1 F1200 X127.34 Y133.562 E73.93518
G0 F6000 X127.34 Y132.996
G1 F1200 X107.659 Y113.315 E74.86092
G0 F6000 X107.659 Y112.75
G1 F1200 X127.34 Y132.431 E75.78665
G0 F6000 X127.34 Y131.865
G1 F1200 X107.659 Y112.184 E76.71238
G0 F6000 X107.659 Y111.618
G1 F1200 X127.34 Y131.299 E77.63812
G0 F6000 X127.34 Y130.734
G1 F1200 X107.659 Y111.053 E78.56385
G0 F6000 X107.659 Y110.487
G1 F1200 X127.34 Y130.168 E79.48959
G0 F6000 X127.34 Y129.602
G1 F1200 X107.659 Y109.921 E80.41532
G0 F6000 X107.659 Y109.356
G1 F1200 X127.34 Y129.037 E81.34105
G0 F6000 X127.34 Y128.471
G1 F1200 X107.659 Y108.79 E82.26679
G0 F6000 X107.659 Y108.224
G1 F1200 X127.34 Y127.905 E83.19252
G0 F6000 X127.34 Y127.34
G1 F1200 X107.659 Y107.659 E84.11825
G0 F6000 X107.659 Y107.093
G1 F1200 X127.34 Y126.774 E85.04399
G0 F6000 X127.34 Y126.208
G1 F1200 X107.659 Y106.527 E85.96972
G0 F6000 X107.659 Y105.962
G1 F1200 X127.34 Y125.642 E86.89543
G0 F6000 X127.34 Y125.077
G1 F1200 X107.659 Y105.396 E87.82117
G0 F6000 X107.659 Y104.83
G1 F1200 X127.34 Y124.511 E88.7469
G0 F6000 X127.34 Y123.945
G1 F1200 X107.659 Y104.265 E89.67261
G0 F6000 X107.659 Y103.699
G1 F1200 X127.34 Y123.38 E90.59835
G0 F6000 X127.34 Y122.814
G1 F1200 X107.659 Y103.133 E91.52408
G0 F6000 X107.659 Y102.567
G1 F1200 X127.34 Y122.248 E92.44981
G0 F6000 X127.34 Y121.683
G1 F1200 X107.659 Y102.002 E93.37555
G0 F6000 X107.659 Y101.436
G1 F1200 X127.34 Y121.117 E94.30128
G0 F6000 X127.34 Y120.551
G1 F1200 X107.659 Y100.87 E95.22701
G0 F6000 X107.659 Y100.305
G1 F1200 X127.34 Y119.986 E96.15275
G0 F6000 X127.34 Y119.42
G1 F1200 X107.659 Y99.739 E97.07848
G0 F6000 X107.659 Y99.173
G1 F1200 X127.34 Y118.854 E98.00422
G0 F6000 X127.34 Y118.289
G1 F1200 X107.659 Y98.608 E98.92995
G0 F6000 X107.659 Y98.042
G1 F1200 X127.34 Y117.723 E99.85568
G0 F6000 X127.34 Y117.157
G1 F1200 X107.659 Y97.476 E100.78142
G0 F6000 X107.659 Y96.911
G1 F1200 X127.34 Y116.592 E101.70715
G0 F6000 X127.34 Y116.026
G1 F1200 X107.659 Y96.345 E102.63289
G0 F6000 X107.659 Y95.779
G1 F1200 X127.34 Y115.46 E103.55862
G0 F6000 X127.34 Y114.894
G1 F1200 X107.659 Y95.214 E104.48433
G0 F6000 X107.659 Y94.648
G1 F1200 X127.34 Y114.329 E105.41006
G0 F6000 X127.34 Y113.763
G1 F1200 X107.659 Y94.082 E106.3358
G0 F6000 X107.659 Y93.516
