;FLAVOR:Marlin
;TIME:712
;Filament used: 0.404431m
;Layer height: 0.2
;MINX:89.913
;MINY:68.728
;MINZ:0.2
;MAXX:133.913
;MAXY:149.728
;MAXZ:4
;POSTPROCESSED
;Generated with Cura_SteamEngine 5.4.0
;
;

;
;



; Pre-Processed for Cancel-Object support by preprocess_cancellation v(0, 3, 'a1')
; 1 known objects
EXCLUDE_OBJECT_DEFINE NAME=BasePlate_rev3_stl CENTER=111.913,109.228 POLYGON=[[101.243,69.528],[100.636,69.541],[99.497,69.637],[98.609,69.803],[97.74,70.046],[96.895,70.366],[96.082,70.759],[95.307,71.222],[94.575,71.752],[93.894,72.345],[93.268,72.995],[92.701,73.699],[92.199,74.45],[91.766,75.242],[91.404,76.069],[91.117,76.926],[90.907,77.804],[90.775,78.697],[90.714,80.264],[90.713,138.386],[90.726,138.995],[90.823,140.15],[90.989,141.038],[91.233,141.908],[91.553,142.752],[91.947,143.565],[92.411,144.34],[92.941,145.071],[93.534,145.752],[94.185,146.378],[94.889,146.944],[95.64,147.445],[96.433,147.878],[97.26,148.239],[98.117,148.526],[98.995,148.735],[99.889,148.867],[101.488,148.927],[122.583,148.928],[123.19,148.915],[124.341,148.817],[125.228,148.651],[126.098,148.406],[126.942,148.086],[127.755,147.692],[128.529,147.228],[129.26,146.697],[129.941,146.103],[130.566,145.452],[131.132,144.748],[131.633,143.996],[132.065,143.204],[132.426,142.376],[132.712,141.519],[132.921,140.641],[133.052,139.747],[133.112,138.118],[133.113,80.058],[133.1,79.451],[133.005,78.321],[132.84,77.433],[132.597,76.563],[132.279,75.718],[131.886,74.905],[131.424,74.129],[130.894,73.398],[130.302,72.716],[129.652,72.089],[128.949,71.522],[128.198,71.02],[127.406,70.585],[126.579,70.223],[125.723,69.935],[124.845,69.724],[123.952,69.592],[122.206,69.528],[101.243,69.528]]
M140 S50
M105
M190 S50
M104 S200
M105
M109 S200
M82 ;absolute extrusion mode
; Ender 3 Custom Start G-code
G92 E0 ; Reset Extruder
G28 ; Home all axes
G1 Z2.0 F3000 ; Move Z Axis up little to prevent scratching of Heat Bed
G1 X0.1 Y20 Z0.3 F5000.0 ; Move to start position
G1 X0.1 Y200.0 Z0.3 F1500.0 E15 ; Draw the first line
G1 X0.4 Y200.0 Z0.3 F5000.0 ; Move to side a little
G1 X0.4 Y20 Z0.3 F1500.0 E30 ; Draw the second line
G92 E0 ; Reset Extruder
G1 Z2.0 F3000 ; Move Z Axis up little to prevent scratching of Heat Bed
G1 X5 Y20 Z0.3 F5000.0 ; Move over to prevent blob squish
G92 E0
G92 E0
G1 F2700 E-0.75
;LAYER_COUNT:20
SET_PRINT_STATS_INFO TOTAL_LAYER=20
TIMELAPSE_TAKE_FRAME
;LAYER:0
SET_PRINT_STATS_INFO CURRENT_LAYER=1
M107
G0 F6000 X92.077 Y73.197 Z0.2
;TYPE:SKIRT
G1 F2700 E0
G1 F1200 X92.644 Y72.493 E0.03007
G1 X93.369 Y71.741 E0.06481
G1 X94.105 Y71.104 E0.09718
G1 X94.837 Y70.574 E0.12724
G1 X95.734 Y70.039 E0.16198
G1 X96.612 Y69.618 E0.19436
G1 X97.525 Y69.276 E0.22679
G1 X98.462 Y69.017 E0.25912
G1 X99.429 Y68.839 E0.29183
G1 X100.568 Y68.743 E0.32985
G1 X101.225 Y68.728 E0.3517
G1 X122.217 Y68.728 E1.0499
G1 X123.097 Y68.741 E1.07917
G1 X124.069 Y68.8 E1.11156
G1 X125.032 Y68.946 E1.14396
G1 X125.979 Y69.177 E1.17638
G1 X126.867 Y69.477 E1.20755
G1 X127.759 Y69.867 E1.23993
G1 X128.642 Y70.354 E1.27347
G1 X129.393 Y70.856 E1.30352
G1 X130.208 Y71.514 E1.33835
G1 X130.906 Y72.192 E1.37072
G1 X131.542 Y72.929 E1.4031
G1 X132.112 Y73.719 E1.4355
G1 X132.574 Y74.495 E1.46554
G1 X133.028 Y75.437 E1.50032
G1 X133.357 Y76.315 E1.5315
G1 X133.626 Y77.287 E1.56505
G1 X133.803 Y78.253 E1.59771
G1 X133.898 Y79.383 E1.63543
G1 X133.913 Y80.058 E1.65788
G1 X133.912 Y138.128 E3.5893
G1 X133.901 Y138.891 E3.61468
G1 X133.844 Y139.864 E3.6471
G1 X133.699 Y140.827 E3.67949
G1 X133.47 Y141.773 E3.71186
G1 X133.159 Y142.697 E3.74429
G1 X132.767 Y143.588 E3.77666
G1 X132.299 Y144.44 E3.80899
G1 X131.777 Y145.221 E3.84024
G1 X131.144 Y146.006 E3.87378
G1 X130.519 Y146.657 E3.90379
G1 X129.73 Y147.345 E3.93861
G1 X128.97 Y147.895 E3.96981
G1 X128.103 Y148.412 E4.00339
G1 X127.225 Y148.834 E4.03579
G1 X126.314 Y149.176 E4.06815
G1 X125.375 Y149.437 E4.10057
G1 X124.409 Y149.615 E4.13324
G1 X123.258 Y149.713 E4.17166
G1 X122.583 Y149.728 E4.19412
G1 X101.477 Y149.727 E4.8961
G1 X100.744 Y149.716 E4.92049
G1 X99.772 Y149.659 E4.95287
G1 X98.809 Y149.513 E4.98527
G1 X97.863 Y149.284 E5.01764
G1 X96.939 Y148.972 E5.05008
G1 X96.049 Y148.58 E5.08242
G1 X95.226 Y148.129 E5.11364
G1 X94.387 Y147.568 E5.1472
G1 X93.683 Y147.002 E5.17725
G1 X92.93 Y146.277 E5.21202
G1 X92.293 Y145.541 E5.24439
G1 X91.763 Y144.81 E5.27442
G1 X91.227 Y143.913 E5.30918
G1 X90.805 Y143.035 E5.34158
G1 X90.463 Y142.123 E5.37397
G1 X90.203 Y141.185 E5.40635
G1 X90.025 Y140.216 E5.43911
G1 X89.927 Y139.037 E5.47846
G1 X89.913 Y138.386 E5.50012
G1 X89.914 Y80.253 E7.43363
G1 X89.925 Y79.553 E7.45692
G1 X89.983 Y78.58 E7.48934
G1 X90.129 Y77.617 E7.52173
G1 X90.359 Y76.671 E7.55411
G1 X90.672 Y75.748 E7.58653
G1 X91.064 Y74.858 E7.61888
G1 X91.534 Y74.005 E7.65127
G1 X92.077 Y73.197 E7.68365
G0 F6000 X92.389 Y73.448
G1 F1200 X92.956 Y72.744 E7.71371
G1 X93.631 Y72.043 E7.74608
G1 X94.34 Y71.428 E7.7773
G1 X95.072 Y70.898 E7.80735
G1 X95.908 Y70.399 E7.83974
G1 X96.753 Y69.992 E7.87093
G1 X97.632 Y69.661 E7.90217
G1 X98.535 Y69.41 E7.93334
G1 X99.463 Y69.238 E7.96473
G1 X100.602 Y69.142 E8.00275
G1 X101.234 Y69.128 E8.02378
G1 X122.211 Y69.128 E8.72148
G1 X123.073 Y69.14 E8.75015
G1 X124.01 Y69.196 E8.78137
G1 X124.938 Y69.335 E8.81258
G1 X125.851 Y69.556 E8.84382
G1 X126.707 Y69.844 E8.87386
G1 X127.599 Y70.234 E8.90624
G1 X128.42 Y70.687 E8.93743
G1 X129.171 Y71.189 E8.96747
G1 X129.93 Y71.801 E8.9999
G1 X130.604 Y72.454 E9.03111
G1 X131.218 Y73.163 E9.06231
G1 X131.768 Y73.924 E9.09354
G1 X132.23 Y74.7 E9.12358
G1 X132.653 Y75.577 E9.15596
G1 X132.982 Y76.455 E9.18715
G1 X133.233 Y77.36 E9.21838
G1 X133.404 Y78.287 E9.24974
G1 X133.499 Y79.417 E9.28745
G1 X133.513 Y80.058 E9.30878
G1 X133.512 Y138.123 E11.24003
G1 X133.502 Y138.868 E11.26481
G1 X133.448 Y139.805 E11.29602
G1 X133.31 Y140.734 E11.32726
G1 X133.091 Y141.646 E11.35846
G1 X132.793 Y142.536 E11.38967
G1 X132.416 Y143.396 E11.42091
G1 X131.966 Y144.218 E11.45207
G1 X131.444 Y144.999 E11.48332
G1 X130.855 Y145.729 E11.51452
G1 X130.23 Y146.38 E11.54453
G1 X129.495 Y147.021 E11.57697
G1 X128.735 Y147.571 E11.60817
G1 X127.929 Y148.052 E11.63939
G1 X127.084 Y148.46 E11.6706
G1 X126.206 Y148.791 E11.70181
G1 X125.302 Y149.044 E11.73303
G1 X124.375 Y149.216 E11.76439
G1 X123.224 Y149.314 E11.80281
G1 X122.583 Y149.328 E11.82413
G1 X101.483 Y149.327 E12.52592
G1 X100.767 Y149.317 E12.54974
G1 X99.831 Y149.263 E12.58092
G1 X98.902 Y149.124 E12.61217
G1 X97.99 Y148.905 E12.64336
G1 X97.1 Y148.606 E12.67459
G1 X96.241 Y148.229 E12.70579
G1 X95.418 Y147.778 E12.737
G1 X94.638 Y147.256 E12.76822
G1 X93.934 Y146.69 E12.79826
G1 X93.232 Y146.015 E12.83066
G1 X92.617 Y145.306 E12.86187
G1 X92.087 Y144.575 E12.8919
G1 X91.587 Y143.739 E12.9243
G1 X91.179 Y142.894 E12.95551
G1 X90.848 Y142.016 E12.98672
G1 X90.596 Y141.112 E13.01793
G1 X90.424 Y140.183 E13.04936
G1 X90.326 Y139.004 E13.08871
G1 X90.313 Y138.386 E13.10927
G1 X90.314 Y80.259 E15.04258
G1 X90.324 Y79.576 E15.0653
G1 X90.379 Y78.639 E15.09652
G1 X90.518 Y77.711 E15.12773
G1 X90.738 Y76.799 E15.15893
G1 X91.038 Y75.909 E15.19017
G1 X91.415 Y75.05 E15.22137
G1 X91.866 Y74.228 E15.25255
G1 X92.389 Y73.448 E15.28379
G0 F6000 X92.701 Y73.699
G1 F1200 X93.268 Y72.995 E15.31385
G1 X93.894 Y72.345 E15.34387
G1 X94.575 Y71.752 E15.3739
G1 X95.307 Y71.222 E15.40396
G1 X96.082 Y70.759 E15.43399
G1 X96.895 Y70.366 E15.46402
G1 X97.74 Y70.046 E15.49407
G1 X98.609 Y69.803 E15.52408
G1 X99.497 Y69.637 E15.55413
G1 X100.636 Y69.541 E15.59215
G1 X101.243 Y69.528 E15.61234
G1 X122.206 Y69.528 E16.30957
G1 X123.05 Y69.539 E16.33765
G1 X123.952 Y69.592 E16.3677
G1 X124.845 Y69.724 E16.39772
G1 X125.723 Y69.935 E16.42776
G1 X126.579 Y70.223 E16.4578
G1 X127.406 Y70.585 E16.48782
G1 X128.198 Y71.02 E16.51788
G1 X128.949 Y71.522 E16.54792
G1 X129.652 Y72.089 E16.57796
G1 X130.302 Y72.716 E16.608
G1 X130.894 Y73.398 E16.63804
G1 X131.424 Y74.129 E16.66807
G1 X131.886 Y74.905 E16.6981
G1 X132.279 Y75.718 E16.72814
G1 X132.597 Y76.563 E16.75817
G1 X132.84 Y77.433 E16.78821
G1 X133.005 Y78.321 E16.81825
G1 X133.1 Y79.451 E16.85597
G1 X133.113 Y80.058 E16.87616
G1 X133.112 Y138.118 E18.80725
G1 X133.103 Y138.845 E18.83143
G1 X133.052 Y139.747 E18.86148
G1 X132.921 Y140.641 E18.89153
G1 X132.712 Y141.519 E18.92155
G1 X132.426 Y142.376 E18.9516
G1 X132.065 Y143.204 E18.98164
G1 X131.633 Y143.996 E19.01164
G1 X131.132 Y144.748 E19.0417
G1 X130.566 Y145.452 E19.07174
G1 X129.941 Y146.103 E19.10176
G1 X129.26 Y146.697 E19.13181
G1 X128.529 Y147.228 E19.16187
G1 X127.755 Y147.692 E19.19188
G1 X126.942 Y148.086 E19.22193
G1 X126.098 Y148.406 E19.25195
G1 X125.228 Y148.651 E19.28201
G1 X124.341 Y148.817 E19.31203
G1 X123.19 Y148.915 E19.35045
G1 X122.583 Y148.928 E19.37064
G1 X101.488 Y148.927 E20.07226
G1 X100.79 Y148.918 E20.09548
G1 X99.889 Y148.867 E20.1255
G1 X98.995 Y148.735 E20.15555
G1 X98.117 Y148.526 E20.18557
G1 X97.26 Y148.239 E20.21563
G1 X96.433 Y147.878 E20.24564
G1 X95.64 Y147.445 E20.27569
G1 X94.889 Y146.944 E20.30572
G1 X94.185 Y146.378 E20.33577
G1 X93.534 Y145.752 E20.3658
G1 X92.941 Y145.071 E20.39584
G1 X92.411 Y144.34 E20.42587
G1 X91.947 Y143.565 E20.45591
G1 X91.553 Y142.752 E20.48596
G1 X91.233 Y141.908 E20.51598
G1 X90.989 Y141.038 E20.54604
G1 X90.823 Y140.15 E20.57608
G1 X90.726 Y138.995 E20.61463
G1 X90.713 Y138.386 E20.63489
G1 X90.714 Y80.264 E22.56804
G1 X90.723 Y79.599 E22.59016
G1 X90.775 Y78.697 E22.62021
G1 X90.907 Y77.804 E22.65023
G1 X91.117 Y76.926 E22.68026
G1 X91.404 Y76.069 E22.71032
G1 X91.766 Y75.242 E22.74034
G1 X92.199 Y74.45 E22.77037
G1 X92.701 Y73.699 E22.80041
G1 F2700 E22.05041
;MESH:BasePlate_rev3.stl
EXCLUDE_OBJECT_START NAME=BasePlate_rev3_stl
G0 F6000 X100.248 Y80.148
G0 X119.527 Y138.128
;TYPE:WALL-INNER
G1 F2700 E22.80041
G1 F1200 X122.313 Y138.128 E22.89307
G1 X122.313 Y80.328 E24.81551
G1 X119.463 Y80.328 E24.9103
G1 X119.863 Y80.728 E24.92912
G1 X119.863 Y106.057 E25.77156
G1 X119.807 Y106.233 E25.7777
G1 X119.665 Y106.425 E25.78565
G1 X119.494 Y106.533 E25.79237
G1 X119.333 Y106.574 E25.7979
G1 X104.493 Y106.575 E26.29148
G1 X104.332 Y106.533 E26.29701
G1 X104.161 Y106.424 E26.30376
G1 X104.019 Y106.233 E26.31168
G1 X103.963 Y106.057 E26.31782
G1 X103.963 Y80.728 E27.16026
G1 X104.299 Y80.328 E27.17764
G1 X101.513 Y80.328 E27.2703
G1 X101.513 Y138.128 E29.19274
G1 X104.363 Y138.128 E29.28753
G1 X103.963 Y137.728 E29.30634
G1 X103.963 Y112.478 E30.14616
G1 X104.019 Y112.223 E30.15485
G1 X104.161 Y112.032 E30.16276
G1 X104.333 Y111.923 E30.16953
G1 X104.493 Y111.881 E30.17504
G1 X119.333 Y111.882 E30.66862
G1 X119.493 Y111.923 E30.67411
G1 X119.665 Y112.031 E30.68087
G1 X119.807 Y112.223 E30.68881
G1 X119.863 Y112.478 E30.69749
G1 X119.863 Y137.728 E31.53731
G1 X119.527 Y138.128 E31.55468
G0 F6000 X119.307 Y137.977
;TYPE:WALL-OUTER
G1 F956.2 X104.563 Y137.978 E32.17012
G1 F1066.7 X104.363 Y137.728 E32.1821
G1 F1200 X104.363 Y112.417 E33.02395
G1 X104.429 Y112.329 E33.02761
G1 X104.545 Y112.278 E33.03182
G1 X119.287 Y112.279 E33.52214
G1 X119.397 Y112.329 E33.52616
G1 X119.463 Y112.417 E33.52982
G1 X119.463 Y137.728 E34.37167
G1 F1061.9 X119.307 Y137.977 E34.38271
G1 F2700 E33.63271
G0 F6000 X119.307 Y138.228
G0 X122.443 Y138.258
G0 X122.713 Y138.528
G1 F2700 E34.38271
G1 F1200 X122.713 Y79.928 E36.33175
G1 X120.263 Y79.928 E36.41324
G1 F1066.7 X119.263 Y79.978 E36.45071
G1 F956.2 X104.476 Y79.98 E37.06794
G1 F1061.9 X103.563 Y79.928 E37.10231
G1 F1200 X101.113 Y79.928 E37.18379
G1 X101.113 Y138.528 E39.13284
G1 X103.563 Y138.528 E39.21433
G1 F1066.7 X104.563 Y138.478 E39.25179
G1 F956.2 X119.35 Y138.476 E39.86902
G1 F1061.9 X120.263 Y138.528 E39.90339
G1 F1200 X122.713 Y138.528 E39.98488
G1 F2700 E39.23488
G0 F6000 X122.443 Y138.258
G0 X122.141 Y80.5
G0 X119.826 Y80.513
G0 X119.772 Y106.544
G0 X119.397 Y106.478
G0 X119.397 Y106.127
G1 F2700 E39.98488
G1 F1200 X119.287 Y106.177 E39.9889
G1 X104.545 Y106.178 E40.47922
G1 X104.429 Y106.127 E40.48343
G1 X104.365 Y106.013 E40.48778
G1 X104.363 Y80.728 E41.32876
G1 F1061.9 X104.519 Y80.479 E41.33981
G1 F956.2 X119.263 Y80.478 E41.95524
G1 F1066.7 X119.463 Y80.728 E41.96722
G1 F1200 X119.461 Y106.013 E42.8082
G1 X119.397 Y106.127 E42.81255
G1 F2700 E42.06255
G0 F6000 X119.397 Y106.478
G0 X119.953 Y106.3
G0 X119.826 Y80.513
G0 X122.141 Y80.5
G0 X122.141 Y137.956
G0 X120.223 Y138.028
G0 X120.223 Y137.768
;TYPE:SKIN
G1 F2700 E42.81255
G1 F1200 X120.219 Y112.436 E43.6551
G1 X120.138 Y112.071 E43.66753
G1 X119.909 Y111.764 E43.68027
G1 X119.634 Y111.589 E43.69111
G1 X119.375 Y111.524 E43.7
G1 X104.457 Y111.523 E44.19617
G1 X104.192 Y111.589 E44.20525
G1 X103.917 Y111.764 E44.21609
G1 X103.688 Y112.071 E44.22883
G1 X103.607 Y112.436 E44.24127
G1 X103.603 Y137.767 E45.08378
G1 X101.873 Y137.768 E45.14132
G1 X101.873 Y80.688 E47.03981
G1 X103.603 Y80.688 E47.09735
G1 X103.605 Y106.109 E47.94286
G1 X103.693 Y106.389 E47.95262
G1 X103.919 Y106.695 E47.96527
G1 X104.166 Y106.85 E47.97497
G1 X104.457 Y106.933 E47.98503
G1 X119.375 Y106.932 E48.48121
G1 X119.634 Y106.866 E48.4901
G1 X119.907 Y106.695 E48.50081
G1 X120.132 Y106.39 E48.51342
G1 X120.221 Y106.109 E48.52322
G1 X120.223 Y80.688 E49.36873
G1 X121.953 Y80.688 E49.42627
G1 X121.953 Y137.768 E51.32476
G1 X120.223 Y137.768 E51.3823
G0 F6000 X120.223 Y138.028
G0 X119.691 Y138.156
G0 X104.135 Y138.156
G0 X102.494 Y138.028
G0 X102.494 Y137.566
G1 F1200 X102.072 Y137.144 E51.40215
G0 F6000 X102.072 Y136.579
G1 F1200 X103.06 Y137.566 E51.4486
G0 F6000 X103.403 Y137.344
G1 F1200 X102.072 Y136.013 E51.5112
G0 F6000 X102.072 Y135.447
G1 F1200 X103.403 Y136.778 E51.57381
G0 F6000 X103.403 Y136.212
G1 F1200 X102.072 Y134.882 E51.63639
G0 F6000 X102.072 Y134.316
G1 F1200 X103.403 Y135.647 E51.699
G0 F6000 X103.403 Y135.081
G1 F1200 X102.072 Y133.75 E51.7616
G0 F6000 X102.072 Y133.184
G1 F1200 X103.403 Y134.515 E51.82421
G0 F6000 X103.403 Y133.95
G1 F1200 X102.072 Y132.619 E51.88681
G0 F6000 X102.072 Y132.053
G1 F1200 X103.403 Y133.384 E51.94942
G0 F6000 X103.403 Y132.818
G1 F1200 X102.072 Y131.487 E52.01203
G0 F6000 X102.072 Y130.922
G1 F1200 X103.403 Y132.253 E52.07463
G0 F6000 X103.403 Y131.687
G1 F1200 X102.072 Y130.356 E52.13724
G0 F6000 X102.072 Y129.79
G1 F1200 X103.403 Y131.121 E52.19985
G0 F6000 X103.403 Y130.555
G1 F1200 X102.072 Y129.225 E52.26243
G0 F6000 X102.072 Y128.659
G1 F1200 X103.403 Y129.99 E52.32503
G0 F6000 X103.403 Y129.424
G1 F1200 X102.072 Y128.093 E52.38764
G0 F6000 X102.072 Y127.528
G1 F1200 X103.403 Y128.858 E52.45022
G0 F6000 X103.403 Y128.293
G1 F1200 X102.072 Y126.962 E52.51283
G0 F6000 X102.072 Y126.396
G1 F1200 X103.403 Y127.727 E52.57544
G0 F6000 X103.403 Y127.161
G1 F1200 X102.072 Y125.831 E52.63802
G0 F6000 X102.072 Y125.265
G1 F1200 X103.403 Y126.596 E52.70062
G0 F6000 X103.403 Y126.03
G1 F1200 X102.072 Y124.699 E52.76323
G0 F6000 X102.072 Y124.134
G1 F1200 X103.403 Y125.464 E52.82581
G0 F6000 X103.403 Y124.899
G1 F1200 X102.072 Y123.568 E52.88842
G0 F6000 X102.072 Y123.002
G1 F1200 X103.403 Y124.333 E52.95103
G0 F6000 X103.403 Y123.767
G1 F1200 X102.072 Y122.436 E53.01363
G0 F6000 X102.072 Y121.871
G1 F1200 X103.403 Y123.202 E53.07624
G0 F6000 X103.403 Y122.636
G1 F1200 X102.072 Y121.305 E53.13884
G0 F6000 X102.072 Y120.739
G1 F1200 X103.403 Y122.07 E53.20145
G0 F6000 X103.403 Y121.504
G1 F1200 X102.072 Y120.174 E53.26403
G0 F6000 X102.072 Y119.608
G1 F1200 X103.403 Y120.939 E53.32664
G0 F6000 X103.403 Y120.373
G1 F1200 X102.072 Y119.042 E53.38925
G0 F6000 X102.072 Y118.477
G1 F1200 X103.403 Y119.807 E53.45183
G0 F6000 X103.403 Y119.242
G1 F1200 X102.072 Y117.911 E53.51443
G0 F6000 X102.072 Y117.345
G1 F1200 X103.403 Y118.676 E53.57704
G0 F6000 X103.403 Y118.11
G1 F1200 X102.072 Y116.78 E53.63962
G0 F6000 X102.072 Y116.214
G1 F1200 X103.403 Y117.545 E53.70223
G0 F6000 X103.403 Y116.979
G1 F1200 X102.072 Y115.648 E53.76483
G0 F6000 X102.072 Y115.083
G1 F1200 X103.403 Y116.413 E53.82742
G0 F6000 X103.403 Y115.848
G1 F1200 X102.072 Y114.517 E53.89002
G0 F6000 X102.072 Y113.951
G1 F1200 X103.403 Y115.282 E53.95263
