;FLAVOR:Marlin
;TIME:221
;Filament used: 0.0926352m
;Layer height: 0.2
;MINX:93.503
;MINY:104.49
;MINZ:0.2
;MAXX:141.496
;MAXY:130.5
;MAXZ:3
;POSTPROCESSED
;Generated with Cura_SteamEngine 5.4.0
;
;

;
;



; Pre-Processed for Cancel-Object support by preprocess_cancellation v(0, 3, 'a1')
; 1 known objects
EXCLUDE_OBJECT_DEFINE NAME=Clip_stl CENTER=117.499,117.495 POLYGON=[[128.209,105.29],[106.424,105.293],[104.9,105.427],[103.575,105.667],[102.71,105.925],[101.853,106.234],[101.031,106.607],[100.244,107.051],[99.458,107.555],[98.739,108.101],[98.07,108.709],[97.403,109.389],[96.825,110.083],[96.311,110.826],[95.837,111.599],[95.427,112.404],[95.09,113.242],[94.783,114.151],[94.564,115.027],[94.423,115.919],[94.312,117.33],[94.312,118.687],[94.424,120.014],[94.598,120.901],[94.849,121.768],[95.177,122.61],[95.577,123.419],[96.048,124.19],[96.585,124.916],[97.184,125.592],[98.404,126.812],[98.759,127.139],[99.462,127.706],[100.212,128.209],[101.004,128.643],[101.831,129.005],[102.687,129.293],[103.566,129.504],[104.459,129.636],[106.062,129.699],[129.678,129.688],[131.019,129.575],[131.905,129.401],[132.773,129.149],[133.614,128.821],[134.423,128.42],[135.194,127.949],[135.92,127.412],[137.089,126.334],[138.14,125.241],[138.707,124.538],[139.21,123.787],[139.643,122.995],[140.006,122.168],[140.293,121.312],[140.504,120.434],[140.636,119.541],[140.689,118.639],[140.689,117.357],[140.623,116.333],[140.572,115.89],[140.334,114.58],[140.076,113.715],[139.746,112.803],[139.37,111.982],[138.922,111.198],[138.403,110.396],[137.852,109.681],[137.24,109.016],[136.928,108.706],[135.913,107.823],[134.807,107.079],[133.619,106.438],[132.352,105.947],[131.148,105.601],[130.258,105.446],[129.181,105.325],[128.209,105.29]]
M140 S50
M105
M190 S50
M104 S200
M105
M109 S200
M82 ;absolute extrusion mode
; Ender 3 Custom Start G-code
G92 E0 ; Reset Extruder
G28 ; Home all axes
G1 Z2.0 F3000 ; Move Z Axis up little to prevent scratching of Heat Bed
G1 X0.1 Y20 Z0.3 F5000.0 ; Move to start position
G1 X0.1 Y200.0 Z0.3 F1500.0 E15 ; Draw the first line
G1 X0.4 Y200.0 Z0.3 F5000.0 ; Move to side a little
G1 X0.4 Y20 Z0.3 F1500.0 E30 ; Draw the second line
G92 E0 ; Reset Extruder
G1 Z2.0 F3000 ; Move Z Axis up little to prevent scratching of Heat Bed
G1 X5 Y20 Z0.3 F5000.0 ; Move over to prevent blob squish
G92 E0
G92 E0
G1 F2700 E-0.75
;LAYER_COUNT:15
SET_PRINT_STATS_INFO TOTAL_LAYER=15
TIMELAPSE_TAKE_FRAME
;LAYER:0
SET_PRINT_STATS_INFO CURRENT_LAYER=1
M107
G0 F6000 X97.532 Y108.117 Z0.2
;TYPE:SKIRT
G1 F2700 E0
G1 F1200 X98.256 Y107.463 E0.03245
G1 X99.026 Y106.881 E0.06455
G1 X99.851 Y106.354 E0.09711
G1 X100.67 Y105.894 E0.12836
G1 X101.582 Y105.482 E0.16164
G1 X102.482 Y105.158 E0.19346
G1 X103.433 Y104.879 E0.22642
G1 X104.758 Y104.639 E0.27121
G1 X105.468 Y104.558 E0.29497
G1 X106.454 Y104.493 E0.32784
G1 X107.718 Y104.54 E0.36991
G1 X108.53 Y104.619 E0.39704
G1 X111.181 Y104.849 E0.48555
G1 X113.629 Y104.988 E0.5671
G1 X116.198 Y105.062 E0.65258
G1 X118.686 Y105.064 E0.73533
G1 X121.218 Y104.994 E0.81958
G1 X123.702 Y104.856 E0.90232
G1 X126.346 Y104.632 E0.99058
G1 X127.263 Y104.542 E1.02123
G1 X128.237 Y104.49 E1.05367
G1 X129.209 Y104.525 E1.08602
G1 X129.937 Y104.597 E1.11035
G1 X130.396 Y104.658 E1.12575
G1 X131.327 Y104.822 E1.15719
G1 X132.596 Y105.185 E1.20109
G1 X133.082 Y105.358 E1.21825
G1 X133.999 Y105.734 E1.25121
G1 X135.21 Y106.388 E1.29699
G1 X135.628 Y106.651 E1.31341
G1 X136.439 Y107.219 E1.34635
G1 X137.454 Y108.102 E1.39109
G1 X137.829 Y108.475 E1.40868
G1 X138.486 Y109.193 E1.44105
G1 X139.075 Y109.962 E1.47327
G1 X139.594 Y110.764 E1.50504
G1 X140.098 Y111.648 E1.53889
G1 X140.474 Y112.469 E1.56892
G1 X140.842 Y113.487 E1.60493
G1 X141.122 Y114.436 E1.63783
G1 X141.36 Y115.746 E1.68212
G1 X141.421 Y116.281 E1.70003
G1 X141.489 Y117.349 E1.73562
G1 X141.496 Y118.155 E1.76243
G1 X141.487 Y118.686 E1.78009
G1 X141.428 Y119.658 E1.81248
G1 X141.282 Y120.621 E1.84488
G1 X141.051 Y121.567 E1.87727
G1 X140.738 Y122.49 E1.90968
G1 X140.345 Y123.38 E1.94204
G1 X139.893 Y124.203 E1.97327
G1 X139.329 Y125.04 E2.00684
G1 X138.727 Y125.785 E2.0387
G1 X138.38 Y126.16 E2.05569
G1 X137.645 Y126.908 E2.09057
G1 X137.125 Y127.411 E2.11463
G1 X136.395 Y128.056 E2.14703
G1 X135.611 Y128.632 E2.17939
G1 X134.778 Y129.137 E2.21179
G1 X133.904 Y129.567 E2.24419
G1 X132.996 Y129.917 E2.27655
G1 X132.058 Y130.187 E2.30902
G1 X131.087 Y130.373 E2.3419
G1 X129.746 Y130.486 E2.38666
G1 X128.938 Y130.5 E2.41354
G1 X106.05 Y130.499 E3.1748
G1 X105.314 Y130.487 E3.19928
G1 X104.342 Y130.428 E3.23167
G1 X103.379 Y130.282 E3.26406
G1 X102.431 Y130.051 E3.29652
G1 X101.575 Y129.763 E3.32656
G1 X100.619 Y129.344 E3.36127
G1 X99.766 Y128.873 E3.39368
G1 X98.96 Y128.328 E3.42604
G1 X98.217 Y127.727 E3.45783
G1 X97.848 Y127.386 E3.47454
G1 X97.3 Y126.856 E3.49989
G1 X96.598 Y126.137 E3.53332
G1 X95.941 Y125.391 E3.56638
G1 X95.365 Y124.607 E3.59874
G1 X94.859 Y123.773 E3.63118
G1 X94.431 Y122.9 E3.66352
G1 X94.103 Y122.058 E3.69357
G1 X93.812 Y121.054 E3.72834
G1 X93.626 Y120.082 E3.76126
G1 X93.514 Y118.755 E3.80555
G1 X93.503 Y117.901 E3.83396
G1 X93.514 Y117.278 E3.85468
G1 X93.581 Y116.255 E3.88878
G1 X93.633 Y115.794 E3.90421
G1 X93.788 Y114.832 E3.93662
G1 X94.025 Y113.895 E3.96876
G1 X94.348 Y112.943 E4.0022
G1 X94.715 Y112.04 E4.03462
G1 X95.155 Y111.181 E4.06672
G1 X95.653 Y110.37 E4.09837
G1 X96.167 Y109.627 E4.12842
G1 X96.832 Y108.829 E4.16297
G1 X97.532 Y108.117 E4.19618
G0 F6000 X97.801 Y108.413
G1 F1200 X98.497 Y107.782 E4.22743
G1 X99.242 Y107.218 E4.25851
G1 X100.047 Y106.703 E4.29029
G1 X100.866 Y106.243 E4.32153
G1 X101.717 Y105.858 E4.3526
G1 X102.596 Y105.542 E4.38367
G1 X103.504 Y105.273 E4.41517
G1 X104.829 Y105.033 E4.45995
G1 X105.495 Y104.957 E4.48225
G1 X106.439 Y104.893 E4.51372
G1 X107.703 Y104.94 E4.55579
G1 X108.496 Y105.018 E4.58229
G1 X111.147 Y105.247 E4.67079
G1 X113.617 Y105.388 E4.75308
G1 X116.186 Y105.462 E4.83856
G1 X118.697 Y105.464 E4.92207
G1 X121.229 Y105.394 E5.00632
G1 X123.736 Y105.254 E5.08983
G1 X126.38 Y105.03 E5.17809
G1 X127.285 Y104.941 E5.20833
G1 X128.223 Y104.89 E5.23958
G1 X129.195 Y104.925 E5.27193
G1 X129.885 Y104.994 E5.29499
G1 X130.327 Y105.052 E5.30982
G1 X131.217 Y105.207 E5.33987
G1 X132.486 Y105.57 E5.38377
G1 X132.931 Y105.728 E5.39947
G1 X133.809 Y106.086 E5.43101
G1 X135.02 Y106.74 E5.47678
G1 X135.399 Y106.979 E5.49169
G1 X136.176 Y107.521 E5.5232
G1 X137.191 Y108.404 E5.56794
G1 X137.534 Y108.745 E5.58403
G1 X138.169 Y109.437 E5.61527
G1 X138.739 Y110.179 E5.64639
G1 X139.258 Y110.981 E5.67816
G1 X139.734 Y111.815 E5.7101
G1 X140.11 Y112.636 E5.74013
G1 X140.459 Y113.601 E5.77426
G1 X140.728 Y114.508 E5.80573
G1 X140.966 Y115.818 E5.85001
G1 X141.022 Y116.307 E5.86638
G1 X141.089 Y117.353 E5.90125
G1 X141.096 Y118.149 E5.92772
G1 X141.088 Y118.662 E5.94479
G1 X141.032 Y119.599 E5.97601
G1 X140.893 Y120.527 E6.00722
G1 X140.672 Y121.439 E6.03843
G1 X140.372 Y122.329 E6.06967
G1 X139.994 Y123.187 E6.10085
G1 X139.542 Y124.01 E6.13208
G1 X139.018 Y124.789 E6.1633
G1 X138.434 Y125.513 E6.19424
G1 X138.094 Y125.88 E6.21088
G1 X137.367 Y126.621 E6.24541
G1 X136.86 Y127.112 E6.26888
G1 X136.158 Y127.734 E6.30008
G1 X135.403 Y128.29 E6.33126
G1 X134.601 Y128.778 E6.36249
G1 X133.759 Y129.194 E6.39373
G1 X132.885 Y129.533 E6.42491
G1 X131.982 Y129.794 E6.45617
G1 X131.053 Y129.974 E6.48764
G1 X129.712 Y130.087 E6.5324
G1 X128.938 Y130.1 E6.55815
G1 X106.056 Y130.099 E7.31921
G1 X105.338 Y130.088 E7.34309
G1 X104.401 Y130.032 E7.37431
G1 X103.473 Y129.893 E7.40552
G1 X102.559 Y129.672 E7.4368
G1 X101.703 Y129.384 E7.46684
G1 X100.812 Y128.994 E7.49918
G1 X99.989 Y128.541 E7.53043
G1 X99.211 Y128.017 E7.56163
G1 X98.488 Y127.433 E7.59254
G1 X98.126 Y127.099 E7.60892
G1 X97.586 Y126.576 E7.63393
G1 X96.898 Y125.872 E7.66667
G1 X96.263 Y125.154 E7.69855
G1 X95.707 Y124.399 E7.72973
G1 X95.218 Y123.596 E7.761
G1 X94.804 Y122.755 E7.79218
G1 X94.476 Y121.913 E7.82223
G1 X94.205 Y120.978 E7.85461
G1 X94.025 Y120.048 E7.88612
G1 X93.913 Y118.721 E7.93041
G1 X93.903 Y117.908 E7.95745
G1 X93.913 Y117.304 E7.97755
G1 X93.978 Y116.3 E8.01101
G1 X94.028 Y115.857 E8.02584
G1 X94.176 Y114.93 E8.05706
G1 X94.404 Y114.023 E8.08817
G1 X94.719 Y113.093 E8.12082
G1 X95.071 Y112.222 E8.15207
G1 X95.496 Y111.39 E8.18314
G1 X95.982 Y110.598 E8.21405
G1 X96.496 Y109.855 E8.2441
G1 X97.117 Y109.109 E8.27638
G1 X97.801 Y108.413 E8.30884
G0 F6000 X98.739 Y108.101
G1 F1200 X99.458 Y107.555 E8.33887
G1 X100.244 Y107.051 E8.36992
G1 X101.031 Y106.607 E8.39998
G1 X101.853 Y106.234 E8.43
G1 X102.71 Y105.925 E8.4603
G1 X103.575 Y105.667 E8.49032
G1 X104.9 Y105.427 E8.53511
G1 X105.523 Y105.356 E8.55596
G1 X106.424 Y105.293 E8.586
G1 X107.688 Y105.34 E8.62807
G1 X108.462 Y105.417 E8.65394
G1 X111.113 Y105.645 E8.74244
G1 X113.605 Y105.788 E8.82546
G1 X116.174 Y105.862 E8.91094
G1 X118.708 Y105.864 E8.99523
G1 X121.24 Y105.794 E9.07947
G1 X123.77 Y105.652 E9.16375
G1 X126.414 Y105.429 E9.252
G1 X127.307 Y105.34 E9.28185
G1 X128.209 Y105.29 E9.3119
G1 X129.181 Y105.325 E9.34425
G1 X129.834 Y105.391 E9.36608
G1 X130.258 Y105.446 E9.3803
G1 X131.148 Y105.601 E9.41035
G1 X132.352 Y105.947 E9.45201
G1 X132.781 Y106.099 E9.46715
G1 X133.619 Y106.438 E9.49722
G1 X134.807 Y107.079 E9.54211
G1 X135.171 Y107.308 E9.55642
G1 X135.913 Y107.823 E9.58646
G1 X136.928 Y108.706 E9.6312
G1 X137.24 Y109.016 E9.64583
G1 X137.852 Y109.681 E9.67589
G1 X138.403 Y110.396 E9.70592
G1 X138.922 Y111.198 E9.73769
G1 X139.37 Y111.982 E9.76772
G1 X139.746 Y112.803 E9.79775
G1 X140.076 Y113.715 E9.83001
G1 X140.334 Y114.58 E9.86004
G1 X140.572 Y115.89 E9.90432
G1 X140.623 Y116.333 E9.91915
G1 X140.689 Y117.357 E9.95328
G1 X140.696 Y118.143 E9.97942
G1 X140.689 Y118.639 E9.99592
G1 X140.636 Y119.541 E10.02597
G1 X140.504 Y120.434 E10.056
G1 X140.293 Y121.312 E10.08603
G1 X140.006 Y122.168 E10.11606
G1 X139.643 Y122.995 E10.1461
G1 X139.21 Y123.787 E10.17612
G1 X138.707 Y124.538 E10.20619
G1 X138.14 Y125.241 E10.23622
G1 X137.808 Y125.6 E10.25249
G1 X137.089 Y126.334 E10.28666
G1 X136.595 Y126.813 E10.30955
G1 X135.92 Y127.412 E10.33956
G1 X135.194 Y127.949 E10.3696
G1 X134.423 Y128.42 E10.39965
G1 X133.614 Y128.821 E10.42968
G1 X132.773 Y129.149 E10.4597
G1 X131.905 Y129.401 E10.48977
G1 X131.019 Y129.575 E10.5198
G1 X129.678 Y129.688 E10.56456
G1 X128.938 Y129.7 E10.58917
G1 X106.062 Y129.699 E11.35003
G1 X105.361 Y129.689 E11.37335
G1 X104.459 Y129.636 E11.4034
G1 X103.566 Y129.504 E11.43343
G1 X102.687 Y129.293 E11.46349
G1 X101.831 Y129.005 E11.49353
G1 X101.004 Y128.643 E11.52356
G1 X100.212 Y128.209 E11.55359
G1 X99.462 Y127.706 E11.58363
G1 X98.759 Y127.139 E11.61367
G1 X98.404 Y126.812 E11.62972
G1 X97.872 Y126.296 E11.65437
G1 X97.184 Y125.592 E11.68711
G1 X96.585 Y124.916 E11.71715
G1 X96.048 Y124.19 E11.74719
G1 X95.577 Y123.419 E11.77724
G1 X95.177 Y122.61 E11.80725
G1 X94.849 Y121.768 E11.83731
G1 X94.598 Y120.901 E11.86733
G1 X94.424 Y120.014 E11.89739
G1 X94.312 Y118.687 E11.94169
G1 X94.303 Y117.914 E11.9674
G1 X94.312 Y117.33 E11.98683
G1 X94.375 Y116.345 E12.01965
G1 X94.423 Y115.919 E12.03391
G1 X94.564 Y115.027 E12.06395
G1 X94.783 Y114.151 E12.09398
G1 X95.09 Y113.242 E12.12589
G1 X95.427 Y112.404 E12.15593
G1 X95.837 Y111.599 E12.18598
G1 X96.311 Y110.826 E12.21614
G1 X96.825 Y110.083 E12.24619
G1 X97.403 Y109.389 E12.27623
G1 X98.07 Y108.709 E12.30791
G1 X98.739 Y108.101 E12.33798
G1 F2700 E11.58798
;MESH:Clip.stl
EXCLUDE_OBJECT_START NAME=Clip_stl
G0 F6000 X104.749 Y115.5
G0 X105.516 Y116.266
G0 X105.73 Y116.635
G0 X105.902 Y116.351
;TYPE:WALL-INNER
G1 F2700 E12.33798
G1 F812.2 X105.69 Y116.484 E12.35028
G1 X105.483 Y116.691 E12.36466
G1 X105.33 Y116.938 E12.37894
G1 X105.233 Y117.213 E12.39327
G1 F781.8 X105.195 Y117.586 E12.41241
G1 F743 X105.253 Y118.208 E12.44597
G1 F729.5 X105.517 Y118.484 E12.46686
G1 F739.6 X105.796 Y118.752 E12.48774
G1 F775.4 X106.5 Y118.8 E12.52406
G1 F794.7 X128.674 Y118.796 E13.6377
G1 F768 X129.207 Y118.748 E13.66551
G1 F738.5 X129.484 Y118.483 E13.68623
G1 F729.5 X129.748 Y118.208 E13.70709
G1 F741.9 X129.805 Y117.585 E13.74074
G1 F780.5 X129.767 Y117.214 E13.75982
G1 F810.8 X129.67 Y116.937 E13.77426
G1 X129.516 Y116.692 E13.78851
G1 X129.309 Y116.484 E13.80295
G1 X129.099 Y116.353 E13.81514
G1 F780.5 X129.203 Y117.584 E13.87831
G1 F730.6 X129.134 Y117.88 E13.89491
G1 F710.1 X128.88 Y118.134 E13.91511
G1 F747.7 X128.622 Y118.194 E13.92925
G1 F794.7 X106.5 Y118.2 E15.04027
G1 F752.4 X106.12 Y118.134 E15.06074
G1 F710.1 X105.866 Y117.88 E15.08093
G1 F753.5 X105.796 Y117.585 E15.09699
G1 F806.7 X105.902 Y116.351 E15.15826
G1 F2700 E14.40826
G0 F6000 X105.73 Y116.635
G0 X105.598 Y118.327
G0 X128.616 Y118.4
G0 X128.616 Y117.665
;TYPE:WALL-OUTER
G1 F2700 E15.15826
G1 F1200 X128.535 Y117.698 E15.16117
G1 X106.5 Y117.7 E15.89406
G1 X106.397 Y117.672 E15.89761
G1 X106.297 Y117.521 E15.90363
G1 X106.455 Y115.707 E15.96419
G1 X106.103 Y115.747 E15.97598
G1 X105.721 Y115.88 E15.98943
G1 X105.38 Y116.094 E16.00282
G1 X105.094 Y116.38 E16.01627
G1 X104.88 Y116.721 E16.02966
G1 X104.747 Y117.102 E16.04309
G1 X104.702 Y117.498 E16.05634
G1 X104.701 Y118.416 E16.08687
G1 X105.584 Y119.3 E16.12843
G1 X129.416 Y119.3 E16.92109
G1 X130.3 Y118.416 E16.96267
G1 X130.3 Y117.507 E16.9929
G1 X130.253 Y117.102 E17.00646
G1 X130.12 Y116.721 E17.01988
G1 X129.906 Y116.38 E17.03327
G1 X129.62 Y116.094 E17.04673
G1 X129.279 Y115.88 E17.06012
G1 X128.897 Y115.747 E17.07357
G1 X128.545 Y115.707 E17.08535
G1 X128.703 Y117.521 E17.14591
G1 X128.616 Y117.665 E17.15151
G1 F2700 E16.40151
;MESH:NONMESH
EXCLUDE_OBJECT_END NAME=Clip_stl
G0 F300 X128.616 Y117.665 Z0.4
G0 F6000 X128.616 Y118.4
G0 X106.049 Y117.913
G0 X107.211 Y116.848
G0 X107.393 Y114.745
G0 X98.739 Y108.101
;TIME_ELAPSED:32.483132
TIMELAPSE_TAKE_FRAME
;LAYER:1
SET_PRINT_STATS_INFO CURRENT_LAYER=2
M106 S85
;TYPE:SKIRT
G1 F2700 E17.15151
G1 F1200 X99.458 Y107.555 E17.18154
G1 X100.244 Y107.051 E17.21259
G1 X101.031 Y106.607 E17.24265
G1 X101.853 Y106.234 E17.27267
G1 X102.71 Y105.925 E17.30297
G1 X103.575 Y105.667 E17.33299
G1 X104.9 Y105.427 E17.37778
G1 X105.523 Y105.356 E17.39864
G1 X106.424 Y105.293 E17.42868
G1 X107.688 Y105.34 E17.47075
G1 X108.462 Y105.417 E17.49662
G1 X111.113 Y105.645 E17.58511
G1 X113.605 Y105.788 E17.66813
G1 X116.174 Y105.862 E17.75362
G1 X118.708 Y105.864 E17.8379
G1 X121.24 Y105.794 E17.92214
G1 X123.77 Y105.652 E18.00642
G1 X126.414 Y105.429 E18.09468
G1 X127.307 Y105.34 E18.12452
G1 X128.209 Y105.29 E18.15457
G1 X129.181 Y105.325 E18.18692
G1 X129.834 Y105.391 E18.20875
G1 X130.258 Y105.446 E18.22297
G1 X131.148 Y105.601 E18.25302
G1 X132.352 Y105.947 E18.29468
G1 X132.781 Y106.099 E18.30982
G1 X133.619 Y106.438 E18.33989
G1 X134.807 Y107.079 E18.38479
G1 X135.171 Y107.308 E18.39909
G1 X135.913 Y107.823 E18.42913
G1 X136.928 Y108.706 E18.47388
G1 X137.24 Y109.016 E18.4885
G1 X137.852 Y109.681 E18.51856
G1 X138.403 Y110.396 E18.54859
G1 X138.922 Y111.198 E18.58036
G1 X139.37 Y111.982 E18.61039
G1 X139.746 Y112.803 E18.64043
G1 X140.076 Y113.715 E18.67268
G1 X140.334 Y114.58 E18.70271
G1 X140.572 Y115.89 E18.74699
G1 X140.623 Y116.333 E18.76182
G1 X140.689 Y117.357 E18.79595
G1 X140.696 Y118.143 E18.8221
G1 X140.689 Y118.639 E18.83859
G1 X140.636 Y119.541 E18.86865
G1 X140.504 Y120.434 E18.89867
G1 X140.293 Y121.312 E18.9287
G1 X140.006 Y122.168 E18.95873
G1 X139.643 Y122.995 E18.98877
G1 X139.21 Y123.787 E19.01879
G1 X138.707 Y124.538 E19.04886
G1 X138.14 Y125.241 E19.0789
G1 X137.808 Y125.6 E19.09516
G1 X137.089 Y126.334 E19.12933
G1 X136.595 Y126.813 E19.15222
G1 X135.92 Y127.412 E19.18224
G1 X135.194 Y127.949 E19.21227
G1 X134.423 Y128.42 E19.24232
G1 X133.614 Y128.821 E19.27235
G1 X132.773 Y129.149 E19.30238
G1 X131.905 Y129.401 E19.33244
G1 X131.019 Y129.575 E19.36247
G1 X129.678 Y129.688 E19.40723
G1 X128.938 Y129.7 E19.43184
G1 X106.062 Y129.699 E20.1927
G1 X105.361 Y129.689 E20.21602
G1 X104.459 Y129.636 E20.24607
G1 X103.566 Y129.504 E20.2761
G1 X102.687 Y129.293 E20.30616
G1 X101.831 Y129.005 E20.3362
