;FLAVOR:Marlin
;TIME:1836
;Filament used: 0.892623m
;Layer height: 0.2
;MINX:74.75
;MINY:90.5
;MINZ:0.2
;MAXX:160.249
;MAXY:144.499
;MAXZ:6.4
;POSTPROCESSED
;Generated with Cura_SteamEngine 5.4.0
;
;

;
;



; Pre-Processed for Cancel-Object support by preprocess_cancellation v(0, 3, 'a1')
; 1 known objects
EXCLUDE_OBJECT_DEFINE NAME=Baseplate_stl CENTER=117.500,117.500 POLYGON=[[90.038,91.3],[87.444,91.315],[86.129,91.44],[84.997,91.636],[84.123,91.863],[83.272,92.168],[81.892,92.835],[81.464,93.069],[80.703,93.555],[79.988,94.107],[78.891,95.157],[78.556,95.512],[77.982,96.209],[77.472,96.954],[76.749,98.299],[76.223,99.541],[75.964,100.406],[75.783,101.291],[75.619,102.406],[75.55,104.178],[75.551,131.178],[75.564,131.785],[75.689,133.11],[75.886,134.253],[76.113,135.127],[76.418,135.978],[76.796,136.798],[77.319,137.786],[77.805,138.547],[78.357,139.262],[78.97,139.926],[79.762,140.694],[80.459,141.268],[81.204,141.778],[82.549,142.501],[83.788,143.026],[84.653,143.285],[86.133,143.562],[86.681,143.634],[87.583,143.688],[123.355,143.699],[124.251,143.684],[125.453,143.592],[147.984,141.164],[148.881,141.059],[150.01,140.863],[150.884,140.635],[151.734,140.33],[153.115,139.661],[153.537,139.43],[154.298,138.944],[155.013,138.392],[156.109,137.343],[156.444,136.988],[157.018,136.291],[157.528,135.546],[158.251,134.201],[158.781,132.95],[159.039,132.084],[159.219,131.2],[159.385,130.058],[159.449,128.412],[159.449,107.3],[159.435,106.694],[159.309,105.372],[159.114,104.247],[158.887,103.373],[158.582,102.522],[158.204,101.702],[157.681,100.714],[157.195,99.953],[156.643,99.238],[156.03,98.574],[155.249,97.816],[154.553,97.241],[153.808,96.73],[153.022,96.287],[152.061,95.812],[151.222,95.477],[150.357,95.217],[149.473,95.035],[124.69,91.355],[123.788,91.309],[122.62,91.301],[90.038,91.3]]
M140 S50
M105
M190 S50
M104 S200
M105
M109 S200
M82 ;absolute extrusion mode
; Ender 3 Custom Start G-code
G92 E0 ; Reset Extruder
G28 ; Home all axes
G1 Z2.0 F3000 ; Move Z Axis up little to prevent scratching of Heat Bed
G1 X0.1 Y20 Z0.3 F5000.0 ; Move to start position
G1 X0.1 Y200.0 Z0.3 F1500.0 E15 ; Draw the first line
G1 X0.4 Y200.0 Z0.3 F5000.0 ; Move to side a little
G1 X0.4 Y20 Z0.3 F1500.0 E30 ; Draw the second line
G92 E0 ; Reset Extruder
G1 Z2.0 F3000 ; Move Z Axis up little to prevent scratching of Heat Bed
G1 X5 Y20 Z0.3 F5000.0 ; Move over to prevent blob squish
G92 E0
G92 E0
G1 F2700 E-0.75
;LAYER_COUNT:32
SET_PRINT_STATS_INFO TOTAL_LAYER=32
TIMELAPSE_TAKE_FRAME
;LAYER:0
SET_PRINT_STATS_INFO CURRENT_LAYER=1
M107
G0 F6000 X79.5 Y93.473 Z0.2
;TYPE:SKIRT
G1 F2700 E0
G1 F1200 X80.273 Y92.881 E0.03238
G1 X81.057 Y92.381 E0.06331
G1 X81.526 Y92.124 E0.0811
G1 X82.102 Y91.827 E0.10265
G1 X83.003 Y91.414 E0.13562
G1 X83.922 Y91.089 E0.16804
G1 X84.849 Y90.85 E0.19988
G1 X85.38 Y90.75 E0.21785
G1 X86.001 Y90.65 E0.23877
G1 X87.426 Y90.515 E0.28638
G1 X88.045 Y90.501 E0.30697
G1 X90.049 Y90.5 E0.37363
G1 X90.978 Y90.514 E0.40453
G1 X92.268 Y90.615 E0.44757
G1 X93.094 Y90.725 E0.47528
G1 X95.034 Y91.006 E0.54048
G1 X97.515 Y91.293 E0.62355
G1 X100.009 Y91.511 E0.70682
G1 X102.511 Y91.657 E0.79017
G1 X105.05 Y91.735 E0.87466
G1 X107.534 Y91.741 E0.95728
G1 X110.099 Y91.673 E1.04262
G1 X112.599 Y91.539 E1.12589
G1 X115.096 Y91.331 E1.20923
G1 X117.586 Y91.053 E1.29256
G1 X119.316 Y90.808 E1.35068
G1 X119.554 Y90.785 E1.35863
G1 X120.73 Y90.616 E1.39814
G1 X121.876 Y90.517 E1.4364
G1 X122.626 Y90.501 E1.46135
G1 X123.829 Y90.511 E1.50137
G1 X124.794 Y90.561 E1.53351
G1 X125.529 Y90.659 E1.55817
G1 X126.337 Y90.796 E1.58543
G1 X127.217 Y90.984 E1.61536
G1 X128.215 Y91.24 E1.64962
G1 X130.769 Y91.856 E1.73701
G1 X133.227 Y92.376 E1.82057
G1 X135.685 Y92.826 E1.90368
G1 X138.164 Y93.204 E1.98709
G1 X140.719 Y93.523 E2.07273
G1 X143.154 Y93.756 E2.15408
G1 X146.714 Y93.976 E2.27272
G1 X147.781 Y94.024 E2.30824
G1 X148.999 Y94.149 E2.34896
G1 X149.635 Y94.251 E2.37039
G1 X150.588 Y94.451 E2.40278
G1 X151.486 Y94.723 E2.43398
G1 X152.415 Y95.094 E2.46725
G1 X153.396 Y95.58 E2.50367
G1 X154.261 Y96.071 E2.53675
G1 X155.063 Y96.625 E2.56917
G1 X155.799 Y97.234 E2.60094
G1 X156.157 Y97.573 E2.61734
G1 X156.618 Y98.032 E2.63898
G1 X157.277 Y98.75 E2.67139
G1 X157.869 Y99.523 E2.70378
G1 X158.369 Y100.307 E2.7347
G1 X158.626 Y100.776 E2.75249
G1 X158.923 Y101.352 E2.77405
G1 X159.336 Y102.253 E2.80701
G1 X159.661 Y103.172 E2.83943
G1 X159.9 Y104.099 E2.87127
G1 X159.999 Y104.625 E2.88907
G1 X160.099 Y105.244 E2.90993
G1 X160.235 Y106.676 E2.95777
G1 X160.249 Y107.282 E2.97793
G1 X160.249 Y128.424 E3.68112
G1 X160.237 Y129.187 E3.7065
G1 X160.179 Y130.163 E3.73902
G1 X160.104 Y130.724 E3.75784
G1 X160.003 Y131.361 E3.7793
G1 X159.805 Y132.313 E3.81164
G1 X159.525 Y133.246 E3.84404
G1 X159.191 Y134.085 E3.87407
G1 X158.965 Y134.561 E3.8916
G1 X158.667 Y135.15 E3.91355
G1 X158.188 Y135.998 E3.94594
G1 X157.636 Y136.799 E3.9783
G1 X157.026 Y137.538 E4.01017
G1 X156.677 Y137.907 E4.02706
G1 X156.219 Y138.367 E4.04865
G1 X155.501 Y139.026 E4.08107
G1 X154.728 Y139.618 E4.11345
G1 X153.921 Y140.132 E4.14527
G1 X153.483 Y140.371 E4.16187
G1 X152.889 Y140.677 E4.18409
G1 X152.004 Y141.083 E4.21648
G1 X151.086 Y141.409 E4.24888
G1 X150.158 Y141.649 E4.28076
G1 X149.626 Y141.749 E4.29876
G1 X148.974 Y141.853 E4.32072
G1 X148.018 Y141.964 E4.35273
G1 X147.405 Y141.989 E4.37314
G1 X143.955 Y142.037 E4.4879
G1 X141.39 Y142.146 E4.57329
G1 X138.911 Y142.322 E4.65595
G1 X136.41 Y142.569 E4.73954
G1 X133.902 Y142.89 E4.82363
G1 X131.419 Y143.28 E4.90723
G1 X128.976 Y143.735 E4.98988
G1 X128.342 Y143.872 E5.01146
G1 X126.594 Y144.221 E5.07074
G1 X125.907 Y144.337 E5.09391
G1 X125.514 Y144.39 E5.1071
G1 X124.265 Y144.484 E5.14876
G1 X123.347 Y144.499 E5.1793
G1 X122.062 Y144.486 E5.22204
G1 X120.817 Y144.395 E5.26356
G1 X117.912 Y144.005 E5.36105
G1 X115.367 Y143.731 E5.44619
G1 X112.827 Y143.53 E5.53093
G1 X110.378 Y143.408 E5.61249
G1 X107.816 Y143.352 E5.69772
G1 X105.323 Y143.368 E5.78064
G1 X102.782 Y143.456 E5.8652
G1 X100.261 Y143.614 E5.94922
G1 X97.839 Y143.836 E6.03011
G1 X94.34 Y144.272 E6.14739
G1 X93.555 Y144.384 E6.17376
G1 X92.413 Y144.483 E6.21189
G1 X91.759 Y144.499 E6.23364
G1 X88.288 Y144.499 E6.34909
G1 X87.535 Y144.486 E6.37414
G1 X86.577 Y144.428 E6.40606
G1 X86.007 Y144.352 E6.42519
G1 X85.375 Y144.251 E6.44647
G1 X84.422 Y144.051 E6.47886
G1 X83.516 Y143.777 E6.51034
G1 X82.189 Y143.215 E6.55827
G1 X81.6 Y142.917 E6.58023
G1 X80.752 Y142.438 E6.61262
G1 X79.951 Y141.886 E6.64498
G1 X79.212 Y141.276 E6.67685
G1 X78.843 Y140.927 E6.69374
G1 X78.382 Y140.468 E6.71538
G1 X77.723 Y139.75 E6.74779
G1 X77.131 Y138.977 E6.78018
G1 X76.631 Y138.193 E6.8111
G1 X76.374 Y137.724 E6.82889
G1 X76.077 Y137.148 E6.85045
G1 X75.664 Y136.247 E6.88341
G1 X75.339 Y135.329 E6.9158
G1 X75.106 Y134.428 E6.94675
G1 X74.999 Y133.86 E6.96598
G1 X74.896 Y133.211 E6.98783
G1 X74.764 Y131.802 E7.0349
G1 X74.751 Y131.178 E7.05566
G1 X74.75 Y104.165 E7.95412
G1 X74.766 Y103.26 E7.98422
G1 X74.823 Y102.33 E8.01521
G1 X74.899 Y101.756 E8.03447
G1 X74.999 Y101.13 E8.05556
G1 X75.198 Y100.175 E8.088
G1 X75.472 Y99.269 E8.11948
G1 X76.035 Y97.939 E8.16752
G1 X76.333 Y97.35 E8.18947
G1 X76.812 Y96.502 E8.22187
G1 X77.364 Y95.701 E8.25422
G1 X77.974 Y94.962 E8.28609
G1 X78.323 Y94.593 E8.30299
G1 X78.782 Y94.132 E8.32462
G1 X79.5 Y93.473 E8.35704
G0 F6000 X79.744 Y93.79
G1 F1200 X80.488 Y93.218 E8.38825
G1 X81.272 Y92.718 E8.41918
G1 X81.709 Y92.48 E8.43573
G1 X82.285 Y92.183 E8.45728
G1 X83.137 Y91.791 E8.48848
G1 X84.022 Y91.476 E8.51972
G1 X84.923 Y91.243 E8.55067
G1 X85.444 Y91.145 E8.56831
G1 X86.065 Y91.045 E8.58923
G1 X87.435 Y90.915 E8.635
G1 X88.045 Y90.901 E8.65529
G1 X90.043 Y90.9 E8.72175
G1 X90.947 Y90.913 E8.75182
G1 X92.215 Y91.012 E8.79412
G1 X93.037 Y91.121 E8.8217
G1 X94.977 Y91.402 E8.8869
G1 X97.47 Y91.69 E8.97036
G1 X99.984 Y91.91 E9.0543
G1 X102.499 Y92.057 E9.13809
G1 X105.038 Y92.135 E9.22258
G1 X107.544 Y92.141 E9.30593
G1 X110.11 Y92.073 E9.3913
G1 X112.632 Y91.937 E9.47531
G1 X115.137 Y91.729 E9.55891
G1 X117.63 Y91.451 E9.64234
G1 X119.354 Y91.206 E9.70026
G1 X119.607 Y91.182 E9.70871
G1 X120.764 Y91.015 E9.74759
G1 X121.91 Y90.916 E9.78585
G1 X122.623 Y90.901 E9.80957
G1 X123.808 Y90.91 E9.84899
G1 X124.742 Y90.958 E9.88009
G1 X125.462 Y91.053 E9.90425
G1 X126.254 Y91.187 E9.93096
G1 X127.117 Y91.371 E9.96031
G1 X128.121 Y91.629 E9.99479
G1 X130.675 Y92.245 E10.08217
G1 X133.144 Y92.767 E10.16611
G1 X135.619 Y93.22 E10.24979
G1 X138.114 Y93.601 E10.33374
G1 X140.669 Y93.92 E10.41938
G1 X143.122 Y94.155 E10.50134
G1 X146.696 Y94.376 E10.62044
G1 X147.74 Y94.422 E10.6552
G1 X148.936 Y94.544 E10.69518
G1 X149.554 Y94.643 E10.716
G1 X150.472 Y94.834 E10.74718
G1 X151.37 Y95.106 E10.77839
G1 X152.238 Y95.453 E10.80948
G1 X153.199 Y95.928 E10.84514
G1 X154.034 Y96.4 E10.87704
G1 X154.808 Y96.933 E10.9083
G1 X155.524 Y97.525 E10.9392
G1 X155.875 Y97.857 E10.95527
G1 X156.324 Y98.303 E10.97631
G1 X156.96 Y98.994 E11.00755
G1 X157.532 Y99.738 E11.03876
G1 X158.032 Y100.522 E11.06969
G1 X158.27 Y100.959 E11.08624
G1 X158.567 Y101.535 E11.1078
G1 X158.959 Y102.387 E11.13899
G1 X159.274 Y103.272 E11.17023
G1 X159.507 Y104.173 E11.20119
G1 X159.604 Y104.689 E11.21865
G1 X159.704 Y105.308 E11.23951
G1 X159.835 Y106.685 E11.28551
G1 X159.849 Y107.291 E11.30567
G1 X159.849 Y128.418 E12.00836
G1 X159.838 Y129.163 E12.03314
G1 X159.782 Y130.11 E12.06469
G1 X159.709 Y130.661 E12.08318
G1 X159.611 Y131.28 E12.10402
G1 X159.422 Y132.198 E12.1352
G1 X159.153 Y133.098 E12.16644
G1 X158.819 Y133.937 E12.19647
G1 X158.608 Y134.381 E12.21283
G1 X158.319 Y134.954 E12.23417
G1 X157.858 Y135.772 E12.2654
G1 X157.327 Y136.545 E12.29659
G1 X156.735 Y137.263 E12.32754
G1 X156.393 Y137.625 E12.34411
G1 X155.948 Y138.073 E12.36511
G1 X155.257 Y138.709 E12.39634
G1 X154.513 Y139.281 E12.42756
G1 X153.729 Y139.781 E12.45849
G1 X153.299 Y140.016 E12.47478
G1 X152.722 Y140.314 E12.49638
G1 X151.869 Y140.706 E12.52761
G1 X150.985 Y141.022 E12.55883
G1 X150.084 Y141.256 E12.58979
G1 X149.563 Y141.354 E12.60742
G1 X148.928 Y141.456 E12.62882
G1 X148.001 Y141.564 E12.65986
G1 X147.399 Y141.589 E12.6799
G1 X143.938 Y141.637 E12.79502
G1 X141.373 Y141.746 E12.88041
G1 X138.88 Y141.923 E12.96354
G1 X136.359 Y142.172 E13.04779
G1 X133.851 Y142.493 E13.13189
G1 X131.357 Y142.885 E13.21586
G1 X128.891 Y143.344 E13.29929
G1 X128.264 Y143.48 E13.32063
G1 X126.527 Y143.827 E13.37954
G1 X125.853 Y143.941 E13.40228
G1 X125.484 Y143.991 E13.41466
G1 X124.258 Y144.084 E13.45556
G1 X123.351 Y144.099 E13.48573
G1 X122.091 Y144.087 E13.52764
G1 X120.846 Y143.996 E13.56916
G1 X117.955 Y143.607 E13.66618
G1 X115.408 Y143.333 E13.75138
G1 X112.858 Y143.132 E13.83646
G1 X110.387 Y143.008 E13.91875
G1 X107.822 Y142.952 E14.00408
G1 X105.309 Y142.968 E14.08766
G1 X102.768 Y143.056 E14.17223
G1 X100.233 Y143.215 E14.25671
G1 X97.79 Y143.439 E14.3383
G1 X94.283 Y143.876 E14.45585
G1 X93.52 Y143.985 E14.48148
G1 X92.378 Y144.084 E14.51961
G1 X91.749 Y144.099 E14.54053
G1 X88.295 Y144.099 E14.65542
G1 X87.559 Y144.087 E14.6799
G1 X86.629 Y144.031 E14.71089
G1 X86.07 Y143.957 E14.72964
G1 X85.456 Y143.859 E14.75032
G1 X84.538 Y143.668 E14.78151
G1 X83.632 Y143.394 E14.81299
G1 X82.369 Y142.858 E14.85862
G1 X81.796 Y142.569 E14.87997
G1 X80.978 Y142.108 E14.9112
G1 X80.205 Y141.577 E14.94239
G1 X79.487 Y140.985 E14.97334
G1 X79.125 Y140.643 E14.9899
G1 X78.676 Y140.197 E15.01095
G1 X78.04 Y139.506 E15.04219
G1 X77.468 Y138.762 E15.0734
G1 X76.968 Y137.978 E15.10433
G1 X76.73 Y137.541 E15.12088
G1 X76.433 Y136.965 E15.14244
G1 X76.041 Y136.113 E15.17363
G1 X75.726 Y135.228 E15.20487
G1 X75.499 Y134.354 E15.23491
G1 X75.394 Y133.797 E15.25376
G1 X75.291 Y133.148 E15.27562
G1 X75.164 Y131.794 E15.32085
G1 X75.151 Y131.178 E15.34134
G1 X75.15 Y104.172 E16.23956
G1 X75.165 Y103.284 E16.2691
G1 X75.22 Y102.382 E16.29916
G1 X75.294 Y101.819 E16.31804
G1 X75.391 Y101.211 E16.33852
G1 X75.581 Y100.291 E16.36977
G1 X75.855 Y99.385 E16.40125
G1 X76.392 Y98.119 E16.44699
G1 X76.681 Y97.546 E16.46833
G1 X77.142 Y96.728 E16.49956
G1 X77.673 Y95.955 E16.53075
G1 X78.265 Y95.237 E16.56171
G1 X78.607 Y94.875 E16.57827
G1 X79.053 Y94.426 E16.59932
G1 X79.744 Y93.79 E16.63055
G0 F6000 X79.988 Y94.107
G1 F1200 X80.703 Y93.555 E16.6606
G1 X81.464 Y93.069 E16.69063
G1 X81.892 Y92.835 E16.70685
G1 X82.452 Y92.546 E16.72781
G1 X83.272 Y92.168 E16.75785
G1 X84.123 Y91.863 E16.78791
G1 X84.997 Y91.636 E16.81795
G1 X85.508 Y91.54 E16.83524
G1 X86.129 Y91.44 E16.85616
G1 X87.444 Y91.315 E16.9001
G1 X88.045 Y91.301 E16.92009
G1 X90.038 Y91.3 E16.98638
G1 X90.916 Y91.312 E17.01558
G1 X92.184 Y91.411 E17.05788
G1 X92.98 Y91.517 E17.08459
G1 X94.92 Y91.798 E17.14979
G1 X97.425 Y92.087 E17.23366
G1 X99.959 Y92.309 E17.31826
G1 X102.487 Y92.457 E17.40249
G1 X105.026 Y92.535 E17.48698
G1 X107.554 Y92.541 E17.57106
G1 X110.121 Y92.473 E17.65647
G1 X112.665 Y92.335 E17.74121
G1 X115.178 Y92.127 E17.82507
G1 X117.674 Y91.849 E17.90861
G1 X119.392 Y91.604 E17.96632
G1 X119.661 Y91.578 E17.97531
G1 X120.798 Y91.414 E18.01352
G1 X121.944 Y91.315 E18.05178
G1 X122.62 Y91.301 E18.07427
G1 X123.788 Y91.309 E18.11312
G1 X124.69 Y91.355 E18.14316
G1 X125.41 Y91.45 E18.16731
G1 X126.171 Y91.578 E18.19298
G1 X127.017 Y91.758 E18.22175
G1 X128.027 Y92.018 E18.25643
G1 X130.581 Y92.634 E18.34382
G1 X133.061 Y93.158 E18.42812
G1 X135.552 Y93.614 E18.51235
G1 X138.064 Y93.998 E18.59687
G1 X140.619 Y94.317 E18.68251
G1 X143.09 Y94.554 E18.76507
G1 X146.679 Y94.776 E18.88467
G1 X147.7 Y94.82 E18.91866
G1 X148.873 Y94.939 E18.95788
G1 X149.473 Y95.035 E18.97809
G1 X150.357 Y95.217 E19.0081
G1 X151.222 Y95.477 E19.03815
G1 X152.061 Y95.812 E19.06819
G1 X153.022 Y96.287 E19.10385
G1 X153.808 Y96.73 E19.13386
G1 X154.553 Y97.241 E19.1639
G1 X155.249 Y97.816 E19.19393
G1 X155.593 Y98.141 E19.20967
G1 X156.03 Y98.574 E19.23013
G1 X156.643 Y99.238 E19.26019
G1 X157.195 Y99.953 E19.29023
G1 X157.681 Y100.714 E19.32027
G1 X157.915 Y101.142 E19.33649
G1 X158.204 Y101.702 E19.35745
G1 X158.582 Y102.522 E19.38748
G1 X158.887 Y103.373 E19.41755
G1 X159.114 Y104.247 E19.44758
G1 X159.209 Y104.753 E19.46471
G1 X159.309 Y105.372 E19.48556
G1 X159.435 Y106.694 E19.52973
G1 X159.449 Y107.3 E19.54989
G1 X159.449 Y128.412 E20.25208
G1 X159.438 Y129.157 E20.27686
G1 X159.385 Y130.058 E20.30688
G1 X159.314 Y130.599 E20.32503
G1 X159.219 Y131.2 E20.34526
G1 X159.039 Y132.084 E20.37527
G1 X158.781 Y132.95 E20.40532
G1 X158.447 Y133.789 E20.43536
G1 X158.251 Y134.201 E20.45053
G1 X157.97 Y134.758 E20.47128
G1 X157.528 Y135.546 E20.50133
G1 X157.018 Y136.291 E20.53136
G1 X156.444 Y136.988 E20.56139
G1 X156.109 Y137.343 E20.57763
G1 X155.677 Y137.779 E20.59804
G1 X155.013 Y138.392 E20.6281
G1 X154.298 Y138.944 E20.65814
G1 X153.537 Y139.43 E20.68818
G1 X153.115 Y139.661 E20.70418
G1 X152.554 Y139.951 E20.72518
G1 X151.734 Y140.33 E20.75523
G1 X150.884 Y140.635 E20.78526
G1 X150.01 Y140.863 E20.81531
G1 X149.499 Y140.959 E20.8326
G1 X148.881 Y141.059 E20.85342
G1 X147.984 Y141.164 E20.88346
G1 X147.393 Y141.189 E20.90313
G1 X143.921 Y141.237 E21.01862
G1 X141.356 Y141.346 E21.10401
G1 X138.849 Y141.524 E21.18761
G1 X136.308 Y141.775 E21.27253
G1 X133.8 Y142.096 E21.35663
G1 X131.295 Y142.49 E21.44097
G1 X128.806 Y142.953 E21.52517
G1 X128.186 Y143.088 E21.54628
G1 X126.46 Y143.433 E21.60482
G1 X125.799 Y143.545 E21.62712
G1 X125.453 Y143.592 E21.63873
G1 X124.251 Y143.684 E21.67883
G1 X123.355 Y143.699 E21.70863
G1 X122.12 Y143.688 E21.74971
G1 X120.875 Y143.597 E21.79123
G1 X117.998 Y143.209 E21.88779
G1 X115.449 Y142.935 E21.97305
G1 X112.889 Y142.734 E22.05846
G1 X110.396 Y142.608 E22.14149
G1 X107.828 Y142.552 E22.22692
G1 X105.295 Y142.568 E22.31117
G1 X102.754 Y142.656 E22.39573
G1 X100.205 Y142.816 E22.48068
G1 X97.741 Y143.042 E22.56298
G1 X94.226 Y143.48 E22.68079
G1 X93.485 Y143.586 E22.70569
G1 X92.343 Y143.685 E22.74381
G1 X91.74 Y143.699 E22.76387
G1 X88.301 Y143.699 E22.87826
G1 X87.583 Y143.688 E22.90214
G1 X86.681 Y143.634 E22.93219
