;FLAVOR:Marlin
;TIME:1081
;Filament used: 0.45167m
;Layer height: 0.2
;MINX:95.5
;MINY:100.3
;MINZ:0.2
;MAXX:139.5
;MAXY:134.7
;MAXZ:11.4
;POSTPROCESSED
;Generated with Cura_SteamEngine 5.4.0
;
;

;
;



; Pre-Processed for Cancel-Object support by preprocess_cancellation v(0, 3, 'a1')
; 1 known objects
EXCLUDE_OBJECT_DEFINE NAME=MotorHolder_stl CENTER=117.500,117.500 POLYGON=[[106.83,101.1],[106.223,101.113],[105.084,101.209],[104.196,101.375],[103.327,101.618],[102.482,101.938],[101.669,102.331],[100.894,102.794],[100.162,103.324],[99.481,103.917],[98.855,104.567],[98.288,105.271],[97.786,106.022],[97.353,106.814],[96.991,107.641],[96.704,108.498],[96.494,109.376],[96.362,110.269],[96.31,111.171],[96.3,123.358],[96.313,123.967],[96.41,125.122],[96.576,126.01],[96.82,126.88],[97.14,127.724],[97.534,128.537],[97.998,129.312],[98.528,130.043],[99.121,130.724],[99.772,131.35],[100.476,131.916],[101.227,132.417],[102.02,132.85],[102.847,133.211],[103.704,133.498],[104.582,133.707],[105.476,133.839],[107.075,133.899],[128.17,133.9],[128.777,133.887],[129.928,133.789],[130.815,133.623],[131.685,133.378],[132.529,133.058],[133.342,132.664],[134.116,132.2],[134.847,131.669],[135.528,131.075],[136.153,130.424],[136.719,129.72],[137.22,128.968],[137.652,128.176],[138.013,127.348],[138.299,126.491],[138.508,125.613],[138.639,124.719],[138.69,123.817],[138.7,111.63],[138.687,111.023],[138.592,109.893],[138.427,109.005],[138.184,108.135],[137.866,107.29],[137.473,106.477],[137.011,105.701],[136.481,104.97],[135.889,104.288],[135.239,103.661],[134.536,103.094],[133.785,102.592],[132.993,102.157],[132.166,101.795],[131.31,101.507],[130.432,101.296],[129.539,101.164],[127.793,101.1],[106.83,101.1]]
M140 S50
M105
M190 S50
M104 S200
M105
M109 S200
M82 ;absolute extrusion mode
; Ender 3 Custom Start G-code
G92 E0 ; Reset Extruder
G28 ; Home all axes
G1 Z2.0 F3000 ; Move Z Axis up little to prevent scratching of Heat Bed
G1 X0.1 Y20 Z0.3 F5000.0 ; Move to start position
G1 X0.1 Y200.0 Z0.3 F1500.0 E15 ; Draw the first line
G1 X0.4 Y200.0 Z0.3 F5000.0 ; Move to side a little
G1 X0.4 Y20 Z0.3 F1500.0 E30 ; Draw the second line
G92 E0 ; Reset Extruder
G1 Z2.0 F3000 ; Move Z Axis up little to prevent scratching of Heat Bed
G1 X5 Y20 Z0.3 F5000.0 ; Move over to prevent blob squish
G92 E0
G92 E0
G1 F2700 E-0.75
;LAYER_COUNT:57
SET_PRINT_STATS_INFO TOTAL_LAYER=57
TIMELAPSE_TAKE_FRAME
;LAYER:0
SET_PRINT_STATS_INFO CURRENT_LAYER=1
M107
G0 F6000 X98.956 Y103.313 Z0.2
;TYPE:SKIRT
G1 F2700 E0
G1 F1200 X99.692 Y102.676 E0.03237
G1 X100.424 Y102.146 E0.06243
G1 X101.321 Y101.611 E0.09717
G1 X102.199 Y101.19 E0.12956
G1 X103.112 Y100.848 E0.16198
G1 X104.049 Y100.589 E0.19432
G1 X105.016 Y100.411 E0.22702
G1 X106.155 Y100.315 E0.26504
G1 X106.812 Y100.3 E0.2869
G1 X127.804 Y100.3 E0.98509
G1 X128.684 Y100.313 E1.01436
G1 X129.656 Y100.372 E1.04675
G1 X130.619 Y100.518 E1.07915
G1 X131.566 Y100.749 E1.11157
G1 X132.454 Y101.049 E1.14274
G1 X133.346 Y101.439 E1.17512
G1 X134.229 Y101.926 E1.20866
G1 X134.98 Y102.428 E1.23871
G1 X135.795 Y103.086 E1.27355
G1 X136.493 Y103.764 E1.30591
G1 X137.129 Y104.501 E1.33829
G1 X137.699 Y105.291 E1.37069
G1 X138.161 Y106.067 E1.40073
G1 X138.615 Y107.009 E1.43551
G1 X138.944 Y107.887 E1.46669
G1 X139.213 Y108.859 E1.50024
G1 X139.39 Y109.825 E1.5329
G1 X139.485 Y110.955 E1.57062
G1 X139.5 Y111.63 E1.59307
G1 X139.499 Y123.1 E1.97457
G1 X139.488 Y123.863 E1.99995
G1 X139.431 Y124.836 E2.03237
G1 X139.286 Y125.799 E2.06476
G1 X139.057 Y126.745 E2.09713
G1 X138.746 Y127.669 E2.12956
G1 X138.354 Y128.56 E2.16193
G1 X137.886 Y129.412 E2.19426
G1 X137.364 Y130.193 E2.22551
G1 X136.731 Y130.978 E2.25905
G1 X136.106 Y131.629 E2.28906
G1 X135.317 Y132.317 E2.32388
G1 X134.557 Y132.867 E2.35508
G1 X133.69 Y133.384 E2.38866
G1 X132.812 Y133.806 E2.42106
G1 X131.901 Y134.148 E2.45342
G1 X130.962 Y134.409 E2.48584
G1 X129.996 Y134.587 E2.51851
G1 X128.845 Y134.685 E2.55693
G1 X128.17 Y134.7 E2.57939
G1 X107.064 Y134.699 E3.28137
G1 X106.331 Y134.688 E3.30576
G1 X105.359 Y134.631 E3.33814
G1 X104.396 Y134.485 E3.37054
G1 X103.45 Y134.256 E3.40291
G1 X102.526 Y133.944 E3.43535
G1 X101.636 Y133.552 E3.46769
G1 X100.813 Y133.101 E3.49891
G1 X99.974 Y132.54 E3.53247
G1 X99.27 Y131.974 E3.56252
G1 X98.517 Y131.249 E3.59729
G1 X97.88 Y130.513 E3.62966
G1 X97.35 Y129.782 E3.65969
G1 X96.814 Y128.885 E3.69445
G1 X96.392 Y128.007 E3.72685
G1 X96.05 Y127.095 E3.75924
G1 X95.79 Y126.157 E3.79162
G1 X95.612 Y125.188 E3.82438
G1 X95.514 Y124.009 E3.86373
G1 X95.5 Y123.358 E3.88539
G1 X95.501 Y111.825 E4.26898
G1 X95.512 Y111.125 E4.29227
G1 X95.57 Y110.152 E4.32468
G1 X95.716 Y109.189 E4.35708
G1 X95.946 Y108.243 E4.38946
G1 X96.259 Y107.32 E4.42188
G1 X96.651 Y106.43 E4.45422
G1 X97.121 Y105.577 E4.48662
G1 X97.664 Y104.769 E4.51899
G1 X98.231 Y104.065 E4.54906
G1 X98.956 Y103.313 E4.5838
G0 F6000 X99.218 Y103.615
G1 F1200 X99.927 Y103 E4.61502
G1 X100.659 Y102.47 E4.64508
G1 X101.495 Y101.971 E4.67746
G1 X102.34 Y101.564 E4.70865
G1 X103.219 Y101.233 E4.73989
G1 X104.122 Y100.982 E4.77107
G1 X105.05 Y100.81 E4.80246
G1 X106.189 Y100.714 E4.84048
G1 X106.821 Y100.7 E4.8615
G1 X127.798 Y100.7 E5.5592
G1 X128.66 Y100.712 E5.58787
G1 X129.597 Y100.768 E5.61909
G1 X130.525 Y100.907 E5.6503
G1 X131.438 Y101.128 E5.68155
G1 X132.294 Y101.416 E5.71158
G1 X133.186 Y101.806 E5.74396
G1 X134.007 Y102.259 E5.77515
G1 X134.758 Y102.761 E5.8052
G1 X135.517 Y103.373 E5.83762
G1 X136.191 Y104.026 E5.86884
G1 X136.805 Y104.735 E5.90003
G1 X137.355 Y105.496 E5.93126
G1 X137.817 Y106.272 E5.9613
G1 X138.24 Y107.149 E5.99368
G1 X138.569 Y108.027 E6.02487
G1 X138.82 Y108.932 E6.05611
G1 X138.991 Y109.859 E6.08746
G1 X139.086 Y110.989 E6.12518
G1 X139.1 Y111.63 E6.1465
G1 X139.099 Y123.095 E6.52783
G1 X139.089 Y123.84 E6.55261
G1 X139.035 Y124.777 E6.58383
G1 X138.897 Y125.706 E6.61506
G1 X138.678 Y126.618 E6.64626
G1 X138.38 Y127.508 E6.67748
G1 X138.003 Y128.368 E6.70871
G1 X137.553 Y129.19 E6.73988
G1 X137.031 Y129.971 E6.77112
G1 X136.442 Y130.701 E6.80232
G1 X135.817 Y131.352 E6.83233
G1 X135.082 Y131.993 E6.86477
G1 X134.322 Y132.543 E6.89597
G1 X133.516 Y133.024 E6.92719
G1 X132.671 Y133.432 E6.9584
G1 X131.793 Y133.763 E6.98961
G1 X130.889 Y134.016 E7.02083
G1 X129.962 Y134.188 E7.05219
G1 X128.811 Y134.286 E7.09061
G1 X128.17 Y134.3 E7.11194
G1 X107.07 Y134.299 E7.81372
G1 X106.354 Y134.289 E7.83754
G1 X105.418 Y134.235 E7.86872
G1 X104.489 Y134.096 E7.89997
G1 X103.577 Y133.877 E7.93116
G1 X102.687 Y133.578 E7.96239
G1 X101.828 Y133.201 E7.99359
G1 X101.005 Y132.75 E8.0248
G1 X100.225 Y132.228 E8.05602
G1 X99.521 Y131.662 E8.08606
G1 X98.819 Y130.987 E8.11846
G1 X98.204 Y130.278 E8.14967
G1 X97.674 Y129.547 E8.1797
G1 X97.174 Y128.711 E8.2121
G1 X96.766 Y127.866 E8.24331
G1 X96.435 Y126.988 E8.27452
G1 X96.183 Y126.084 E8.30573
G1 X96.011 Y125.155 E8.33716
G1 X95.913 Y123.976 E8.37651
G1 X95.9 Y123.358 E8.39707
G1 X95.901 Y111.831 E8.78046
G1 X95.911 Y111.148 E8.80318
G1 X95.966 Y110.211 E8.83439
G1 X96.105 Y109.283 E8.8656
G1 X96.325 Y108.371 E8.89681
G1 X96.625 Y107.481 E8.92805
G1 X97.002 Y106.622 E8.95925
G1 X97.453 Y105.8 E8.99043
G1 X97.976 Y105.02 E9.02167
G1 X98.543 Y104.316 E9.05173
G1 X99.218 Y103.615 E9.0841
G0 F6000 X99.481 Y103.917
G1 F1200 X100.162 Y103.324 E9.11413
G1 X100.894 Y102.794 E9.14419
G1 X101.669 Y102.331 E9.17422
G1 X102.482 Y101.938 E9.20425
G1 X103.327 Y101.618 E9.2343
G1 X104.196 Y101.375 E9.26431
G1 X105.084 Y101.209 E9.29436
G1 X106.223 Y101.113 E9.33238
G1 X106.83 Y101.1 E9.35257
G1 X127.793 Y101.1 E10.0498
G1 X128.637 Y101.111 E10.07788
G1 X129.539 Y101.164 E10.10793
G1 X130.432 Y101.296 E10.13795
G1 X131.31 Y101.507 E10.16799
G1 X132.166 Y101.795 E10.19803
G1 X132.993 Y102.157 E10.22805
G1 X133.785 Y102.592 E10.25811
G1 X134.536 Y103.094 E10.28815
G1 X135.239 Y103.661 E10.31819
G1 X135.889 Y104.288 E10.34823
G1 X136.481 Y104.97 E10.37827
G1 X137.011 Y105.701 E10.4083
G1 X137.473 Y106.477 E10.43834
G1 X137.866 Y107.29 E10.46837
G1 X138.184 Y108.135 E10.4984
G1 X138.427 Y109.005 E10.52844
G1 X138.592 Y109.893 E10.55848
G1 X138.687 Y111.023 E10.5962
G1 X138.7 Y111.63 E10.61639
G1 X138.699 Y123.09 E10.99755
G1 X138.69 Y123.817 E11.02174
G1 X138.639 Y124.719 E11.05178
G1 X138.508 Y125.613 E11.08184
G1 X138.299 Y126.491 E11.11186
G1 X138.013 Y127.348 E11.1419
G1 X137.652 Y128.176 E11.17195
G1 X137.22 Y128.968 E11.20195
G1 X136.719 Y129.72 E11.23201
G1 X136.153 Y130.424 E11.26205
G1 X135.528 Y131.075 E11.29207
G1 X134.847 Y131.669 E11.32212
G1 X134.116 Y132.2 E11.35217
G1 X133.342 Y132.664 E11.38219
G1 X132.529 Y133.058 E11.41224
G1 X131.685 Y133.378 E11.44226
G1 X130.815 Y133.623 E11.47232
G1 X129.928 Y133.789 E11.50233
G1 X128.777 Y133.887 E11.54076
G1 X128.17 Y133.9 E11.56095
G1 X107.075 Y133.899 E12.26257
G1 X106.377 Y133.89 E12.28579
G1 X105.476 Y133.839 E12.3158
G1 X104.582 Y133.707 E12.34586
G1 X103.704 Y133.498 E12.37588
G1 X102.847 Y133.211 E12.40594
G1 X102.02 Y132.85 E12.43595
G1 X101.227 Y132.417 E12.466
G1 X100.476 Y131.916 E12.49603
G1 X99.772 Y131.35 E12.52607
G1 X99.121 Y130.724 E12.55611
G1 X98.528 Y130.043 E12.58615
G1 X97.998 Y129.312 E12.61618
G1 X97.534 Y128.537 E12.64622
G1 X97.14 Y127.724 E12.67627
G1 X96.82 Y126.88 E12.70629
G1 X96.576 Y126.01 E12.73634
G1 X96.41 Y125.122 E12.76639
G1 X96.313 Y123.967 E12.80494
G1 X96.3 Y123.358 E12.8252
G1 X96.301 Y111.836 E13.20842
G1 X96.31 Y111.171 E13.23054
G1 X96.362 Y110.269 E13.2606
G1 X96.494 Y109.376 E13.29062
G1 X96.704 Y108.498 E13.32065
G1 X96.991 Y107.641 E13.35071
G1 X97.353 Y106.814 E13.38073
G1 X97.786 Y106.022 E13.41075
G1 X98.288 Y105.271 E13.4408
G1 X98.855 Y104.567 E13.47086
G1 X99.481 Y103.917 E13.50088
G1 F2700 E12.75088
;MESH:MotorHolder.stl
EXCLUDE_OBJECT_START NAME=MotorHolder_stl
G0 F6000 X115.792 Y118.787
G0 X117.233 Y121.737
;TYPE:WALL-INNER
G1 F2700 E13.50088
G1 F1050 X116.727 Y121.589 E13.51841
G1 X116.282 Y121.301 E13.53604
G1 X115.938 Y120.904 E13.55351
G1 X115.718 Y120.425 E13.57105
G1 X115.643 Y119.899 E13.58872
G1 X115.726 Y119.371 E13.60649
G1 X115.945 Y118.887 E13.62416
G1 X116.286 Y118.503 E13.64124
G1 X116.726 Y118.21 E13.65883
G1 X117.247 Y118.063 E13.67683
G1 X117.766 Y118.063 E13.69409
G1 X118.276 Y118.211 E13.71176
G1 X118.714 Y118.503 E13.72926
G1 X119.055 Y118.887 E13.74635
G1 X119.274 Y119.371 E13.76401
G1 X119.357 Y119.899 E13.78179
G1 X119.282 Y120.425 E13.79946
G1 X119.062 Y120.903 E13.81697
G1 X118.718 Y121.301 E13.83446
G1 X118.271 Y121.59 E13.85217
G1 X117.753 Y121.737 E13.87007
G1 X117.233 Y121.737 E13.88737
G1 F2700 E13.13737
G0 F6000 X117.205 Y121.833
G0 X118.834 Y121.442
G0 X118.834 Y122.9
G0 X127.9 Y123.1
G1 F2700 E13.88737
G1 F1050 X127.9 Y111.9 E14.25988
G1 X107.1 Y111.9 E14.95169
G1 X107.1 Y123.1 E15.32421
G1 X127.9 Y123.1 E16.01602
G0 F6000 X128.3 Y123.5
;TYPE:WALL-OUTER
G1 F1050 X128.3 Y111.5 E16.41514
G1 X106.7 Y111.5 E17.13356
G1 X106.7 Y123.5 E17.53268
G1 X128.3 Y123.5 E18.2511
G1 F2700 E17.5011
G0 F6000 X128.03 Y123.23
G0 X117.15 Y122.9
G0 X117.206 Y121.918
G0 X117.291 Y121.337
G1 F2700 E18.2511
G1 F1050 X116.895 Y121.222 E18.26482
G1 X116.55 Y120.999 E18.27848
G1 X116.278 Y120.684 E18.29232
G1 X116.106 Y120.309 E18.30604
G1 X116.047 Y119.903 E18.31969
G1 X116.109 Y119.487 E18.33368
G1 X116.273 Y119.127 E18.34683
G1 X116.55 Y118.804 E18.36099
G1 X116.896 Y118.578 E18.37473
G1 X117.288 Y118.465 E18.3883
G1 X117.708 Y118.463 E18.40227
G1 X118.104 Y118.578 E18.41599
G1 X118.451 Y118.801 E18.4297
G1 X118.727 Y119.127 E18.44391
G1 X118.891 Y119.487 E18.45707
G1 X118.953 Y119.903 E18.47106
G1 X118.894 Y120.309 E18.4847
G1 X118.722 Y120.684 E18.49843
G1 X118.45 Y120.999 E18.51227
G1 X118.105 Y121.222 E18.52593
G1 X117.712 Y121.335 E18.53953
G1 X117.291 Y121.337 E18.55353
G1 F2700 E17.80353
G0 F6000 X117.15 Y121.817
G0 X118.834 Y121.442
G0 X118.834 Y122.9
G0 X127.54 Y122.74
;TYPE:SKIN
G1 F2700 E18.55353
G1 F1050 X118.501 Y122.74 E18.85417
G1 F907.1 X117.86 Y122.678 E18.87897
G1 F794 X117.059 Y122.674 E18.9142
G1 F901.3 X116.494 Y122.739 E18.93624
G1 F1050 X107.461 Y122.739 E19.23668
G1 X107.46 Y112.26 E19.58521
G1 X127.54 Y112.26 E20.25307
G1 X127.54 Y122.74 E20.60164
G1 F2700 E19.85164
G0 F6000 X127.8 Y122.74
G0 X117.225 Y122.9
G0 X117.225 Y121.917
G0 X117.133 Y122.153
G1 F2700 E20.60164
G1 F794 X117.815 Y122.157 E20.63164
G1 F907.1 X118.444 Y121.907 E20.6577
G1 F1050 X118.958 Y121.577 E20.67801
G1 X119.368 Y121.103 E20.69886
G1 X119.63 Y120.53 E20.71981
G1 X119.721 Y119.9 E20.74098
G1 X119.633 Y119.296 E20.76128
G1 X119.368 Y118.704 E20.78286
G1 X118.931 Y118.205 E20.80492
G1 X118.418 Y117.876 E20.82519
G1 X117.82 Y117.703 E20.84589
G1 X117.195 Y117.705 E20.86668
G1 X116.572 Y117.879 E20.8882
G1 X116.034 Y118.248 E20.90989
G1 X115.633 Y118.704 E20.93009
G1 X115.37 Y119.266 E20.95073
G1 X115.279 Y119.901 E20.97206
G1 X115.37 Y120.53 E20.9932
G1 X115.631 Y121.101 E21.01408
G1 X116.041 Y121.576 E21.03495
G1 X116.556 Y121.908 E21.05533
G1 F901.3 X117.133 Y122.153 E21.07962
G1 F2700 E20.32962
G0 F6000 X117.225 Y121.839
G0 X116.166 Y121.442
G0 X116.166 Y122.9
G0 X107.83 Y122.538
G1 F2700 E21.07962
G1 F1050 X107.659 Y122.367 E21.08767
G0 F6000 X107.659 Y121.801
G1 F1050 X108.395 Y122.538 E21.12231
G0 F6000 X108.961 Y122.538
G1 F1050 X107.659 Y121.236 E21.18355
G0 F6000 X107.659 Y120.67
G1 F1050 X109.527 Y122.538 E21.27142
G0 F6000 X110.092 Y122.538
G1 F1050 X107.659 Y120.104 E21.38588
G0 F6000 X107.659 Y119.539
G1 F1050 X110.658 Y122.538 E21.52694
G0 F6000 X111.224 Y122.538
G1 F1050 X107.659 Y118.973 E21.69463
G0 F6000 X107.659 Y118.407
G1 F1050 X111.79 Y122.538 E21.88894
G0 F6000 X112.355 Y122.538
G1 F1050 X107.659 Y117.842 E22.10983
G0 F6000 X107.659 Y117.276
G1 F1050 X112.921 Y122.538 E22.35733
G0 F6000 X113.487 Y122.538
G1 F1050 X107.659 Y116.71 E22.63147
G0 F6000 X107.659 Y116.145
G1 F1050 X114.052 Y122.538 E22.93217
G0 F6000 X114.618 Y122.538
G1 F1050 X107.659 Y115.579 E23.2595
G0 F6000 X107.659 Y115.013
G1 F1050 X115.184 Y122.538 E23.61346
G0 F6000 X115.749 Y122.538
G1 F1050 X107.659 Y114.448 E23.99399
G0 F6000 X107.659 Y113.882
G1 F1050 X116.315 Y122.538 E24.40114
G0 F6000 X116.807 Y122.464
G1 F1050 X116.367 Y122.024 E24.42183
G0 F6000 X116.618 Y121.638
G0 X115.803 Y120.85
G0 X115.383 Y121.04
G1 F1050 X107.659 Y113.316 E24.78515
G0 F6000 X107.659 Y112.751
G1 F1050 X115.121 Y120.213 E25.13614
G0 F6000 X115.116 Y119.641
G1 F1050 X107.934 Y112.46 E25.47393
G0 F6000 X108.5 Y112.46
G1 F1050 X115.202 Y119.162 E25.78917
G0 F6000 X115.38 Y118.774
G1 F1050 X109.066 Y112.46 E26.08616
G0 F6000 X109.631 Y112.46
G1 F1050 X115.602 Y118.43 E26.367
G0 F6000 X115.869 Y118.132
G1 F1050 X110.197 Y112.46 E26.63379
G0 F6000 X110.763 Y112.46
G1 F1050 X116.193 Y117.89 E26.8892
G0 F6000 X116.545 Y117.676
G1 F1050 X111.329 Y112.46 E27.13455
G0 F6000 X111.894 Y112.46
G1 F1050 X116.988 Y117.554 E27.37415
G0 F6000 X117.504 Y117.504
G1 F1050 X112.46 Y112.46 E27.61141
G0 F6000 X113.026 Y112.46
G1 F1050 X118.158 Y117.592 E27.8528
G0 F6000 X118.03 Y118.035
G0 X119.381 Y119.37
G0 X119.829 Y119.263
G1 F1050 X123.105 Y122.539 E28.00689
G0 F6000 X123.67 Y122.539
G1 F1050 X113.591 Y112.46 E28.48098
G0 F6000 X114.157 Y112.46
G1 F1050 X124.236 Y122.539 E28.95506
G0 F6000 X124.802 Y122.539
G1 F1050 X114.723 Y112.46 E29.42915
G0 F6000 X115.288 Y112.46
G1 F1050 X125.367 Y122.539 E29.90324
G0 F6000 X125.933 Y122.539
G1 F1050 X115.854 Y112.46 E30.37732
G0 F6000 X116.42 Y112.46
G1 F1050 X126.499 Y122.539 E30.85141
G0 F6000 X127.064 Y122.539
G1 F1050 X116.985 Y112.46 E31.32549
G0 F6000 X117.551 Y112.46
G1 F1050 X127.339 Y122.248 E31.78589
G0 F6000 X127.339 Y121.682
G1 F1050 X118.117 Y112.46 E32.21966
G0 F6000 X118.682 Y112.46
G1 F1050 X127.339 Y121.116 E32.62684
G0 F6000 X127.339 Y120.551
G1 F1050 X119.248 Y112.46 E33.00741
G0 F6000 X119.814 Y112.46
G1 F1050 X127.339 Y119.985 E33.36137
G0 F6000 X127.339 Y119.419
G1 F1050 X120.379 Y112.46 E33.68872
G0 F6000 X120.945 Y112.46
G1 F1050 X127.339 Y118.854 E33.98947
G0 F6000 X127.339 Y118.288
G1 F1050 X121.511 Y112.46 E34.26361
G0 F6000 X122.077 Y112.46
