;FLAVOR:Marlin
;TIME:789
;Filament used: 0.388512m
;Layer height: 0.2
;MINX:82.4
;MINY:89.729
;MINZ:0.2
;MAXX:152.596
;MAXY:145.274
;MAXZ:6.4
;POSTPROCESSED
;Generated with Cura_SteamEngine 5.4.0
;
;

;
;



; Pre-Processed for Cancel-Object support by preprocess_cancellation v(0, 3, 'a1')
; 1 known objects
EXCLUDE_OBJECT_DEFINE NAME=SiSpeedM1W_Holder_Rev2_stl CENTER=117.498,117.501 POLYGON=[[94.811,90.529],[93.731,90.567],[92.836,90.686],[91.955,90.884],[91.094,91.16],[89.569,91.787],[88.779,92.225],[88.032,92.731],[86.918,93.67],[86.149,94.432],[85.572,95.128],[85.059,95.871],[84.614,96.657],[83.923,98.144],[83.639,99.001],[83.432,99.88],[83.249,101.321],[83.2,102.424],[83.249,103.325],[83.378,104.219],[83.585,105.098],[84.079,106.64],[84.45,107.463],[84.893,108.25],[85.734,109.433],[86.455,110.288],[87.103,110.917],[87.804,111.487],[133.481,142.375],[134.371,142.956],[135.171,143.375],[136.006,143.721],[137.396,144.133],[138.484,144.36],[139.382,144.457],[140.285,144.474],[141.186,144.41],[142.819,144.163],[143.69,143.926],[144.537,143.612],[145.843,142.964],[146.756,142.417],[147.483,141.88],[148.158,141.281],[148.779,140.624],[149.136,140.211],[149.825,139.319],[150.303,138.553],[150.711,137.747],[151.231,136.383],[151.535,135.337],[151.702,134.45],[151.789,133.551],[151.793,101.87],[151.714,100.638],[151.562,99.748],[151.332,98.875],[150.803,97.483],[150.306,96.446],[149.836,95.675],[149.3,94.949],[148.316,93.874],[147.367,93.009],[146.638,92.476],[145.865,92.009],[145.054,91.613],[144.059,91.203],[143.097,90.889],[142.216,90.691],[141.321,90.571],[140.419,90.531],[94.811,90.529]]
M140 S50
M105
M190 S50
M104 S200
M105
M109 S200
M82 ;absolute extrusion mode
; Ender 3 Custom Start G-code
G92 E0 ; Reset Extruder
G28 ; Home all axes
G1 Z2.0 F3000 ; Move Z Axis up little to prevent scratching of Heat Bed
G1 X0.1 Y20 Z0.3 F5000.0 ; Move to start position
G1 X0.1 Y200.0 Z0.3 F1500.0 E15 ; Draw the first line
G1 X0.4 Y200.0 Z0.3 F5000.0 ; Move to side a little
G1 X0.4 Y20 Z0.3 F1500.0 E30 ; Draw the second line
G92 E0 ; Reset Extruder
G1 Z2.0 F3000 ; Move Z Axis up little to prevent scratching of Heat Bed
G1 X5 Y20 Z0.3 F5000.0 ; Move over to prevent blob squish
G92 E0
G92 E0
G1 F2700 E-0.75
;LAYER_COUNT:32
SET_PRINT_STATS_INFO TOTAL_LAYER=32
TIMELAPSE_TAKE_FRAME
;LAYER:0
SET_PRINT_STATS_INFO CURRENT_LAYER=1
M107
G0 F6000 X86.386 Y93.072 Z0.2
;TYPE:SKIRT
G1 F2700 E0
G1 F1200 X86.826 Y92.681 E0.01958
G1 X87.556 Y92.089 E0.05084
G1 X88.391 Y91.525 E0.08435
G1 X89.181 Y91.087 E0.1144
G1 X90.302 Y90.6 E0.15505
G1 X90.851 Y90.398 E0.1745
G1 X91.78 Y90.104 E0.20691
G1 X92.73 Y89.892 E0.23929
G1 X93.625 Y89.773 E0.26932
G1 X94.826 Y89.729 E0.30929
G1 X95.428 Y89.741 E0.32932
G1 X96.404 Y89.805 E0.36185
G1 X97.443 Y89.97 E0.39684
G1 X100.046 Y90.518 E0.48531
G1 X102.496 Y90.971 E0.56818
G1 X105.049 Y91.37 E0.65412
G1 X107.514 Y91.684 E0.73677
G1 X110.037 Y91.933 E0.8211
G1 X112.533 Y92.108 E0.90432
G1 X115.074 Y92.215 E0.98891
G1 X117.564 Y92.249 E1.07173
G1 X120.073 Y92.211 E1.15519
G1 X122.626 Y92.102 E1.24018
G1 X125.106 Y91.924 E1.32288
G1 X127.61 Y91.674 E1.40658
G1 X130.136 Y91.349 E1.49128
G1 X132.642 Y90.955 E1.57566
G1 X135.076 Y90.502 E1.658
G1 X137.591 Y89.965 E1.74354
G1 X138.482 Y89.816 E1.77358
G1 X139.849 Y89.731 E1.81914
G1 X140.455 Y89.731 E1.83929
G1 X141.357 Y89.771 E1.86932
G1 X142.392 Y89.911 E1.90406
G1 X143.345 Y90.129 E1.93658
G1 X144.331 Y90.451 E1.97108
G1 X145.008 Y90.72 E1.99531
G1 X145.406 Y90.895 E2.00977
G1 X146.279 Y91.325 E2.04213
G1 X147.111 Y91.831 E2.07452
G1 X147.905 Y92.417 E2.10734
G1 X148.854 Y93.282 E2.15005
G1 X149.301 Y93.742 E2.17139
G1 X149.944 Y94.474 E2.20379
G1 X150.52 Y95.26 E2.2362
G1 X151.028 Y96.1 E2.26885
G1 X151.543 Y97.179 E2.30862
G1 X151.778 Y97.755 E2.32931
G1 X152.106 Y98.671 E2.36167
G1 X152.336 Y99.544 E2.3917
G1 X152.512 Y100.587 E2.42688
G1 X152.593 Y101.868 E2.46957
G1 X152.595 Y102.469 E2.48956
G1 X152.556 Y103.399 E2.52052
G1 X152.49 Y103.983 E2.54006
G1 X152.172 Y106.286 E2.61739
G1 X151.883 Y108.863 E2.70364
G1 X151.673 Y111.359 E2.78695
G1 X151.537 Y113.879 E2.87089
G1 X151.47 Y116.378 E2.95403
G1 X151.474 Y118.902 E3.03798
G1 X151.549 Y121.398 E3.12104
G1 X151.697 Y123.927 E3.2053
G1 X151.913 Y126.444 E3.28932
G1 X152.199 Y128.908 E3.37182
G1 X152.372 Y130.108 E3.41215
G1 X152.493 Y131.034 E3.44321
G1 X152.575 Y132.037 E3.47668
G1 X152.596 Y132.655 E3.49725
G1 X152.585 Y133.629 E3.52964
G1 X152.488 Y134.599 E3.56207
G1 X152.303 Y135.561 E3.59465
G1 X151.986 Y136.648 E3.63231
G1 X151.789 Y137.207 E3.65202
G1 X151.424 Y138.109 E3.68439
G1 X150.981 Y138.977 E3.7168
G1 X150.458 Y139.809 E3.74948
G1 X149.741 Y140.735 E3.78844
G1 X149.361 Y141.174 E3.80775
G1 X148.74 Y141.831 E3.83782
G1 X147.959 Y142.524 E3.87254
G1 X147.232 Y143.061 E3.9026
G1 X146.255 Y143.65 E3.94055
G1 X145.696 Y143.947 E3.9616
G1 X144.847 Y144.349 E3.99285
G1 X143.9 Y144.698 E4.02641
G1 X143.029 Y144.935 E4.05644
G1 X141.827 Y145.141 E4.097
G1 X141.242 Y145.208 E4.11658
G1 X140.269 Y145.274 E4.14902
G1 X139.295 Y145.253 E4.18142
G1 X138.32 Y145.144 E4.21405
G1 X137.211 Y144.912 E4.25174
G1 X136.626 Y144.755 E4.27188
G1 X135.7 Y144.461 E4.3042
G1 X134.865 Y144.115 E4.33426
G1 X133.933 Y143.626 E4.36926
G1 X133.009 Y143.021 E4.406
G1 X132.522 Y142.664 E4.42608
G1 X131.767 Y142.057 E4.4583
G1 X131.167 Y141.489 E4.48578
G1 X129.987 Y140.281 E4.54195
G1 X128.17 Y138.487 E4.62688
G1 X126.337 Y136.776 E4.71027
G1 X124.437 Y135.102 E4.7945
G1 X122.531 Y133.516 E4.87697
G1 X120.89 Y132.219 E4.94654
G1 X119.862 Y131.424 E4.98976
G1 X117.156 Y129.412 E5.10191
G1 X115.434 Y128.177 E5.17239
G1 X112.699 Y126.29 E5.28291
G1 X110.896 Y125.09 E5.35495
G1 X108.088 Y123.293 E5.46583
G1 X106.24 Y122.155 E5.53801
G1 X103.452 Y120.506 E5.64575
G1 X101.507 Y119.401 E5.72015
G1 X98.651 Y117.842 E5.82837
G1 X96.993 Y116.976 E5.89059
G1 X94.687 Y115.81 E5.97653
G1 X92.381 Y114.727 E6.06127
G1 X89.941 Y113.662 E6.14981
G1 X89.13 Y113.265 E6.17985
G1 X88.622 Y112.973 E6.19934
G1 X88.104 Y112.656 E6.21953
G1 X87.356 Y112.151 E6.24955
G1 X86.545 Y111.49 E6.28435
G1 X85.843 Y110.804 E6.317
G1 X85.108 Y109.932 E6.35493
G1 X84.754 Y109.462 E6.3745
G1 X84.195 Y108.642 E6.40751
G1 X83.72 Y107.791 E6.43992
G1 X83.321 Y106.898 E6.47245
G1 X82.972 Y105.87 E6.50856
G1 X82.807 Y105.281 E6.5289
G1 X82.586 Y104.332 E6.56131
G1 X82.451 Y103.368 E6.59369
G1 X82.4 Y102.388 E6.62633
G1 X82.449 Y101.285 E6.66305
G1 X82.511 Y100.659 E6.68397
G1 X82.647 Y99.73 E6.7152
G1 X82.88 Y98.748 E6.74877
G1 X83.191 Y97.82 E6.78132
G1 X83.632 Y96.824 E6.81755
G1 X83.918 Y96.262 E6.83852
G1 X84.401 Y95.416 E6.87093
G1 X84.956 Y94.617 E6.90328
G1 X85.559 Y93.892 E6.93465
G1 X86.386 Y93.072 E6.97338
G0 F6000 X86.652 Y93.371
G1 F1200 X87.078 Y92.992 E6.99235
G1 X87.808 Y92.4 E7.02361
G1 X88.585 Y91.875 E7.0548
G1 X89.375 Y91.437 E7.08484
G1 X90.441 Y90.975 E7.12348
G1 X90.972 Y90.779 E7.14231
G1 X91.867 Y90.494 E7.17355
G1 X92.783 Y90.289 E7.20477
G1 X93.678 Y90.17 E7.2348
G1 X94.818 Y90.129 E7.27274
G1 X95.402 Y90.14 E7.29217
G1 X96.341 Y90.2 E7.32346
G1 X97.38 Y90.365 E7.35845
G1 X99.973 Y90.911 E7.44659
G1 X102.434 Y91.366 E7.52983
G1 X104.998 Y91.767 E7.61614
G1 X107.463 Y92.081 E7.69879
G1 X110.006 Y92.332 E7.78378
G1 X112.516 Y92.508 E7.86747
G1 X115.057 Y92.615 E7.95206
G1 X117.565 Y92.649 E8.03548
G1 X120.09 Y92.611 E8.11947
G1 X122.643 Y92.502 E8.20446
G1 X125.139 Y92.323 E8.2877
G1 X127.661 Y92.071 E8.372
G1 X130.187 Y91.746 E8.4567
G1 X132.704 Y91.35 E8.54145
G1 X135.154 Y90.894 E8.62434
G1 X137.657 Y90.36 E8.70946
G1 X138.548 Y90.211 E8.73951
G1 X139.849 Y90.131 E8.78286
G1 X140.437 Y90.131 E8.80242
G1 X141.339 Y90.171 E8.83245
G1 X142.304 Y90.301 E8.86483
G1 X143.221 Y90.509 E8.89611
G1 X144.183 Y90.823 E8.92976
G1 X144.86 Y91.092 E8.95399
G1 X145.23 Y91.254 E8.96743
G1 X146.072 Y91.667 E8.99862
G1 X146.874 Y92.153 E9.02981
G1 X147.636 Y92.713 E9.06126
G1 X148.585 Y93.578 E9.10397
G1 X149.001 Y94.007 E9.12385
G1 X149.622 Y94.711 E9.15507
G1 X150.178 Y95.467 E9.18628
G1 X150.667 Y96.273 E9.21764
G1 X151.173 Y97.331 E9.25664
G1 X151.402 Y97.89 E9.27674
G1 X151.719 Y98.773 E9.30794
G1 X151.949 Y99.646 E9.33797
G1 X152.113 Y100.612 E9.37056
G1 X152.193 Y101.869 E9.41245
G1 X152.195 Y102.453 E9.43187
G1 X152.158 Y103.355 E9.4619
G1 X152.094 Y103.928 E9.48107
G1 X151.774 Y106.241 E9.55874
G1 X151.485 Y108.818 E9.64499
G1 X151.275 Y111.326 E9.72869
G1 X151.137 Y113.868 E9.81337
G1 X151.07 Y116.367 E9.89651
G1 X151.074 Y118.914 E9.98123
G1 X151.149 Y121.41 E10.06428
G1 X151.298 Y123.961 E10.14927
G1 X151.515 Y126.478 E10.2333
G1 X151.803 Y128.965 E10.31657
G1 X151.975 Y130.16 E10.35673
G1 X152.094 Y131.067 E10.38715
G1 X152.175 Y132.051 E10.41999
G1 X152.196 Y132.651 E10.43996
G1 X152.187 Y133.59 E10.47119
G1 X152.095 Y134.524 E10.50241
G1 X151.919 Y135.449 E10.53372
G1 X151.609 Y136.515 E10.57065
G1 X151.418 Y137.058 E10.58979
G1 X151.068 Y137.928 E10.62098
G1 X150.642 Y138.765 E10.65222
G1 X150.142 Y139.564 E10.68357
G1 X149.439 Y140.473 E10.72179
G1 X149.07 Y140.899 E10.74053
G1 X148.449 Y141.556 E10.7706
G1 X147.721 Y142.202 E10.80297
G1 X146.994 Y142.739 E10.83304
G1 X146.049 Y143.307 E10.86971
G1 X145.525 Y143.585 E10.88944
G1 X144.676 Y143.987 E10.92068
G1 X143.795 Y144.312 E10.95191
G1 X142.924 Y144.549 E10.98194
G1 X141.781 Y144.744 E11.0205
G1 X141.214 Y144.809 E11.03948
G1 X140.277 Y144.874 E11.07072
G1 X139.339 Y144.855 E11.10193
G1 X138.402 Y144.752 E11.13328
G1 X137.293 Y144.52 E11.17096
G1 X136.747 Y144.374 E11.18976
G1 X135.853 Y144.091 E11.22095
G1 X135.018 Y143.745 E11.25101
G1 X134.152 Y143.291 E11.28353
G1 X133.245 Y142.698 E11.31958
G1 X132.772 Y142.352 E11.33907
G1 X132.042 Y141.767 E11.37018
G1 X131.453 Y141.209 E11.39717
G1 X130.273 Y140.001 E11.45333
G1 X128.451 Y138.202 E11.5385
G1 X126.61 Y136.484 E11.62225
G1 X124.701 Y134.802 E11.70687
G1 X122.779 Y133.202 E11.79005
G1 X121.138 Y131.905 E11.85962
G1 X120.101 Y131.103 E11.90322
G1 X117.395 Y129.091 E12.01537
G1 X115.667 Y127.852 E12.0861
G1 X112.921 Y125.957 E12.19706
G1 X111.118 Y124.757 E12.2691
G1 X108.304 Y122.956 E12.38022
G1 X106.45 Y121.814 E12.45265
G1 X103.65 Y120.158 E12.56084
G1 X101.705 Y119.053 E12.63524
G1 X98.836 Y117.487 E12.74396
G1 X97.178 Y116.621 E12.80617
G1 X94.857 Y115.448 E12.89267
G1 X92.541 Y114.36 E12.97777
G1 X90.117 Y113.303 E13.06573
G1 X89.306 Y112.906 E13.09576
G1 X88.831 Y112.632 E13.114
G1 X88.328 Y112.324 E13.13362
G1 X87.58 Y111.819 E13.16363
G1 X86.824 Y111.204 E13.19605
G1 X86.149 Y110.546 E13.2274
G1 X85.428 Y109.691 E13.2646
G1 X85.074 Y109.221 E13.28417
G1 X84.544 Y108.446 E13.3154
G1 X84.085 Y107.627 E13.34662
G1 X83.7 Y106.769 E13.3779
G1 X83.351 Y105.741 E13.41401
G1 X83.196 Y105.19 E13.43305
G1 X82.982 Y104.276 E13.46427
G1 X82.85 Y103.347 E13.49548
G1 X82.8 Y102.406 E13.52682
G1 X82.849 Y101.303 E13.56354
G1 X82.907 Y100.717 E13.58313
G1 X83.043 Y99.788 E13.61436
G1 X83.259 Y98.875 E13.64556
G1 X83.557 Y97.982 E13.67687
G1 X83.998 Y96.986 E13.7131
G1 X84.266 Y96.46 E13.73274
G1 X84.73 Y95.644 E13.76396
G1 X85.264 Y94.873 E13.79515
G1 X85.867 Y94.148 E13.82652
G1 X86.652 Y93.371 E13.86325
G0 F6000 X86.918 Y93.67
G1 F1200 X87.331 Y93.302 E13.88165
G1 X88.032 Y92.731 E13.91172
G1 X88.779 Y92.225 E13.94173
G1 X89.569 Y91.787 E13.97177
G1 X90.58 Y91.35 E14.00841
G1 X91.094 Y91.16 E14.02663
G1 X91.955 Y90.884 E14.05671
G1 X92.836 Y90.686 E14.08674
G1 X93.731 Y90.567 E14.11677
G1 X94.811 Y90.529 E14.15271
G1 X95.377 Y90.539 E14.17154
G1 X96.279 Y90.595 E14.2016
G1 X97.298 Y90.756 E14.23591
G1 X99.9 Y91.304 E14.32435
G1 X102.372 Y91.761 E14.40796
G1 X104.947 Y92.164 E14.49465
G1 X107.412 Y92.478 E14.5773
G1 X109.975 Y92.731 E14.66296
G1 X112.499 Y92.908 E14.74712
G1 X115.04 Y93.015 E14.8317
G1 X117.566 Y93.049 E14.91573
G1 X120.107 Y93.011 E15.00025
G1 X122.66 Y92.902 E15.08524
G1 X125.172 Y92.722 E15.169
G1 X127.712 Y92.468 E15.25391
G1 X130.238 Y92.143 E15.33861
G1 X132.766 Y91.745 E15.42373
G1 X135.232 Y91.286 E15.50716
G1 X137.723 Y90.755 E15.59187
G1 X138.614 Y90.606 E15.62192
G1 X139.849 Y90.531 E15.66307
G1 X140.419 Y90.531 E15.68203
G1 X141.321 Y90.571 E15.71206
G1 X142.216 Y90.691 E15.74209
G1 X143.097 Y90.889 E15.77213
G1 X144.059 Y91.203 E15.80578
G1 X144.7 Y91.459 E15.82874
G1 X145.054 Y91.613 E15.84158
G1 X145.865 Y92.009 E15.8716
G1 X146.638 Y92.476 E15.90164
G1 X147.367 Y93.009 E15.93167
G1 X148.316 Y93.874 E15.97438
G1 X148.701 Y94.272 E15.9928
G1 X149.3 Y94.949 E16.02286
G1 X149.836 Y95.675 E16.05288
G1 X150.306 Y96.446 E16.08291
G1 X150.803 Y97.483 E16.12116
G1 X151.026 Y98.025 E16.14065
G1 X151.332 Y98.875 E16.1707
G1 X151.562 Y99.748 E16.20073
G1 X151.714 Y100.638 E16.23076
G1 X151.793 Y101.87 E16.27182
G1 X151.795 Y102.437 E16.29068
G1 X151.758 Y103.339 E16.3207
G1 X151.698 Y103.873 E16.33857
G1 X151.376 Y106.196 E16.41658
G1 X151.087 Y108.773 E16.50282
G1 X150.877 Y111.293 E16.58693
G1 X150.737 Y113.857 E16.67234
G1 X150.67 Y116.356 E16.75548
G1 X150.674 Y118.926 E16.84096
G1 X150.749 Y121.422 E16.92402
G1 X150.899 Y123.996 E17.00977
G1 X151.117 Y126.513 E17.0938
G1 X151.407 Y129.022 E17.17781
G1 X151.578 Y130.212 E17.21779
G1 X151.695 Y131.1 E17.24758
G1 X151.775 Y132.065 E17.27979
G1 X151.796 Y132.648 E17.29919
G1 X151.789 Y133.551 E17.32923
G1 X151.702 Y134.45 E17.35927
G1 X151.535 Y135.337 E17.38929
G1 X151.231 Y136.383 E17.42552
G1 X151.047 Y136.909 E17.44405
G1 X150.711 Y137.747 E17.47408
G1 X150.303 Y138.553 E17.50413
G1 X149.825 Y139.319 E17.53416
G1 X149.136 Y140.211 E17.57165
G1 X148.779 Y140.624 E17.5898
G1 X148.158 Y141.281 E17.61987
G1 X147.483 Y141.88 E17.64989
G1 X146.756 Y142.417 E17.67995
G1 X145.843 Y142.964 E17.71535
G1 X145.353 Y143.224 E17.7338
G1 X144.537 Y143.612 E17.76385
G1 X143.69 Y143.926 E17.7939
G1 X142.819 Y144.163 E17.82392
G1 X141.735 Y144.347 E17.86049
G1 X141.186 Y144.41 E17.87887
G1 X140.285 Y144.474 E17.90891
G1 X139.382 Y144.457 E17.93895
G1 X138.484 Y144.36 E17.96899
G1 X137.396 Y144.133 E18.00596
G1 X136.867 Y143.992 E18.02417
G1 X136.006 Y143.721 E18.05419
G1 X135.171 Y143.375 E18.08425
G1 X134.371 Y142.956 E18.11429
G1 X133.481 Y142.375 E18.14964
G1 X133.022 Y142.04 E18.16854
G1 X132.317 Y141.476 E18.19857
G1 X131.739 Y140.929 E18.22504
G1 X130.559 Y139.721 E18.2812
G1 X128.732 Y137.917 E18.3666
G1 X126.883 Y136.192 E18.4507
G1 X124.965 Y134.502 E18.53573
G1 X123.027 Y132.888 E18.61961
G1 X121.386 Y131.591 E18.68918
G1 X120.34 Y130.782 E18.73316
G1 X117.634 Y128.77 E18.84532
G1 X115.9 Y127.527 E18.91628
G1 X113.143 Y125.624 E19.0277
G1 X111.34 Y124.424 E19.09973
G1 X108.52 Y122.619 E19.2111
G1 X106.66 Y121.473 E19.28376
G1 X103.848 Y119.81 E19.39242
G1 X101.903 Y118.705 E19.46682
G1 X99.028 Y117.137 E19.57574
G1 X97.358 Y116.264 E19.63842
G1 X95.027 Y115.086 E19.72528
G1 X92.701 Y113.993 E19.81076
G1 X90.293 Y112.944 E19.89812
G1 X89.482 Y112.547 E19.92816
G1 X89.04 Y112.291 E19.94514
G1 X88.552 Y111.992 E19.96418
G1 X87.804 Y111.487 E19.9942
G1 X87.103 Y110.917 E20.02425
G1 X86.455 Y110.288 E20.05428
G1 X85.734 Y109.433 E20.09148
G1 X85.404 Y108.995 E20.10972
G1 X84.893 Y108.25 E20.13977
G1 X84.45 Y107.463 E20.16981
G1 X84.079 Y106.64 E20.19983
G1 X83.736 Y105.632 E20.23525
G1 X83.585 Y105.098 E20.2537
G1 X83.378 Y104.219 E20.28374
G1 X83.249 Y103.325 E20.31378
G1 X83.2 Y102.424 E20.34379
G1 X83.249 Y101.321 E20.38052
G1 X83.303 Y100.774 E20.3988
G1 X83.432 Y99.88 E20.42884
G1 X83.639 Y99.001 E20.45888
G1 X83.923 Y98.144 E20.4889
G1 X84.364 Y97.148 E20.52513
G1 X84.614 Y96.657 E20.54346
G1 X85.059 Y95.871 E20.5735
G1 X85.572 Y95.128 E20.60353
G1 X86.149 Y94.432 E20.6336
G1 X86.918 Y93.67 E20.66961
G1 F2700 E19.91961
;MESH:SiSpeedM1W_Holder_Rev2.stl
EXCLUDE_OBJECT_START NAME=SiSpeedM1W_Holder_Rev2_stl
G0 F6000 X108.686 Y108.52
G0 X136.47 Y128.65
;TYPE:WALL-INNER
G1 F2700 E20.66961
G1 F1200 X132.932 Y125.037 E20.8378
G1 X129.593 Y121.962 E20.98877
G1 X126.101 Y119.062 E21.13975
G1 X122.418 Y116.308 E21.2927
G1 X118.671 Y113.794 E21.44278
G1 X114.763 Y111.451 E21.59433
G1 X110.709 Y109.292 E21.7471
G1 X106.47 Y107.303 E21.90284
