;FLAVOR:Marlin
;TIME:806
;Filament used: 0.39386m
;Layer height: 0.2
;MINX:82.401
;MINY:89.725
;MINZ:0.2
;MAXX:152.596
;MAXY:145.272
;MAXZ:7.4
;POSTPROCESSED
;Generated with Cura_SteamEngine 5.4.0
;
;

;
;



; Pre-Processed for Cancel-Object support by preprocess_cancellation v(0, 3, 'a1')
; 1 known objects
EXCLUDE_OBJECT_DEFINE NAME=SiSpeedM1W_Holder_Rev3_stl CENTER=117.498,117.499 POLYGON=[[139.901,90.525],[139.0,90.574],[138.106,90.703],[136.693,91.061],[135.658,91.414],[134.836,91.788],[134.05,92.234],[88.43,123.088],[87.483,123.763],[86.804,124.359],[86.181,125.013],[85.29,126.17],[84.716,127.05],[84.298,127.851],[83.952,128.685],[83.541,130.077],[83.314,131.162],[83.218,132.06],[83.201,132.963],[83.328,134.412],[83.512,135.494],[83.749,136.365],[84.063,137.212],[84.711,138.518],[85.258,139.431],[85.795,140.158],[86.394,140.833],[87.464,141.811],[88.356,142.5],[89.122,142.978],[89.928,143.386],[91.292,143.906],[92.32,144.206],[93.208,144.374],[94.107,144.463],[95.01,144.472],[140.462,144.468],[141.736,144.384],[142.626,144.228],[143.498,143.995],[144.346,143.685],[144.877,143.464],[145.878,142.982],[146.649,142.512],[147.375,141.975],[148.051,141.377],[148.829,140.605],[149.414,139.917],[149.936,139.18],[150.391,138.4],[151.006,137.028],[151.425,135.815],[151.626,134.935],[151.749,134.04],[151.794,132.555],[151.796,102.136],[151.758,101.056],[151.639,100.161],[151.441,99.28],[150.975,97.905],[150.537,96.893],[150.099,96.103],[149.593,95.355],[148.653,94.241],[147.886,93.467],[147.19,92.891],[146.446,92.379],[145.17,91.686],[144.181,91.248],[143.324,90.964],[142.445,90.757],[141.551,90.628],[139.901,90.525]]
M140 S50
M105
M190 S50
M104 S200
M105
M109 S200
M82 ;absolute extrusion mode
; Ender 3 Custom Start G-code
G92 E0 ; Reset Extruder
G28 ; Home all axes
G1 Z2.0 F3000 ; Move Z Axis up little to prevent scratching of Heat Bed
G1 X0.1 Y20 Z0.3 F5000.0 ; Move to start position
G1 X0.1 Y200.0 Z0.3 F1500.0 E15 ; Draw the first line
G1 X0.4 Y200.0 Z0.3 F5000.0 ; Move to side a little
G1 X0.4 Y20 Z0.3 F1500.0 E30 ; Draw the second line
G92 E0 ; Reset Extruder
G1 Z2.0 F3000 ; Move Z Axis up little to prevent scratching of Heat Bed
G1 X5 Y20 Z0.3 F5000.0 ; Move over to prevent blob squish
G92 E0
G92 E0
G1 F2700 E-0.75
;LAYER_COUNT:37
SET_PRINT_STATS_INFO TOTAL_LAYER=37
TIMELAPSE_TAKE_FRAME
;LAYER:0
SET_PRINT_STATS_INFO CURRENT_LAYER=1
M107
G0 F6000 X87.965 Y122.437 Z0.2
;TYPE:SKIRT
G1 F2700 E0
G1 F1200 X88.515 Y122.089 E0.02165
G1 X89.3 Y121.642 E0.05169
G1 X90.023 Y121.301 E0.07828
G1 X90.617 Y121.047 E0.09977
G1 X93.005 Y119.985 E0.18669
G1 X95.287 Y118.893 E0.27083
G1 X97.053 Y117.994 E0.33674
G1 X98.612 Y117.178 E0.39527
G1 X101.545 Y115.578 E0.50639
G1 X103.417 Y114.514 E0.57801
G1 X106.257 Y112.834 E0.68776
G1 X108.1 Y111.699 E0.75975
G1 X110.935 Y109.885 E0.87169
G1 X112.712 Y108.703 E0.94268
G1 X115.407 Y106.843 E1.05159
G1 X117.175 Y105.574 E1.12397
G1 X119.85 Y103.584 E1.23486
G1 X120.896 Y102.777 E1.2788
G1 X122.879 Y101.201 E1.36305
G1 X124.867 Y99.527 E1.44949
G1 X126.729 Y97.866 E1.53248
G1 X128.523 Y96.174 E1.6145
G1 X130.421 Y94.279 E1.70371
G1 X131.17 Y93.512 E1.73936
G1 X131.851 Y92.873 E1.77042
G1 X132.377 Y92.447 E1.79294
G1 X132.838 Y92.098 E1.81217
G1 X133.626 Y91.556 E1.84398
G1 X134.505 Y91.06 E1.87755
G1 X135.4 Y90.656 E1.91021
G1 X136.455 Y90.297 E1.94727
G1 X137.044 Y90.132 E1.96762
G1 X137.993 Y89.911 E2.00003
G1 X138.957 Y89.776 E2.0324
G1 X139.937 Y89.725 E2.06504
G1 X141.04 Y89.774 E2.10176
G1 X141.666 Y89.836 E2.12268
G1 X142.595 Y89.972 E2.15391
G1 X143.577 Y90.205 E2.18748
G1 X144.505 Y90.516 E2.22003
G1 X145.513 Y90.963 E2.25671
G1 X146.054 Y91.239 E2.27691
G1 X146.9 Y91.719 E2.30926
G1 X147.644 Y92.231 E2.3393
G1 X148.425 Y92.877 E2.37301
G1 X149.251 Y93.709 E2.412
G1 X149.643 Y94.15 E2.43163
G1 X150.256 Y94.907 E2.46403
G1 X150.799 Y95.715 E2.49641
G1 X151.237 Y96.505 E2.52645
G1 X151.725 Y97.627 E2.56714
G1 X151.927 Y98.176 E2.5866
G1 X152.221 Y99.105 E2.61901
G1 X152.433 Y100.055 E2.65138
G1 X152.552 Y100.95 E2.68141
G1 X152.596 Y102.15 E2.72135
G1 X152.584 Y102.764 E2.74178
G1 X152.489 Y103.987 E2.78258
G1 X152.171 Y106.283 E2.85967
G1 X151.887 Y108.811 E2.94428
G1 X151.675 Y111.313 E3.0278
G1 X151.538 Y113.808 E3.11091
G1 X151.469 Y116.341 E3.19519
G1 X151.472 Y118.853 E3.27874
G1 X151.547 Y121.403 E3.36359
G1 X151.69 Y123.877 E3.44601
G1 X151.904 Y126.382 E3.52963
G1 X152.193 Y128.896 E3.6138
G1 X152.491 Y131.024 E3.68526
G1 X152.581 Y131.981 E3.71723
G1 X152.594 Y132.557 E3.7364
G1 X152.592 Y133.176 E3.75698
G1 X152.549 Y134.078 E3.78702
G1 X152.406 Y135.114 E3.8218
G1 X152.181 Y136.077 E3.8547
G1 X151.744 Y137.336 E3.89902
G1 X151.499 Y137.922 E3.92015
G1 X151.083 Y138.804 E3.95258
G1 X150.628 Y139.584 E3.98262
G1 X150.024 Y140.435 E4.01732
G1 X149.42 Y141.144 E4.0483
G1 X149.01 Y141.561 E4.06775
G1 X148.581 Y141.977 E4.08763
G1 X147.85 Y142.619 E4.11999
G1 X147.065 Y143.196 E4.15239
G1 X146.294 Y143.666 E4.18242
G1 X145.185 Y144.202 E4.22339
G1 X144.62 Y144.437 E4.24374
G1 X143.772 Y144.747 E4.27377
G1 X142.763 Y145.016 E4.30851
G1 X141.788 Y145.182 E4.3414
G1 X140.464 Y145.268 E4.38553
G1 X139.85 Y145.27 E4.40595
G1 X138.863 Y145.225 E4.43881
G1 X137.57 Y145.032 E4.4823
G1 X134.139 Y144.32 E4.59884
G1 X131.721 Y143.894 E4.6805
G1 X129.192 Y143.522 E4.76552
G1 X126.667 Y143.224 E4.85009
G1 X124.202 Y143.003 E4.9324
G1 X121.668 Y142.848 E5.01684
G1 X119.174 Y142.765 E5.09984
G1 X116.646 Y142.755 E5.18392
G1 X114.114 Y142.815 E5.26816
G1 X111.631 Y142.942 E5.35085
G1 X109.111 Y143.146 E5.43494
G1 X106.611 Y143.419 E5.51859
G1 X104.101 Y143.765 E5.60286
G1 X101.631 Y144.175 E5.68614
G1 X98.392 Y144.824 E5.79601
G1 X97.53 Y145.011 E5.82534
G1 X96.568 Y145.175 E5.8578
G1 X95.591 Y145.253 E5.8904
G1 X95.001 Y145.272 E5.91003
G1 X94.028 Y145.259 E5.9424
G1 X93.059 Y145.16 E5.9748
G1 X92.096 Y144.974 E6.00742
G1 X91.027 Y144.661 E6.04446
G1 X90.468 Y144.464 E6.06418
G1 X89.566 Y144.099 E6.09654
G1 X88.698 Y143.656 E6.12895
G1 X87.866 Y143.133 E6.16164
G1 X86.94 Y142.416 E6.20059
G1 X86.501 Y142.036 E6.2199
G1 X85.844 Y141.415 E6.24997
G1 X85.151 Y140.634 E6.2847
G1 X84.614 Y139.907 E6.31476
G1 X84.025 Y138.93 E6.3527
G1 X83.728 Y138.371 E6.37376
G1 X83.326 Y137.522 E6.405
G1 X82.977 Y136.575 E6.43857
G1 X82.74 Y135.704 E6.46859
G1 X82.534 Y134.504 E6.50909
G1 X82.467 Y133.92 E6.52864
G1 X82.401 Y132.947 E6.56108
G1 X82.422 Y131.974 E6.59345
G1 X82.524 Y131.037 E6.6248
G1 X82.768 Y129.871 E6.66442
G1 X82.918 Y129.307 E6.68383
G1 X83.188 Y128.445 E6.71387
G1 X83.589 Y127.48 E6.74863
G1 X84.046 Y126.612 E6.78125
G1 X84.62 Y125.732 E6.8162
G1 X84.993 Y125.22 E6.83727
G1 X85.602 Y124.461 E6.86963
G1 X86.276 Y123.757 E6.90205
G1 X86.955 Y123.161 E6.9321
G1 X87.965 Y122.437 E6.97343
G0 F6000 X88.198 Y122.762
G1 F1200 X88.713 Y122.437 E6.99369
G1 X89.498 Y121.99 E7.02373
G1 X90.18 Y121.669 E7.0488
G1 X90.779 Y121.413 E7.07047
G1 X93.175 Y120.348 E7.15768
G1 X95.46 Y119.253 E7.24195
G1 X97.234 Y118.35 E7.30816
G1 X98.804 Y117.529 E7.36709
G1 X101.743 Y115.926 E7.47843
G1 X103.615 Y114.862 E7.55005
G1 X106.467 Y113.175 E7.66026
G1 X108.31 Y112.04 E7.73225
G1 X111.151 Y110.222 E7.84443
G1 X112.934 Y109.036 E7.91566
G1 X115.634 Y107.172 E8.02478
G1 X117.414 Y105.895 E8.09765
G1 X120.089 Y103.905 E8.20854
G1 X121.14 Y103.094 E8.25269
G1 X123.137 Y101.507 E8.33753
G1 X125.125 Y99.833 E8.42397
G1 X126.995 Y98.165 E8.50731
G1 X128.806 Y96.457 E8.59011
G1 X130.704 Y94.562 E8.67932
G1 X131.444 Y93.804 E8.71455
G1 X132.125 Y93.165 E8.74561
G1 X132.619 Y92.766 E8.76673
G1 X133.065 Y92.428 E8.78534
G1 X133.853 Y91.886 E8.81715
G1 X134.67 Y91.424 E8.84837
G1 X135.529 Y91.035 E8.87973
G1 X136.584 Y90.676 E8.9168
G1 X137.135 Y90.521 E8.93584
G1 X138.049 Y90.307 E8.96706
G1 X138.978 Y90.175 E8.99827
G1 X139.919 Y90.125 E9.02961
G1 X141.022 Y90.174 E9.06633
G1 X141.608 Y90.232 E9.08592
G1 X142.537 Y90.368 E9.11715
G1 X143.45 Y90.584 E9.14835
G1 X144.343 Y90.882 E9.17966
G1 X145.351 Y91.329 E9.21634
G1 X145.857 Y91.587 E9.23523
G1 X146.673 Y92.049 E9.26642
G1 X147.417 Y92.561 E9.29645
G1 X148.17 Y93.185 E9.32898
G1 X148.952 Y93.975 E9.36595
G1 X149.332 Y94.402 E9.38496
G1 X149.924 Y95.131 E9.4162
G1 X150.449 Y95.909 E9.44742
G1 X150.887 Y96.699 E9.47746
G1 X151.35 Y97.766 E9.51615
G1 X151.546 Y98.297 E9.53497
G1 X151.831 Y99.192 E9.56621
G1 X152.036 Y100.108 E9.59743
G1 X152.155 Y101.003 E9.62746
G1 X152.196 Y102.143 E9.6654
G1 X152.185 Y102.733 E9.68503
G1 X152.09 Y103.956 E9.72583
G1 X151.775 Y106.228 E9.80212
G1 X151.488 Y108.777 E9.88743
G1 X151.277 Y111.279 E9.97095
G1 X151.138 Y113.797 E10.05482
G1 X151.069 Y116.33 E10.1391
G1 X151.072 Y118.853 E10.22302
G1 X151.147 Y121.415 E10.30827
G1 X151.291 Y123.911 E10.39142
G1 X151.506 Y126.416 E10.47505
G1 X151.797 Y128.952 E10.55995
G1 X152.093 Y131.062 E10.63081
G1 X152.181 Y131.99 E10.66182
G1 X152.194 Y132.556 E10.68065
G1 X152.192 Y133.157 E10.70064
G1 X152.149 Y134.059 E10.73067
G1 X152.016 Y135.024 E10.76307
G1 X151.803 Y135.946 E10.79454
G1 X151.375 Y137.182 E10.83805
G1 X151.137 Y137.752 E10.85859
G1 X150.737 Y138.602 E10.88984
G1 X150.282 Y139.382 E10.91987
G1 X149.719 Y140.176 E10.95225
G1 X149.134 Y140.864 E10.98228
G1 X148.732 Y141.274 E11.00138
G1 X148.316 Y141.677 E11.02064
G1 X147.613 Y142.297 E11.05182
G1 X146.857 Y142.854 E11.08305
G1 X146.086 Y143.324 E11.11309
G1 X145.031 Y143.833 E11.15205
G1 X144.483 Y144.061 E11.17179
G1 X143.635 Y144.371 E11.20182
G1 X142.695 Y144.622 E11.23418
G1 X141.762 Y144.783 E11.26567
G1 X140.463 Y144.868 E11.30896
G1 X139.867 Y144.87 E11.32879
G1 X138.922 Y144.829 E11.36025
G1 X137.651 Y144.64 E11.40299
G1 X134.22 Y143.928 E11.51953
G1 X131.779 Y143.498 E11.60197
G1 X129.25 Y143.126 E11.68699
G1 X126.714 Y142.827 E11.77192
G1 X124.229 Y142.604 E11.85491
G1 X121.681 Y142.448 E11.93981
G1 X119.187 Y142.365 E12.02281
G1 X116.639 Y142.355 E12.10756
G1 X114.105 Y142.415 E12.19186
G1 X111.599 Y142.544 E12.27532
G1 X109.072 Y142.748 E12.35964
G1 X106.568 Y143.021 E12.44342
G1 X104.035 Y143.37 E12.52846
G1 X101.565 Y143.781 E12.61175
G1 X98.307 Y144.433 E12.72226
G1 X97.462 Y144.617 E12.75102
G1 X96.536 Y144.776 E12.78227
G1 X95.578 Y144.853 E12.81424
G1 X95.006 Y144.872 E12.83327
G1 X94.068 Y144.861 E12.86447
G1 X93.134 Y144.767 E12.89569
G1 X92.208 Y144.59 E12.92705
G1 X91.16 Y144.284 E12.96336
G1 X90.617 Y144.093 E12.98251
G1 X89.747 Y143.743 E13.0137
G1 X88.91 Y143.317 E13.04493
G1 X88.111 Y142.817 E13.07628
G1 X87.202 Y142.114 E13.1145
G1 X86.776 Y141.745 E13.13325
G1 X86.119 Y141.124 E13.16332
G1 X85.473 Y140.396 E13.19569
G1 X84.936 Y139.669 E13.22575
G1 X84.368 Y138.724 E13.26242
G1 X84.09 Y138.2 E13.28215
G1 X83.688 Y137.351 E13.31339
G1 X83.363 Y136.47 E13.34463
G1 X83.126 Y135.599 E13.37465
G1 X82.931 Y134.458 E13.41315
G1 X82.866 Y133.892 E13.4321
G1 X82.801 Y132.955 E13.46334
G1 X82.82 Y132.017 E13.49454
G1 X82.922 Y131.08 E13.52589
G1 X83.154 Y129.974 E13.56348
G1 X83.3 Y129.427 E13.58231
G1 X83.57 Y128.565 E13.61235
G1 X83.943 Y127.666 E13.64472
G1 X84.381 Y126.831 E13.67608
G1 X84.955 Y125.951 E13.71103
G1 X85.305 Y125.47 E13.73081
G1 X85.891 Y124.737 E13.76203
G1 X86.54 Y124.058 E13.79327
G1 X87.219 Y123.462 E13.82332
G1 X88.198 Y122.762 E13.86335
G0 F6000 X88.43 Y123.088
G1 F1200 X88.911 Y122.785 E13.88225
G1 X89.696 Y122.338 E13.9123
G1 X90.337 Y122.037 E13.93585
G1 X90.936 Y121.781 E13.95752
G1 X93.345 Y120.711 E14.04519
G1 X95.633 Y119.614 E14.12958
G1 X97.416 Y118.706 E14.19613
G1 X98.989 Y117.883 E14.25518
G1 X101.941 Y116.274 E14.367
G1 X103.813 Y115.21 E14.43862
G1 X106.677 Y113.516 E14.54929
G1 X108.52 Y112.381 E14.62128
G1 X111.367 Y110.559 E14.7337
G1 X113.156 Y109.369 E14.80517
G1 X115.861 Y107.501 E14.91451
G1 X117.653 Y106.216 E14.98785
G1 X120.334 Y104.222 E15.09898
G1 X121.385 Y103.41 E15.14315
G1 X123.395 Y101.813 E15.22854
G1 X125.383 Y100.139 E15.31498
G1 X127.261 Y98.464 E15.39867
G1 X129.089 Y96.74 E15.48225
G1 X130.987 Y94.845 E15.57145
G1 X131.718 Y94.095 E15.60629
G1 X132.376 Y93.476 E15.63633
G1 X132.861 Y93.085 E15.65705
G1 X133.307 Y92.747 E15.67567
G1 X134.05 Y92.234 E15.7057
G1 X134.836 Y91.788 E15.73576
G1 X135.658 Y91.414 E15.76579
G1 X136.693 Y91.061 E15.80216
G1 X137.227 Y90.91 E15.82062
G1 X138.106 Y90.703 E15.85066
G1 X139 Y90.574 E15.8807
G1 X139.901 Y90.525 E15.91071
G1 X141.004 Y90.574 E15.94743
G1 X141.551 Y90.628 E15.96571
G1 X142.445 Y90.757 E15.99576
G1 X143.324 Y90.964 E16.02579
G1 X144.181 Y91.248 E16.05582
G1 X145.17 Y91.686 E16.0918
G1 X145.66 Y91.935 E16.11008
G1 X146.446 Y92.379 E16.1401
G1 X147.19 Y92.891 E16.17014
G1 X147.886 Y93.467 E16.20019
G1 X148.653 Y94.241 E16.23643
G1 X149.022 Y94.655 E16.25488
G1 X149.593 Y95.355 E16.28492
G1 X150.099 Y96.103 E16.31496
G1 X150.537 Y96.893 E16.345
G1 X150.975 Y97.905 E16.38168
G1 X151.165 Y98.419 E16.39991
G1 X151.441 Y99.28 E16.42998
G1 X151.639 Y100.161 E16.46001
G1 X151.758 Y101.056 E16.49004
G1 X151.796 Y102.136 E16.52598
G1 X151.786 Y102.702 E16.54481
G1 X151.691 Y103.925 E16.58561
G1 X151.379 Y106.173 E16.6611
G1 X151.089 Y108.744 E16.74715
G1 X150.879 Y111.246 E16.83066
G1 X150.738 Y113.786 E16.91527
G1 X150.669 Y116.319 E16.99955
G1 X150.672 Y118.853 E17.08383
G1 X150.747 Y121.429 E17.16955
G1 X150.892 Y123.945 E17.25337
G1 X151.108 Y126.45 E17.33699
G1 X151.401 Y129.008 E17.42263
G1 X151.695 Y131.1 E17.49289
G1 X151.781 Y131.999 E17.52293
G1 X151.794 Y132.555 E17.54143
G1 X151.792 Y133.138 E17.56082
G1 X151.749 Y134.04 E17.59085
G1 X151.626 Y134.935 E17.6209
G1 X151.425 Y135.815 E17.65092
G1 X151.006 Y137.028 E17.69361
G1 X150.775 Y137.582 E17.71357
G1 X150.391 Y138.4 E17.74363
G1 X149.936 Y139.18 E17.77366
G1 X149.414 Y139.917 E17.8037
G1 X148.829 Y140.605 E17.83374
G1 X148.454 Y140.987 E17.85154
G1 X148.051 Y141.377 E17.87019
G1 X147.375 Y141.975 E17.90021
G1 X146.649 Y142.512 E17.93025
G1 X145.878 Y142.982 E17.96028
G1 X144.877 Y143.464 E17.99723
G1 X144.346 Y143.685 E18.01636
G1 X143.498 Y143.995 E18.04639
G1 X142.626 Y144.228 E18.07641
G1 X141.736 Y144.384 E18.10646
G1 X140.462 Y144.468 E18.14893
G1 X139.883 Y144.47 E18.16819
G1 X138.981 Y144.433 E18.19821
G1 X137.732 Y144.248 E18.24021
G1 X134.301 Y143.536 E18.35676
G1 X131.837 Y143.102 E18.43997
G1 X129.308 Y142.73 E18.52499
G1 X126.761 Y142.43 E18.61029
G1 X124.256 Y142.205 E18.69394
G1 X121.694 Y142.048 E18.77931
G1 X119.2 Y141.965 E18.86231
G1 X116.632 Y141.955 E18.94772
G1 X114.096 Y142.015 E19.03209
G1 X111.567 Y142.146 E19.11632
G1 X109.033 Y142.35 E19.20088
G1 X106.525 Y142.623 E19.28478
G1 X103.969 Y142.975 E19.3706
G1 X101.499 Y143.387 E19.45389
G1 X98.222 Y144.042 E19.56504
G1 X97.394 Y144.223 E19.59323
G1 X96.504 Y144.377 E19.62327
G1 X95.564 Y144.453 E19.65463
G1 X95.01 Y144.472 E19.67307
G1 X94.107 Y144.463 E19.70311
G1 X93.208 Y144.374 E19.73315
G1 X92.32 Y144.206 E19.76321
G1 X91.292 Y143.906 E19.79883
G1 X90.766 Y143.722 E19.81736
G1 X89.928 Y143.386 E19.84739
G1 X89.122 Y142.978 E19.87744
G1 X88.356 Y142.5 E19.90747
G1 X87.464 Y141.811 E19.94496
G1 X87.051 Y141.454 E19.96312
G1 X86.394 Y140.833 E19.99318
G1 X85.795 Y140.158 E20.0232
G1 X85.258 Y139.431 E20.05326
G1 X84.711 Y138.518 E20.08866
G1 X84.451 Y138.028 E20.10711
G1 X84.063 Y137.212 E20.13716
G1 X83.749 Y136.365 E20.16721
G1 X83.512 Y135.494 E20.19723
G1 X83.328 Y134.412 E20.23374
G1 X83.265 Y133.864 E20.25208
G1 X83.201 Y132.963 E20.28212
G1 X83.218 Y132.06 E20.31216
G1 X83.314 Y131.162 E20.3422
G1 X83.541 Y130.077 E20.37907
G1 X83.682 Y129.547 E20.39731
G1 X83.952 Y128.685 E20.42735
G1 X84.298 Y127.851 E20.45739
G1 X84.716 Y127.05 E20.48744
G1 X85.29 Y126.17 E20.52238
G1 X85.618 Y125.719 E20.54093
G1 X86.181 Y125.013 E20.57096
G1 X86.804 Y124.359 E20.60101
G1 X87.483 Y123.763 E20.63106
G1 X88.43 Y123.088 E20.66973
G1 F2700 E19.91973
;MESH:SiSpeedM1W_Holder_Rev3.stl
EXCLUDE_OBJECT_START NAME=SiSpeedM1W_Holder_Rev3_stl
G0 F6000 X110.651 Y125.557
G0 X137.548 Y131.437
;TYPE:WALL-INNER
G1 F2700 E20.66973
G1 F1200 X134.234 Y130.344 E20.7858
G1 X130.921 Y129.472 E20.89974
G1 X127.589 Y128.817 E21.01269
G1 X124.19 Y128.368 E21.12672
