;FLAVOR:Marlin
;TIME:1000
;Filament used: 0.506454m
;Layer height: 0.2
;MINX:93.237
;MINY:81.684
;MINZ:0.2
;MAXX:141.763
;MAXY:153.316
;MAXZ:7
;POSTPROCESSED
;Generated with Cura_SteamEngine 5.4.0
;
;

;
;



; Pre-Processed for Cancel-Object support by preprocess_cancellation v(0, 3, 'a1')
; 1 known objects
EXCLUDE_OBJECT_DEFINE NAME=Esp32_HolderRev2_stl CENTER=117.500,117.500 POLYGON=[[129.353,82.484],[105.689,82.485],[104.261,82.563],[103.369,82.705],[102.494,82.927],[101.641,83.224],[100.389,83.761],[99.599,84.2],[98.852,84.706],[98.151,85.276],[97.137,86.232],[96.548,86.916],[96.021,87.65],[95.561,88.427],[94.942,89.664],[94.623,90.509],[94.379,91.378],[94.14,92.783],[94.041,94.064],[94.037,141.015],[94.092,141.916],[94.331,143.346],[94.526,144.166],[94.81,145.023],[95.169,145.852],[95.6,146.646],[96.341,147.806],[96.902,148.513],[97.524,149.168],[98.202,149.765],[99.261,150.577],[100.029,151.053],[100.836,151.458],[101.675,151.791],[102.964,152.199],[103.848,152.384],[104.745,152.49],[105.647,152.516],[129.311,152.515],[130.739,152.437],[131.631,152.295],[132.506,152.073],[133.359,151.776],[134.611,151.239],[135.401,150.8],[136.148,150.294],[137.226,149.388],[137.863,148.768],[138.452,148.084],[138.979,147.35],[139.439,146.573],[140.056,145.341],[140.376,144.497],[140.62,143.627],[140.859,142.225],[140.959,140.939],[140.963,93.989],[140.909,93.087],[140.775,92.194],[140.471,90.823],[140.186,89.966],[139.826,89.138],[139.395,88.344],[138.659,87.194],[138.098,86.487],[137.476,85.832],[136.798,85.235],[135.739,84.423],[134.971,83.947],[134.164,83.542],[133.325,83.209],[132.036,82.801],[131.152,82.616],[130.255,82.51],[129.353,82.484]]
M140 S50
M105
M190 S50
M104 S200
M105
M109 S200
M82 ;absolute extrusion mode
; Ender 3 Custom Start G-code
G92 E0 ; Reset Extruder
G28 ; Home all axes
G1 Z2.0 F3000 ; Move Z Axis up little to prevent scratching of Heat Bed
G1 X0.1 Y20 Z0.3 F5000.0 ; Move to start position
G1 X0.1 Y200.0 Z0.3 F1500.0 E15 ; Draw the first line
G1 X0.4 Y200.0 Z0.3 F5000.0 ; Move to side a little
G1 X0.4 Y20 Z0.3 F1500.0 E30 ; Draw the second line
G92 E0 ; Reset Extruder
G1 Z2.0 F3000 ; Move Z Axis up little to prevent scratching of Heat Bed
G1 X5 Y20 Z0.3 F5000.0 ; Move over to prevent blob squish
G92 E0
G92 E0
G1 F2700 E-0.75
;LAYER_COUNT:35
SET_PRINT_STATS_INFO TOTAL_LAYER=35
TIMELAPSE_TAKE_FRAME
;LAYER:0
SET_PRINT_STATS_INFO CURRENT_LAYER=1
M107
G0 F6000 X96.579 Y85.658 Z0.2
;TYPE:SKIRT
G1 F2700 E0
G1 F1200 X97.242 Y85.014 E0.03074
G1 X97.633 Y84.666 E0.04815
G1 X98.376 Y84.064 E0.07996
G1 X99.211 Y83.5 E0.11347
G1 X100.031 Y83.046 E0.14465
G1 X100.856 Y82.677 E0.1747
G1 X101.378 Y82.468 E0.19341
G1 X102.298 Y82.151 E0.22577
G1 X103.244 Y81.915 E0.2582
G1 X104.205 Y81.765 E0.29055
G1 X105.123 Y81.7 E0.32116
G1 X105.719 Y81.685 E0.34099
G1 X107.05 Y81.735 E0.38529
G1 X109.351 Y81.972 E0.46223
G1 X111.83 Y82.164 E0.54492
G1 X114.393 Y82.29 E0.63027
G1 X116.897 Y82.343 E0.71357
G1 X119.392 Y82.324 E0.79656
G1 X121.959 Y82.232 E0.88199
G1 X124.433 Y82.074 E0.96445
G1 X127.786 Y81.753 E1.07648
G1 X128.761 Y81.693 E1.10897
G1 X129.377 Y81.684 E1.12946
G1 X130.349 Y81.716 E1.16181
G1 X131.316 Y81.832 E1.1942
G1 X132.2 Y82.017 E1.22424
G1 X133.107 Y82.287 E1.25571
G1 X133.621 Y82.465 E1.2738
G1 X134.491 Y82.812 E1.30496
G1 X135.393 Y83.267 E1.33856
G1 X136.161 Y83.743 E1.36861
G1 X136.893 Y84.285 E1.39891
G1 X137.327 Y84.635 E1.41745
G1 X138.031 Y85.257 E1.44869
G1 X138.725 Y85.99 E1.48227
G1 X139.306 Y86.725 E1.51343
G1 X139.82 Y87.499 E1.54433
G1 X140.099 Y87.962 E1.56231
G1 X140.53 Y88.756 E1.59236
G1 X140.946 Y89.715 E1.62713
G1 X141.249 Y90.637 E1.65941
G1 X141.456 Y91.503 E1.68902
G1 X141.567 Y92.076 E1.70843
G1 X141.701 Y92.969 E1.73847
G1 X141.763 Y94.013 E1.77325
G1 X141.735 Y94.949 E1.8044
G1 X141.642 Y95.779 E1.83218
G1 X141.507 Y96.672 E1.86222
G1 X141.131 Y98.928 E1.93829
G1 X140.572 Y102.749 E2.06673
G1 X140.469 Y103.575 E2.09441
G1 X140.065 Y107.432 E2.2234
G1 X139.996 Y108.243 E2.25047
G1 X139.75 Y112.148 E2.38061
G1 X139.713 Y113.022 E2.4097
G1 X139.628 Y116.741 E2.53343
G1 X139.625 Y117.636 E2.5632
G1 X139.697 Y121.547 E2.6933
G1 X139.732 Y122.433 E2.72279
G1 X139.957 Y126.226 E2.84917
G1 X140.028 Y127.125 E2.87916
G1 X140.399 Y130.845 E3.0035
G1 X140.497 Y131.657 E3.03071
G1 X141.051 Y135.576 E3.16235
G1 X141.619 Y139.046 E3.2793
G1 X141.732 Y140.014 E3.31171
G1 X141.757 Y141.001 E3.34455
G1 X141.657 Y142.287 E3.38745
G1 X141.572 Y142.888 E3.40764
G1 X141.39 Y143.844 E3.44001
G1 X141.124 Y144.781 E3.4724
G1 X140.791 Y145.656 E3.50354
G1 X140.393 Y146.485 E3.53413
G1 X140.127 Y146.981 E3.55285
G1 X139.629 Y147.817 E3.58521
G1 X139.08 Y148.579 E3.61645
G1 X138.421 Y149.342 E3.64998
G1 X137.758 Y149.986 E3.68073
G1 X137.367 Y150.334 E3.69814
G1 X136.624 Y150.936 E3.72994
G1 X135.789 Y151.5 E3.76345
G1 X134.969 Y151.954 E3.79463
G1 X134.144 Y152.323 E3.82469
G1 X133.622 Y152.532 E3.84339
G1 X132.702 Y152.849 E3.87575
G1 X131.756 Y153.085 E3.90818
G1 X130.795 Y153.235 E3.94053
G1 X129.877 Y153.3 E3.97114
G1 X129.281 Y153.315 E3.99097
G1 X127.951 Y153.265 E4.03524
G1 X125.652 Y153.029 E4.11211
G1 X123.169 Y152.836 E4.19494
G1 X120.606 Y152.71 E4.28029
G1 X118.103 Y152.657 E4.36356
G1 X115.608 Y152.676 E4.44654
G1 X113.041 Y152.768 E4.53198
G1 X110.567 Y152.926 E4.61443
G1 X107.214 Y153.247 E4.72646
G1 X106.239 Y153.307 E4.75895
G1 X105.623 Y153.316 E4.77944
G1 X104.651 Y153.284 E4.81179
G1 X103.684 Y153.168 E4.84418
G1 X102.8 Y152.983 E4.87422
G1 X101.893 Y152.713 E4.9057
G1 X101.379 Y152.535 E4.92379
G1 X100.509 Y152.188 E4.95494
G1 X99.607 Y151.733 E4.98854
G1 X98.839 Y151.257 E5.01859
G1 X98.107 Y150.715 E5.04889
G1 X97.673 Y150.365 E5.06743
G1 X96.969 Y149.743 E5.09868
G1 X96.275 Y149.01 E5.13225
G1 X95.673 Y148.247 E5.16458
G1 X95.175 Y147.492 E5.19466
G1 X94.896 Y147.028 E5.21267
G1 X94.465 Y146.234 E5.24271
G1 X94.05 Y145.274 E5.2775
G1 X93.748 Y144.352 E5.30977
G1 X93.545 Y143.499 E5.33893
G1 X93.434 Y142.927 E5.35831
G1 X93.3 Y142.034 E5.38835
G1 X93.237 Y140.991 E5.4231
G1 X93.267 Y140.022 E5.45534
G1 X93.355 Y139.238 E5.48158
G1 X93.497 Y138.299 E5.51317
G1 X93.872 Y136.055 E5.58884
G1 X94.428 Y132.251 E5.71671
G1 X94.537 Y131.379 E5.74593
G1 X94.928 Y127.645 E5.87081
G1 X95.005 Y126.748 E5.90075
G1 X95.253 Y122.785 E6.03282
G1 X95.289 Y121.933 E6.06118
G1 X95.372 Y118.262 E6.18331
G1 X95.375 Y117.362 E6.21325
G1 X95.302 Y113.421 E6.34435
G1 X95.267 Y112.55 E6.37334
G1 X95.043 Y108.77 E6.49928
G1 X94.974 Y107.905 E6.52814
G1 X94.595 Y104.103 E6.65523
G1 X94.506 Y103.36 E6.68011
G1 X93.944 Y99.39 E6.81347
G1 X93.381 Y95.958 E6.92915
G1 X93.268 Y94.99 E6.96156
G1 X93.243 Y94.002 E6.99443
G1 X93.342 Y92.721 E7.03717
G1 X93.427 Y92.118 E7.05742
G1 X93.609 Y91.161 E7.08982
G1 X93.875 Y90.226 E7.12215
G1 X94.22 Y89.318 E7.15446
G1 X94.599 Y88.531 E7.18351
G1 X94.873 Y88.019 E7.20283
G1 X95.371 Y87.183 E7.23519
G1 X95.92 Y86.421 E7.26643
G1 X96.579 Y85.658 E7.29996
G0 F6000 X96.858 Y85.945
G1 F1200 X97.508 Y85.313 E7.33012
G1 X97.885 Y84.977 E7.34691
G1 X98.628 Y84.375 E7.37872
G1 X99.405 Y83.85 E7.40991
G1 X100.195 Y83.411 E7.43997
G1 X101.005 Y83.048 E7.46949
G1 X101.509 Y82.846 E7.48755
G1 X102.396 Y82.539 E7.51877
G1 X103.306 Y82.31 E7.54998
G1 X104.233 Y82.164 E7.58119
G1 X105.134 Y82.1 E7.61123
G1 X105.704 Y82.085 E7.6302
G1 X107.035 Y82.135 E7.6745
G1 X109.32 Y82.371 E7.7509
G1 X111.81 Y82.564 E7.83397
G1 X114.373 Y82.69 E7.91932
G1 X116.892 Y82.743 E8.00312
G1 X119.406 Y82.724 E8.08674
G1 X121.973 Y82.632 E8.17217
G1 X124.459 Y82.473 E8.25502
G1 X127.238 Y82.213 E8.34786
G1 X127.811 Y82.152 E8.36702
G1 X128.767 Y82.093 E8.39888
G1 X129.365 Y82.084 E8.41877
G1 X130.302 Y82.113 E8.44995
G1 X131.234 Y82.224 E8.48117
G1 X132.118 Y82.409 E8.51121
G1 X132.976 Y82.665 E8.54099
G1 X133.473 Y82.837 E8.55848
G1 X134.343 Y83.184 E8.58963
G1 X135.182 Y83.607 E8.62089
G1 X135.95 Y84.083 E8.65094
G1 X136.642 Y84.596 E8.67959
G1 X137.062 Y84.935 E8.69754
G1 X137.766 Y85.557 E8.72879
G1 X138.411 Y86.238 E8.75998
G1 X138.992 Y86.973 E8.79114
G1 X139.477 Y87.705 E8.82035
G1 X139.747 Y88.153 E8.83775
G1 X140.178 Y88.947 E8.8678
G1 X140.566 Y89.84 E8.90018
G1 X140.86 Y90.73 E8.93135
G1 X141.063 Y91.579 E8.96039
G1 X141.171 Y92.135 E8.97923
G1 X141.305 Y93.028 E9.00926
G1 X141.363 Y94.001 E9.04168
G1 X141.337 Y94.904 E9.07173
G1 X141.244 Y95.734 E9.0995
G1 X141.112 Y96.606 E9.12884
G1 X140.736 Y98.862 E9.20491
G1 X140.176 Y102.691 E9.33362
G1 X140.072 Y103.526 E9.3616
G1 X139.667 Y107.39 E9.49082
G1 X139.598 Y108.209 E9.51816
G1 X139.35 Y112.131 E9.64887
G1 X139.313 Y113.005 E9.67796
G1 X139.228 Y116.732 E9.80195
G1 X139.225 Y117.635 E9.83199
G1 X139.297 Y121.563 E9.96266
G1 X139.332 Y122.449 E9.99215
G1 X139.558 Y126.258 E10.11906
G1 X139.63 Y127.165 E10.14932
G1 X140.002 Y130.893 E10.27393
G1 X140.101 Y131.713 E10.3014
G1 X140.656 Y135.641 E10.43334
G1 X141.222 Y139.093 E10.54969
G1 X141.332 Y140.025 E10.58091
G1 X141.358 Y140.97 E10.61235
G1 X141.258 Y142.256 E10.65525
G1 X141.179 Y142.814 E10.67399
G1 X141.005 Y143.735 E10.70517
G1 X140.75 Y144.639 E10.73641
G1 X140.43 Y145.483 E10.76643
G1 X140.04 Y146.296 E10.79642
G1 X139.783 Y146.777 E10.81456
G1 X139.304 Y147.583 E10.84574
G1 X138.755 Y148.345 E10.87698
G1 X138.142 Y149.055 E10.90818
G1 X137.492 Y149.687 E10.93833
G1 X137.115 Y150.023 E10.95513
G1 X136.372 Y150.625 E10.98694
G1 X135.595 Y151.15 E11.01812
G1 X134.805 Y151.589 E11.04818
G1 X133.995 Y151.952 E11.07771
G1 X133.491 Y152.154 E11.09577
G1 X132.604 Y152.461 E11.12699
G1 X131.694 Y152.69 E11.1582
G1 X130.767 Y152.836 E11.18941
G1 X129.866 Y152.9 E11.21945
G1 X129.296 Y152.915 E11.23842
G1 X127.966 Y152.865 E11.28268
G1 X125.683 Y152.63 E11.35902
G1 X123.189 Y152.436 E11.44222
G1 X120.626 Y152.31 E11.52757
G1 X118.108 Y152.257 E11.61133
G1 X115.594 Y152.276 E11.69495
G1 X113.027 Y152.368 E11.78039
G1 X110.541 Y152.527 E11.86324
G1 X107.762 Y152.787 E11.95607
G1 X107.189 Y152.848 E11.97524
G1 X106.233 Y152.907 E12.0071
G1 X105.635 Y152.916 E12.02699
G1 X104.698 Y152.887 E12.05817
G1 X103.766 Y152.776 E12.08939
G1 X102.882 Y152.591 E12.11942
G1 X102.024 Y152.335 E12.1492
G1 X101.527 Y152.163 E12.1667
G1 X100.657 Y151.816 E12.19785
G1 X99.818 Y151.393 E12.2291
G1 X99.05 Y150.917 E12.25915
G1 X98.358 Y150.404 E12.2878
G1 X97.938 Y150.065 E12.30576
G1 X97.234 Y149.443 E12.337
G1 X96.589 Y148.762 E12.3682
G1 X96.007 Y148.027 E12.39938
G1 X95.518 Y147.286 E12.42891
G1 X95.248 Y146.837 E12.44633
G1 X94.817 Y146.043 E12.47638
G1 X94.43 Y145.149 E12.50878
G1 X94.137 Y144.259 E12.53995
G1 X93.938 Y143.423 E12.56853
G1 X93.83 Y142.868 E12.58734
G1 X93.696 Y141.975 E12.61737
G1 X93.637 Y141.003 E12.64976
G1 X93.665 Y140.067 E12.6809
G1 X93.753 Y139.283 E12.70714
G1 X93.892 Y138.365 E12.73802
G1 X94.267 Y136.121 E12.8137
G1 X94.824 Y132.309 E12.94183
G1 X94.934 Y131.429 E12.97133
G1 X95.326 Y127.687 E13.09647
G1 X95.403 Y126.782 E13.12668
G1 X95.653 Y122.802 E13.25931
G1 X95.689 Y121.95 E13.28767
G1 X95.772 Y118.271 E13.41007
G1 X95.775 Y117.363 E13.44027
G1 X95.702 Y113.414 E13.57164
G1 X95.667 Y112.534 E13.60093
G1 X95.442 Y108.738 E13.72741
G1 X95.373 Y107.873 E13.75627
G1 X94.993 Y104.063 E13.88362
G1 X94.903 Y103.312 E13.90877
G1 X94.34 Y99.334 E14.0424
G1 X93.778 Y95.911 E14.15778
G1 X93.668 Y94.979 E14.18899
G1 X93.642 Y94.033 E14.22047
G1 X93.741 Y92.752 E14.2632
G1 X93.82 Y92.192 E14.28201
G1 X93.994 Y91.27 E14.31322
G1 X94.249 Y90.368 E14.34439
G1 X94.581 Y89.491 E14.37558
G1 X94.952 Y88.719 E14.40407
G1 X95.217 Y88.223 E14.42277
G1 X95.696 Y87.417 E14.45396
G1 X96.245 Y86.655 E14.48519
G1 X96.858 Y85.945 E14.51639
G0 F6000 X97.137 Y86.232
G1 F1200 X97.774 Y85.612 E14.54596
G1 X98.151 Y85.276 E14.56276
G1 X98.852 Y84.706 E14.59281
G1 X99.599 Y84.2 E14.62281
G1 X100.389 Y83.761 E14.65287
G1 X101.153 Y83.419 E14.68071
G1 X101.641 Y83.224 E14.69819
G1 X102.494 Y82.927 E14.72823
G1 X103.369 Y82.705 E14.75826
G1 X104.261 Y82.563 E14.7883
G1 X105.145 Y82.5 E14.81778
G1 X105.689 Y82.485 E14.83588
G1 X107.02 Y82.535 E14.88018
G1 X109.289 Y82.77 E14.95605
G1 X111.79 Y82.964 E15.03948
G1 X114.353 Y83.09 E15.12483
G1 X116.887 Y83.143 E15.20913
G1 X119.42 Y83.124 E15.29338
G1 X121.987 Y83.032 E15.37882
G1 X124.485 Y82.872 E15.46207
G1 X127.281 Y82.611 E15.55547
G1 X127.836 Y82.551 E15.57404
G1 X128.773 Y82.493 E15.60526
G1 X129.353 Y82.484 E15.62455
G1 X130.255 Y82.51 E15.65457
G1 X131.152 Y82.616 E15.68461
G1 X132.036 Y82.801 E15.71465
G1 X132.845 Y83.043 E15.74273
G1 X133.325 Y83.209 E15.75963
G1 X134.164 Y83.542 E15.78965
G1 X134.971 Y83.947 E15.81968
G1 X135.739 Y84.423 E15.84973
G1 X136.391 Y84.907 E15.87674
G1 X136.798 Y85.235 E15.89412
G1 X137.476 Y85.832 E15.92417
G1 X138.098 Y86.487 E15.95421
G1 X138.659 Y87.194 E15.98423
G1 X139.134 Y87.911 E16.01284
G1 X139.395 Y88.344 E16.02965
G1 X139.826 Y89.138 E16.0597
G1 X140.186 Y89.966 E16.08973
G1 X140.471 Y90.823 E16.11977
G1 X140.67 Y91.656 E16.14826
G1 X140.775 Y92.194 E16.16649
G1 X140.909 Y93.087 E16.19652
G1 X140.963 Y93.989 E16.22658
G1 X140.937 Y94.892 E16.25662
G1 X140.849 Y95.674 E16.2828
G1 X140.717 Y96.54 E16.31193
G1 X140.341 Y98.796 E16.388
G1 X139.78 Y102.633 E16.51698
G1 X139.675 Y103.477 E16.54527
G1 X139.269 Y107.348 E16.67472
G1 X139.2 Y108.176 E16.70236
G1 X138.95 Y112.114 E16.8336
G1 X138.913 Y112.988 E16.86269
G1 X138.828 Y116.723 E16.98695
G1 X138.825 Y117.634 E17.01725
G1 X138.897 Y121.579 E17.14849
G1 X138.932 Y122.465 E17.17798
G1 X139.159 Y126.29 E17.30542
G1 X139.232 Y127.205 E17.33595
G1 X139.605 Y130.941 E17.46083
G1 X139.705 Y131.769 E17.48857
G1 X140.261 Y135.706 E17.62081
G1 X140.825 Y139.14 E17.73656
G1 X140.932 Y140.037 E17.7666
G1 X140.959 Y140.939 E17.79662
G1 X140.859 Y142.225 E17.83952
G1 X140.786 Y142.74 E17.85682
G1 X140.62 Y143.627 E17.88683
G1 X140.376 Y144.497 E17.91689
G1 X140.056 Y145.341 E17.94691
G1 X139.687 Y146.108 E17.97522
G1 X139.439 Y146.573 E17.99275
G1 X138.979 Y147.35 E18.02278
G1 X138.452 Y148.084 E18.05283
G1 X137.863 Y148.768 E18.08285
G1 X137.226 Y149.388 E18.11242
G1 X136.849 Y149.724 E18.12922
G1 X136.148 Y150.294 E18.15927
G1 X135.401 Y150.8 E18.18928
G1 X134.611 Y151.239 E18.21934
G1 X133.847 Y151.581 E18.24718
G1 X133.359 Y151.776 E18.26465
G1 X132.506 Y152.073 E18.2947
G1 X131.631 Y152.295 E18.32472
G1 X130.739 Y152.437 E18.35476
G1 X129.855 Y152.5 E18.38424
G1 X129.311 Y152.515 E18.40234
G1 X127.981 Y152.465 E18.44661
G1 X125.714 Y152.231 E18.52241
G1 X123.209 Y152.036 E18.60598
G1 X120.646 Y151.91 E18.69133
G1 X118.113 Y151.857 E18.77559
G1 X115.58 Y151.876 E18.85984
G1 X113.013 Y151.968 E18.94528
G1 X110.515 Y152.128 E19.02853
G1 X107.719 Y152.389 E19.12193
G1 X107.164 Y152.449 E19.1405
G1 X106.227 Y152.507 E19.17172
G1 X105.647 Y152.516 E19.19101
G1 X104.745 Y152.49 E19.22103
G1 X103.848 Y152.384 E19.25107
G1 X102.964 Y152.199 E19.28111
G1 X102.155 Y151.957 E19.30919
G1 X101.675 Y151.791 E19.32609
G1 X100.836 Y151.458 E19.35611
G1 X100.029 Y151.053 E19.38614
G1 X99.261 Y150.577 E19.41619
G1 X98.609 Y150.093 E19.4432
G1 X98.202 Y149.765 E19.46059
G1 X97.524 Y149.168 E19.49063
G1 X96.902 Y148.513 E19.52068
G1 X96.341 Y147.806 E19.55069
G1 X95.861 Y147.08 E19.57964
G1 X95.6 Y146.646 E19.59649
G1 X95.169 Y145.852 E19.62653
G1 X94.81 Y145.023 E19.65658
G1 X94.526 Y144.166 E19.68661
G1 X94.331 Y143.346 E19.71464
G1 X94.226 Y142.809 E19.73284
G1 X94.092 Y141.916 E19.76288
G1 X94.037 Y141.015 E19.7929
G1 X94.063 Y140.112 E19.82295
G1 X94.151 Y139.328 E19.84918
G1 X94.287 Y138.431 E19.87936
G1 X94.662 Y136.187 E19.95503
G1 X95.22 Y132.367 E20.08343
G1 X95.331 Y131.479 E20.1132
G1 X95.724 Y127.729 E20.23861
G1 X95.801 Y126.816 E20.26908
G1 X96.053 Y122.819 E20.40229
G1 X96.089 Y121.967 E20.43065
G1 X96.172 Y118.28 E20.55331
G1 X96.175 Y117.364 E20.58378
G1 X96.102 Y113.407 E20.71541
G1 X96.067 Y112.518 E20.745
G1 X95.841 Y108.706 E20.87201
G1 X95.772 Y107.841 E20.90087
G1 X95.391 Y104.023 E21.02849
G1 X95.3 Y103.264 E21.05391
G1 X94.736 Y99.278 E21.18781
G1 X94.175 Y95.864 E21.30288
G1 X94.068 Y94.967 E21.33293
G1 X94.041 Y94.064 E21.36298
