;FLAVOR:Marlin
;TIME:1508
;Filament used: 0.937644m
;Layer height: 0.2
;MINX:74
;MINY:90.502
;MINZ:0.2
;MAXX:161
;MAXY:144.499
;MAXZ:6.4
;POSTPROCESSED
;Generated with Cura_SteamEngine 5.4.0
;
;

;
;



; Pre-Processed for Cancel-Object support by preprocess_cancellation v(0, 3, 'a1')
; 1 known objects
EXCLUDE_OBJECT_DEFINE NAME=Baseplate_stl CENTER=117.500,117.501 POLYGON=[[88.505,91.302],[87.722,91.313],[86.235,91.453],[84.925,91.679],[84.055,91.919],[83.209,92.235],[81.744,92.895],[80.963,93.35],[79.616,94.346],[78.944,94.917],[78.309,95.559],[77.734,96.255],[76.758,97.612],[76.313,98.398],[75.939,99.22],[75.438,100.509],[75.189,101.377],[74.942,102.778],[74.853,103.574],[74.8,105.207],[74.801,130.237],[74.871,131.605],[75.035,132.813],[75.177,133.568],[75.417,134.438],[75.732,135.285],[76.397,136.761],[76.853,137.541],[77.375,138.278],[78.422,139.562],[79.065,140.196],[79.761,140.771],[81.114,141.743],[81.9,142.188],[82.722,142.562],[83.994,143.056],[84.862,143.307],[86.265,143.556],[87.074,143.647],[87.863,143.689],[122.495,143.689],[123.397,143.642],[124.291,143.516],[152.315,137.66],[153.185,137.415],[154.029,137.095],[154.842,136.701],[155.616,136.237],[156.347,135.706],[157.028,135.112],[157.653,134.461],[158.219,133.757],[158.72,133.005],[159.152,132.213],[159.513,131.385],[159.799,130.528],[160.008,129.65],[160.139,128.756],[160.19,127.854],[160.2,107.593],[160.187,106.986],[160.11,105.988],[159.956,105.098],[159.725,104.225],[159.417,103.376],[159.035,102.557],[158.583,101.776],[158.063,101.037],[157.48,100.348],[156.838,99.712],[156.142,99.136],[155.398,98.624],[154.612,98.18],[153.79,97.807],[152.938,97.508],[152.062,97.286],[123.285,92.773],[88.505,91.302]]
M140 S50
M105
M190 S50
M104 S200
M105
M109 S200
M82 ;absolute extrusion mode
; Ender 3 Custom Start G-code
G92 E0 ; Reset Extruder
G28 ; Home all axes
G1 Z2.0 F3000 ; Move Z Axis up little to prevent scratching of Heat Bed
G1 X0.1 Y20 Z0.3 F5000.0 ; Move to start position
G1 X0.1 Y200.0 Z0.3 F1500.0 E15 ; Draw the first line
G1 X0.4 Y200.0 Z0.3 F5000.0 ; Move to side a little
G1 X0.4 Y20 Z0.3 F1500.0 E30 ; Draw the second line
G92 E0 ; Reset Extruder
G1 Z2.0 F3000 ; Move Z Axis up little to prevent scratching of Heat Bed
G1 X5 Y20 Z0.3 F5000.0 ; Move over to prevent blob squish
G92 E0
G92 E0
G1 F2700 E-0.75
;LAYER_COUNT:32
SET_PRINT_STATS_INFO TOTAL_LAYER=32
TIMELAPSE_TAKE_FRAME
;LAYER:0
SET_PRINT_STATS_INFO CURRENT_LAYER=1
M107
G0 F6000 X79.126 Y93.714 Z0.2
;TYPE:SKIRT
G1 F2700 E0
G1 F1200 X79.764 Y93.219 E0.02686
G1 X80.561 Y92.658 E0.05927
G1 X81.371 Y92.188 E0.09042
G1 X82.181 Y91.803 E0.12025
G1 X82.93 Y91.485 E0.14732
G1 X83.843 Y91.147 E0.1797
G1 X84.744 Y90.9 E0.21077
G1 X85.57 Y90.743 E0.23873
G1 X86.137 Y90.659 E0.2578
G1 X86.817 Y90.576 E0.28058
G1 X87.71 Y90.513 E0.31036
G1 X88.519 Y90.502 E0.33727
G1 X89.259 Y90.516 E0.36188
G1 X90.575 Y90.622 E0.4058
G1 X91.85 Y90.814 E0.44868
G1 X92.711 Y90.973 E0.4778
G1 X93.663 Y91.162 E0.51008
G1 X96.147 Y91.585 E0.59389
G1 X98.651 Y91.938 E0.678
G1 X101.161 Y92.22 E0.76201
G1 X103.666 Y92.432 E0.84562
G1 X106.161 Y92.569 E0.92873
G1 X108.692 Y92.638 E1.01294
G1 X111.182 Y92.634 E1.09576
G1 X113.75 Y92.559 E1.18121
G1 X116.236 Y92.417 E1.26403
G1 X118.759 Y92.197 E1.34826
G1 X120.618 Y92.004 E1.41043
G1 X121.459 Y91.941 E1.43848
G1 X122.434 Y91.919 E1.47091
G1 X123.405 Y91.983 E1.50328
G1 X124.35 Y92.128 E1.53508
G1 X125.128 Y92.291 E1.56152
G1 X126.128 Y92.541 E1.5958
G1 X128.427 Y93.195 E1.6753
G1 X130.926 Y93.833 E1.76108
G1 X133.327 Y94.373 E1.84293
G1 X135.848 Y94.866 E1.92837
G1 X138.302 Y95.277 E2.01113
G1 X140.791 Y95.617 E2.09468
G1 X143.307 Y95.892 E2.17886
G1 X145.813 Y96.094 E2.26248
G1 X148.332 Y96.223 E2.34637
G1 X150.327 Y96.279 E2.41275
G1 X151.3 Y96.351 E2.4452
G1 X152.258 Y96.51 E2.4775
G1 X153.169 Y96.743 E2.50878
G1 X154.121 Y97.079 E2.54236
G1 X155.006 Y97.484 E2.57473
G1 X155.852 Y97.964 E2.60708
G1 X156.596 Y98.476 E2.63712
G1 X157.402 Y99.144 E2.67194
G1 X158.044 Y99.78 E2.70199
G1 X158.718 Y100.577 E2.73671
G1 X159.257 Y101.346 E2.76794
G1 X159.761 Y102.219 E2.80147
G1 X160.143 Y103.038 E2.83153
G1 X160.499 Y104.021 E2.8663
G1 X160.744 Y104.962 E2.89864
G1 X160.908 Y105.927 E2.9312
G1 X160.987 Y106.969 E2.96596
G1 X161 Y107.593 E2.98671
G1 X160.999 Y127.137 E3.63675
G1 X160.988 Y127.9 E3.66213
G1 X160.931 Y128.873 E3.69455
G1 X160.786 Y129.836 E3.72694
G1 X160.557 Y130.782 E3.75931
G1 X160.246 Y131.706 E3.79174
G1 X159.854 Y132.597 E3.82411
G1 X159.386 Y133.449 E3.85645
G1 X158.864 Y134.23 E3.88769
G1 X158.231 Y135.015 E3.92123
G1 X157.606 Y135.666 E3.95125
G1 X156.817 Y136.354 E3.98606
G1 X156.057 Y136.904 E4.01727
G1 X155.19 Y137.421 E4.05084
G1 X154.312 Y137.843 E4.08324
G1 X153.401 Y138.185 E4.11561
G1 X152.463 Y138.446 E4.14799
G1 X151.576 Y138.612 E4.178
G1 X150.934 Y138.688 E4.1995
G1 X149.1 Y138.831 E4.26069
G1 X146.562 Y139.084 E4.34552
G1 X144.043 Y139.408 E4.42999
G1 X141.575 Y139.795 E4.51308
G1 X139.119 Y140.252 E4.59617
G1 X136.638 Y140.787 E4.68059
G1 X134.227 Y141.379 E4.76316
G1 X131.781 Y142.054 E4.84755
G1 X129.381 Y142.788 E4.93103
G1 X127.266 Y143.509 E5.00535
G1 X126.097 Y143.882 E5.04616
G1 X125.353 Y144.091 E5.07186
G1 X124.473 Y144.296 E5.10192
G1 X123.438 Y144.441 E5.13668
G1 X122.494 Y144.488 E5.16811
G1 X121.177 Y144.419 E5.21198
G1 X120.565 Y144.345 E5.23248
G1 X117.529 Y143.913 E5.33448
G1 X114.976 Y143.626 E5.41992
G1 X112.523 Y143.419 E5.5018
G1 X109.983 Y143.282 E5.5864
G1 X107.48 Y143.214 E5.66969
G1 X104.96 Y143.218 E5.7535
G1 X102.456 Y143.293 E5.83682
G1 X99.938 Y143.44 E5.92071
G1 X97.403 Y143.658 E6.00534
G1 X94.938 Y143.942 E6.08787
G1 X92.096 Y144.349 E6.18336
G1 X91.594 Y144.41 E6.20018
G1 X90.337 Y144.491 E6.24207
G1 X88.549 Y144.499 E6.30154
G1 X87.82 Y144.487 E6.32579
G1 X86.985 Y144.442 E6.3536
G1 X86.147 Y144.348 E6.38165
G1 X85.597 Y144.265 E6.40015
G1 X84.71 Y144.093 E6.4302
G1 X83.716 Y143.806 E6.46461
G1 X83.15 Y143.596 E6.48469
G1 X82.39 Y143.29 E6.51194
G1 X81.506 Y142.884 E6.5443
G1 X80.66 Y142.403 E6.57666
G1 X79.933 Y141.903 E6.60601
G1 X79.251 Y141.387 E6.63446
G1 X78.503 Y140.765 E6.66681
G1 X77.812 Y140.08 E6.69917
G1 X77.22 Y139.383 E6.72959
G1 X76.732 Y138.755 E6.75604
G1 X76.162 Y137.944 E6.78901
G1 X75.69 Y137.134 E6.82019
G1 X75.299 Y136.311 E6.8505
G1 X74.982 Y135.563 E6.87752
G1 X74.645 Y134.65 E6.90989
G1 X74.405 Y133.78 E6.9399
G1 X74.243 Y132.931 E6.96865
G1 X74.157 Y132.351 E6.98815
G1 X74.073 Y131.661 E7.01127
G1 X74.015 Y130.836 E7.03878
G1 X74.001 Y130.237 E7.05871
G1 X74 Y105.196 E7.89158
G1 X74.013 Y104.321 E7.92068
G1 X74.057 Y103.485 E7.94853
G1 X74.15 Y102.66 E7.97614
G1 X74.232 Y102.112 E7.99457
G1 X74.411 Y101.191 E8.02577
G1 X74.678 Y100.26 E8.05799
G1 X74.904 Y99.65 E8.07962
G1 X75.211 Y98.888 E8.10695
G1 X75.617 Y98.003 E8.13933
G1 X76.081 Y97.187 E8.17055
G1 X76.622 Y96.401 E8.20229
G1 X77.118 Y95.745 E8.22964
G1 X77.741 Y94.996 E8.26205
G1 X78.426 Y94.307 E8.29436
G1 X79.126 Y93.714 E8.32487
G0 F6000 X79.371 Y94.03
G1 F1200 X79.995 Y93.546 E8.35114
G1 X80.762 Y93.004 E8.38238
G1 X81.572 Y92.534 E8.41352
G1 X82.337 Y92.171 E8.44169
G1 X83.069 Y91.86 E8.46814
G1 X83.949 Y91.533 E8.49936
G1 X84.819 Y91.293 E8.52938
G1 X85.629 Y91.139 E8.55681
G1 X86.186 Y91.056 E8.57554
G1 X86.845 Y90.975 E8.59762
G1 X87.716 Y90.913 E8.62666
G1 X88.512 Y90.902 E8.65314
G1 X89.227 Y90.915 E8.67692
G1 X90.516 Y91.018 E8.71993
G1 X91.777 Y91.207 E8.76234
G1 X92.633 Y91.365 E8.79129
G1 X93.589 Y91.555 E8.82371
G1 X96.091 Y91.981 E8.90813
G1 X98.606 Y92.336 E8.99261
G1 X101.119 Y92.618 E9.07671
G1 X103.632 Y92.83 E9.16059
G1 X106.15 Y92.969 E9.24447
G1 X108.682 Y93.038 E9.32872
G1 X111.194 Y93.034 E9.41227
G1 X113.762 Y92.959 E9.49771
G1 X116.271 Y92.815 E9.5813
G1 X118.794 Y92.596 E9.66553
G1 X120.648 Y92.403 E9.72753
G1 X121.469 Y92.341 E9.75491
G1 X122.408 Y92.318 E9.78615
G1 X123.345 Y92.378 E9.81738
G1 X124.268 Y92.519 E9.84844
G1 X125.031 Y92.679 E9.87437
G1 X126.019 Y92.926 E9.90824
G1 X128.328 Y93.583 E9.98809
G1 X130.827 Y94.221 E10.07387
G1 X133.25 Y94.766 E10.15647
G1 X135.777 Y95.26 E10.24211
G1 X138.236 Y95.671 E10.32503
G1 X140.748 Y96.015 E10.40936
G1 X143.268 Y96.29 E10.49367
G1 X145.781 Y96.492 E10.57753
G1 X148.321 Y96.623 E10.66212
G1 X150.298 Y96.678 E10.7279
G1 X151.235 Y96.746 E10.75915
G1 X152.16 Y96.898 E10.79033
G1 X153.036 Y97.12 E10.82038
G1 X153.955 Y97.443 E10.85278
G1 X154.809 Y97.832 E10.88399
G1 X155.625 Y98.294 E10.91518
G1 X156.369 Y98.806 E10.94522
G1 X157.12 Y99.428 E10.97765
G1 X157.762 Y100.064 E11.00771
G1 X158.39 Y100.807 E11.04007
G1 X158.929 Y101.576 E11.0713
G1 X159.398 Y102.388 E11.10249
G1 X159.78 Y103.207 E11.13255
G1 X160.112 Y104.123 E11.16495
G1 X160.35 Y105.03 E11.19614
G1 X160.509 Y105.957 E11.22742
G1 X160.587 Y106.977 E11.26145
G1 X160.6 Y107.593 E11.28194
G1 X160.599 Y127.132 E11.93181
G1 X160.589 Y127.877 E11.95659
G1 X160.535 Y128.814 E11.98781
G1 X160.397 Y129.743 E12.01905
G1 X160.178 Y130.655 E12.05024
G1 X159.88 Y131.545 E12.08146
G1 X159.503 Y132.405 E12.11269
G1 X159.053 Y133.227 E12.14386
G1 X158.531 Y134.008 E12.1751
G1 X157.942 Y134.738 E12.2063
G1 X157.317 Y135.389 E12.23632
G1 X156.582 Y136.03 E12.26875
G1 X155.822 Y136.58 E12.29996
G1 X155.016 Y137.061 E12.33117
G1 X154.171 Y137.469 E12.36238
G1 X153.293 Y137.8 E12.39359
G1 X152.389 Y138.053 E12.42481
G1 X151.502 Y138.219 E12.45483
G1 X150.9 Y138.289 E12.47499
G1 X150.082 Y138.359 E12.50229
G1 X149.068 Y138.432 E12.5361
G1 X146.511 Y138.687 E12.62157
G1 X143.992 Y139.011 E12.70605
G1 X141.513 Y139.4 E12.78951
G1 X139.035 Y139.861 E12.87334
G1 X136.554 Y140.396 E12.95775
G1 X134.121 Y140.993 E13.04108
G1 X131.664 Y141.671 E13.12585
G1 X129.264 Y142.405 E13.20932
G1 X127.144 Y143.128 E13.28382
G1 X125.989 Y143.497 E13.32415
G1 X125.262 Y143.701 E13.34927
G1 X124.382 Y143.906 E13.37932
G1 X123.418 Y144.041 E13.41169
G1 X122.474 Y144.088 E13.44313
G1 X121.225 Y144.022 E13.48473
G1 X120.621 Y143.949 E13.50497
G1 X117.574 Y143.515 E13.60733
G1 X115.018 Y143.228 E13.69288
G1 X112.557 Y143.021 E13.77502
G1 X109.994 Y142.882 E13.86039
G1 X107.49 Y142.814 E13.94371
G1 X104.948 Y142.818 E14.02825
G1 X102.444 Y142.893 E14.11158
G1 X99.904 Y143.041 E14.1962
G1 X97.369 Y143.26 E14.28083
G1 X94.881 Y143.546 E14.36412
G1 X92.047 Y143.952 E14.45935
G1 X91.568 Y144.011 E14.4754
G1 X90.335 Y144.091 E14.51649
G1 X88.555 Y144.099 E14.5757
G1 X87.842 Y144.088 E14.59941
G1 X87.029 Y144.044 E14.62649
G1 X86.206 Y143.952 E14.65404
G1 X85.673 Y143.872 E14.67196
G1 X84.786 Y143.7 E14.70202
G1 X83.855 Y143.431 E14.73425
G1 X83.299 Y143.225 E14.75397
G1 X82.556 Y142.926 E14.78061
G1 X81.703 Y142.536 E14.8118
G1 X80.887 Y142.073 E14.84301
G1 X80.16 Y141.573 E14.87235
G1 X79.506 Y141.079 E14.89961
G1 X78.784 Y140.481 E14.9308
G1 X78.117 Y139.821 E14.962
G1 X77.536 Y139.137 E14.99185
G1 X77.059 Y138.524 E15.01769
G1 X76.508 Y137.743 E15.04948
G1 X76.036 Y136.933 E15.08066
G1 X75.667 Y136.155 E15.1093
G1 X75.357 Y135.424 E15.13571
G1 X75.031 Y134.544 E15.16692
G1 X74.791 Y133.674 E15.19694
G1 X74.639 Y132.872 E15.22409
G1 X74.554 Y132.302 E15.24325
G1 X74.472 Y131.633 E15.26567
G1 X74.415 Y130.826 E15.29258
G1 X74.401 Y130.237 E15.31218
G1 X74.4 Y105.202 E16.14484
G1 X74.412 Y104.342 E16.17345
G1 X74.455 Y103.53 E16.2005
G1 X74.546 Y102.719 E16.22764
G1 X74.625 Y102.188 E16.24549
G1 X74.796 Y101.301 E16.27554
G1 X75.063 Y100.37 E16.30775
G1 X75.275 Y99.799 E16.32801
G1 X75.575 Y99.054 E16.35472
G1 X75.965 Y98.201 E16.38592
G1 X76.429 Y97.385 E16.41714
G1 X76.941 Y96.642 E16.44715
G1 X77.426 Y96 E16.47391
G1 X78.025 Y95.278 E16.50511
G1 X78.685 Y94.612 E16.5363
G1 X79.371 Y94.03 E16.56622
G0 F6000 X79.616 Y94.346
G1 F1200 X80.226 Y93.872 E16.59192
G1 X80.963 Y93.35 E16.62195
G1 X81.744 Y92.895 E16.65202
G1 X82.494 Y92.539 E16.67963
G1 X83.209 Y92.235 E16.70547
G1 X84.055 Y91.919 E16.73551
G1 X84.925 Y91.679 E16.76553
G1 X85.688 Y91.535 E16.79135
G1 X86.235 Y91.453 E16.80975
G1 X86.874 Y91.374 E16.83116
G1 X87.722 Y91.313 E16.85944
G1 X88.505 Y91.302 E16.88549
G1 X89.195 Y91.314 E16.90844
G1 X90.457 Y91.414 E16.95054
G1 X91.704 Y91.6 E16.99248
G1 X92.555 Y91.757 E17.02126
G1 X93.515 Y91.948 E17.05382
G1 X96.035 Y92.377 E17.13884
G1 X98.55 Y92.732 E17.22332
G1 X101.086 Y93.017 E17.30819
G1 X103.599 Y93.228 E17.39207
G1 X106.139 Y93.369 E17.47668
G1 X108.672 Y93.438 E17.56096
G1 X111.206 Y93.434 E17.64524
G1 X113.774 Y93.359 E17.73069
G1 X116.305 Y93.213 E17.81501
G1 X118.828 Y92.995 E17.89924
G1 X120.678 Y92.802 E17.96111
G1 X121.48 Y92.741 E17.98786
G1 X122.383 Y92.717 E18.0179
G1 X123.285 Y92.773 E18.04796
G1 X124.186 Y92.91 E18.07827
G1 X124.934 Y93.067 E18.10369
G1 X125.91 Y93.311 E18.13715
G1 X128.229 Y93.971 E18.21735
G1 X130.728 Y94.609 E18.30313
G1 X133.173 Y95.159 E18.38648
G1 X135.706 Y95.654 E18.47232
G1 X138.17 Y96.065 E18.55541
G1 X140.705 Y96.413 E18.64051
G1 X143.229 Y96.688 E18.72496
G1 X145.749 Y96.89 E18.80904
G1 X148.31 Y97.023 E18.89434
G1 X150.27 Y97.077 E18.95955
G1 X151.171 Y97.141 E18.9896
G1 X152.062 Y97.286 E19.01962
G1 X152.938 Y97.508 E19.04968
G1 X153.79 Y97.807 E19.07971
G1 X154.612 Y98.18 E19.10973
G1 X155.398 Y98.624 E19.13976
G1 X156.142 Y99.136 E19.1698
G1 X156.838 Y99.712 E19.19984
G1 X157.48 Y100.348 E19.2299
G1 X158.063 Y101.037 E19.25992
G1 X158.583 Y101.776 E19.28998
G1 X159.035 Y102.557 E19.31999
G1 X159.417 Y103.376 E19.35005
G1 X159.725 Y104.225 E19.38008
G1 X159.956 Y105.098 E19.41012
G1 X160.11 Y105.988 E19.44016
G1 X160.187 Y106.986 E19.47345
G1 X160.2 Y107.593 E19.49365
G1 X160.199 Y127.127 E20.14335
G1 X160.19 Y127.854 E20.16753
G1 X160.139 Y128.756 E20.19758
G1 X160.008 Y129.65 E20.22763
G1 X159.799 Y130.528 E20.25765
G1 X159.513 Y131.385 E20.2877
G1 X159.152 Y132.213 E20.31774
G1 X158.72 Y133.005 E20.34775
G1 X158.219 Y133.757 E20.3778
G1 X157.653 Y134.461 E20.40785
G1 X157.028 Y135.112 E20.43786
G1 X156.347 Y135.706 E20.46792
G1 X155.616 Y136.237 E20.49797
G1 X154.842 Y136.701 E20.52798
G1 X154.029 Y137.095 E20.55803
G1 X153.185 Y137.415 E20.58805
G1 X152.315 Y137.66 E20.61812
G1 X151.428 Y137.826 E20.64813
G1 X150.866 Y137.89 E20.66694
G1 X150.053 Y137.96 E20.69408
G1 X149.036 Y138.033 E20.728
G1 X146.46 Y138.29 E20.8141
G1 X143.941 Y138.614 E20.89857
G1 X141.451 Y139.005 E20.98241
G1 X138.951 Y139.47 E21.06698
G1 X136.47 Y140.005 E21.1514
G1 X134.015 Y140.607 E21.23547
G1 X131.547 Y141.288 E21.32062
G1 X129.147 Y142.022 E21.4041
G1 X127.022 Y142.747 E21.47878
G1 X125.881 Y143.112 E21.51862
G1 X125.171 Y143.311 E21.54314
G1 X124.291 Y143.516 E21.5732
G1 X123.397 Y143.642 E21.60323
G1 X122.495 Y143.689 E21.63327
G1 X121.273 Y143.625 E21.67397
G1 X120.677 Y143.553 E21.69393
G1 X117.619 Y143.117 E21.79667
G1 X115.063 Y142.83 E21.88222
G1 X112.59 Y142.623 E21.96476
G1 X110.005 Y142.482 E22.05086
G1 X107.5 Y142.414 E22.13421
G1 X104.936 Y142.418 E22.21949
G1 X102.432 Y142.493 E22.30281
G1 X99.869 Y142.642 E22.3882
G1 X97.334 Y142.862 E22.47283
G1 X94.824 Y143.15 E22.55686
G1 X91.997 Y143.555 E22.65185
G1 X91.542 Y143.612 E22.6671
G1 X90.333 Y143.691 E22.7074
G1 X88.561 Y143.699 E22.76634
G1 X87.863 Y143.689 E22.78955
G1 X87.074 Y143.647 E22.81583
G1 X86.265 Y143.556 E22.84291
G1 X85.749 Y143.479 E22.86026
G1 X84.862 Y143.307 E22.89031
G1 X83.994 Y143.056 E22.92037
G1 X83.448 Y142.854 E22.93973
G1 X82.722 Y142.562 E22.96576
G1 X81.9 Y142.188 E22.99579
G1 X81.114 Y141.743 E23.02583
G1 X80.387 Y141.243 E23.05518
G1 X79.761 Y140.771 E23.08126
G1 X79.065 Y140.196 E23.11128
G1 X78.422 Y139.562 E23.14132
G1 X77.852 Y138.891 E23.1706
G1 X77.375 Y138.278 E23.19643
G1 X76.853 Y137.541 E23.22647
G1 X76.397 Y136.761 E23.25652
G1 X76.035 Y135.999 E23.28458
G1 X75.732 Y135.285 E23.31038
G1 X75.417 Y134.438 E23.34044
G1 X75.177 Y133.568 E23.37045
G1 X75.035 Y132.813 E23.39601
G1 X74.951 Y132.253 E23.41484
G1 X74.871 Y131.605 E23.43656
G1 X74.815 Y130.816 E23.46286
G1 X74.801 Y130.237 E23.48213
G1 X74.8 Y105.207 E24.31463
G1 X74.811 Y104.363 E24.3427
G1 X74.853 Y103.574 E24.36898
G1 X74.942 Y102.778 E24.39562
G1 X75.018 Y102.264 E24.4129
G1 X75.189 Y101.377 E24.44295
